; #disp params :
; Printmode:0
; Layer:55
; Xmin:17.524 mm
; Xmax:307.494 mm
; XDimension:289.97 mm
; Ymin:11.164 mm
; Ymax:188.836 mm
; YDimension:177.672 mm
; Zmax:11 mm
; E0diam:0.4 mm
; E0len:11.6614 m
; E0temp:215 C
; Bedtemp:215 C
; Time:215.304 min
; #params end
; GCode generated by CraftWare

G28 X Y ; home horizontally
G28 Z ; home vertically


M104 S215 ;set head temp (no wait)
M190 S60 ;set bed temp (wait)
M109 S215 ;set head temp (wait)
; ------------------------------------
; Layer #0
; ------------------------------------
M106 S0 ;turn off fan
G21 ; mm
G90 ; abs
G92 E0 ;reset extr
G0 F600 Z0.200
;segType:Skirt
G0 F3000 E-1.00000
G0 X293.497 Y189.076 F5400
G0 F3000 E0.00000
G1 X293.232 Y188.811 E0.01246 F2400
G1 X292.835 Y188.678 E0.02639
G1 X288.861 Y186.294 E0.18052
G1 X288.464 Y186.162 E0.19445
G1 X288.199 Y185.897 E0.20691
G1 X287.801 Y185.764 E0.22084
G1 X284.490 Y183.777 E0.34928
G1 X284.093 Y183.645 E0.36321
G1 X283.828 Y183.380 E0.37567
G1 X283.430 Y183.248 E0.38961
G1 X283.166 Y182.983 E0.40207
G1 X282.768 Y182.850 E0.41600
G1 X279.457 Y180.863 E0.54444
G1 X279.059 Y180.731 E0.55837
G1 X278.795 Y180.466 E0.57083
G1 X278.397 Y180.334 E0.58476
G1 X275.086 Y178.347 E0.71320
G1 X274.688 Y178.214 E0.72713
G1 X274.424 Y177.949 E0.73959
G1 X274.026 Y177.817 E0.75352
G1 X273.761 Y177.552 E0.76598
G1 X273.364 Y177.420 E0.77991
G1 X270.053 Y175.433 E0.90835
G1 X269.655 Y175.300 E0.92228
G1 X269.390 Y175.035 E0.93474
G1 X268.993 Y174.903 E0.94867
G1 X265.682 Y172.916 E1.07712
G1 X265.284 Y172.784 E1.09105
G1 X265.019 Y172.519 E1.10351
G1 X264.622 Y172.386 E1.11744
G1 X260.648 Y170.002 E1.27156
G1 X260.251 Y169.870 E1.28550
G1 X259.986 Y169.605 E1.29796
G1 X259.589 Y169.472 E1.31189
G1 X255.615 Y167.088 E1.46602
G1 X255.218 Y166.956 E1.47995
G1 X254.953 Y166.691 E1.49241
G1 X254.555 Y166.558 E1.50634
G1 X251.244 Y164.572 E1.63478
G1 X250.847 Y164.439 E1.64871
G1 X250.582 Y164.174 E1.66117
G1 X250.185 Y164.042 E1.67510
G1 X249.920 Y163.777 E1.68756
G1 X249.522 Y163.644 E1.70149
G1 X246.211 Y161.658 E1.82993
G1 X245.814 Y161.525 E1.84386
G1 X245.549 Y161.260 E1.85632
G1 X245.151 Y161.128 E1.87025
G1 X241.840 Y159.141 E1.99869
G1 X241.443 Y159.008 E2.01262
G1 X241.178 Y158.744 E2.02509
G1 X240.780 Y158.611 E2.03902
G1 X237.469 Y156.624 E2.16746
G1 X237.072 Y156.492 E2.18139
G1 X236.807 Y156.227 E2.19385
G1 X236.409 Y156.094 E2.20778
G1 X236.144 Y155.830 E2.22024
G1 X235.747 Y155.697 E2.23417
G1 X232.436 Y153.710 E2.36261
G1 X232.038 Y153.578 E2.37654
G1 X231.773 Y153.313 E2.38900
G1 X231.376 Y153.181 E2.40293
G1 X228.065 Y151.194 E2.53137
G1 X227.667 Y151.061 E2.54530
G1 X227.402 Y150.796 E2.55776
G1 X227.005 Y150.664 E2.57169
G1 X223.694 Y148.677 E2.70013
G1 X223.296 Y148.545 E2.71407
G1 X223.031 Y148.280 E2.72653
G1 X222.634 Y148.147 E2.74046
G1 X222.369 Y147.882 E2.75292
G1 X221.972 Y147.750 E2.76685
G1 X218.660 Y145.763 E2.89529
G1 X218.263 Y145.631 E2.90922
G1 X217.998 Y145.366 E2.92168
G1 X217.601 Y145.233 E2.93561
G1 X214.289 Y143.246 E3.06405
G1 X213.892 Y143.114 E3.07798
G1 X213.627 Y142.849 E3.09044
G1 X213.230 Y142.717 E3.10437
G1 X209.919 Y140.730 E3.23281
G1 X209.521 Y140.597 E3.24674
G1 X209.256 Y140.332 E3.25920
G1 X208.859 Y140.200 E3.27314
G1 X204.223 Y137.418 E3.45295
G1 X203.826 Y137.286 E3.46688
G1 X203.561 Y137.021 E3.47934
G1 X203.163 Y136.889 E3.49327
G1 X199.852 Y134.902 E3.62171
G1 X199.455 Y134.769 E3.63564
G1 X199.190 Y134.505 E3.64810
G1 X198.792 Y134.372 E3.66204
G1 X196.143 Y132.783 E3.76479
G1 X195.746 Y132.650 E3.77872
G1 X195.481 Y132.385 E3.79118
G1 X195.084 Y132.253 E3.80511
G1 X194.819 Y131.988 E3.81757
G1 X194.421 Y131.855 E3.83150
G1 X191.772 Y130.266 E3.93425
G1 X191.375 Y130.134 E3.94818
G1 X191.110 Y129.869 E3.96064
G1 X190.713 Y129.736 E3.97457
G1 X186.739 Y127.352 E4.12870
G1 X186.342 Y127.220 E4.14263
G1 X186.077 Y126.955 E4.15509
G1 X185.679 Y126.822 E4.16903
G1 X182.368 Y124.835 E4.29746
G1 X181.971 Y124.703 E4.31140
G1 X181.706 Y124.438 E4.32386
G1 X181.308 Y124.306 E4.33779
G1 X181.044 Y124.041 E4.35025
G1 X180.646 Y123.908 E4.36418
G1 X177.335 Y121.921 E4.49262
G1 X176.937 Y121.789 E4.50655
G1 X176.673 Y121.524 E4.51901
G1 X176.275 Y121.392 E4.53294
G1 X176.010 Y121.127 E4.54540
G1 X175.613 Y120.994 E4.55933
G1 X172.302 Y119.007 E4.68777
G1 X171.904 Y118.875 E4.70170
G1 X171.639 Y118.610 E4.71416
G1 X171.242 Y118.478 E4.72809
G1 X167.931 Y116.491 E4.85653
G1 X167.533 Y116.358 E4.87046
G1 X167.268 Y116.093 E4.88292
G1 X166.871 Y115.961 E4.89685
G1 X163.560 Y113.974 E5.02529
G1 X163.162 Y113.842 E5.03922
G1 X162.897 Y113.577 E5.05168
G1 X162.500 Y113.444 E5.06562
G1 X162.235 Y113.179 E5.07808
G1 X161.838 Y113.047 E5.09201
G1 X158.526 Y111.060 E5.22045
G1 X158.129 Y110.928 E5.23438
G1 X157.864 Y110.663 E5.24684
G1 X157.467 Y110.530 E5.26077
G1 X153.493 Y108.146 E5.41490
G1 X153.096 Y108.014 E5.42883
G1 X152.831 Y107.749 E5.44129
G1 X152.434 Y107.616 E5.45522
G1 X149.122 Y105.630 E5.58366
G1 X148.725 Y105.497 E5.59759
G1 X148.460 Y105.232 E5.61005
G1 X148.063 Y105.100 E5.62398
G1 X147.798 Y104.835 E5.63644
G1 X147.400 Y104.702 E5.65037
G1 X144.089 Y102.716 E5.77881
G1 X143.692 Y102.583 E5.79274
G1 X143.427 Y102.318 E5.80520
G1 X143.029 Y102.186 E5.81913
G1 X140.380 Y100.596 E5.92188
G1 X139.983 Y100.464 E5.93582
G1 X139.718 Y100.199 E5.94828
G1 X139.321 Y100.066 E5.96221
G1 X139.056 Y99.802 E5.97467
G1 X138.658 Y99.669 E5.98860
G1 X135.347 Y97.682 E6.11704
G1 X134.950 Y97.550 E6.13097
G1 X134.685 Y97.285 E6.14343
G1 X134.287 Y97.152 E6.15736
G1 X134.022 Y96.888 E6.16982
G1 X133.625 Y96.755 E6.18375
G1 X130.314 Y94.768 E6.31219
G1 X129.916 Y94.636 E6.32612
G1 X129.651 Y94.371 E6.33858
G1 X129.254 Y94.239 E6.35251
G1 X125.280 Y91.854 E6.50664
G1 X124.883 Y91.722 E6.52057
G1 X124.618 Y91.457 E6.53303
G1 X124.221 Y91.325 E6.54696
G1 X120.909 Y89.338 E6.67540
G1 X120.512 Y89.205 E6.68933
G1 X120.247 Y88.940 E6.70179
G1 X119.850 Y88.808 E6.71573
G1 X116.538 Y86.821 E6.84416
G1 X116.141 Y86.689 E6.85810
G1 X115.876 Y86.424 E6.87056
G1 X115.479 Y86.291 E6.88449
G1 X115.214 Y86.026 E6.89695
G1 X114.817 Y85.894 E6.91088
G1 X111.505 Y83.907 E7.03932
G1 X111.108 Y83.775 E7.05325
G1 X110.843 Y83.510 E7.06571
G1 X110.446 Y83.377 E7.07964
G1 X106.472 Y80.993 E7.23377
G1 X106.075 Y80.861 E7.24770
G1 X105.810 Y80.596 E7.26016
G1 X105.412 Y80.463 E7.27409
G1 X102.101 Y78.476 E7.40253
G1 X101.704 Y78.344 E7.41646
G1 X101.439 Y78.079 E7.42892
G1 X101.041 Y77.947 E7.44285
G1 X100.776 Y77.682 E7.45531
G1 X100.379 Y77.549 E7.46924
G1 X97.068 Y75.563 E7.59768
G1 X96.670 Y75.430 E7.61162
G1 X96.405 Y75.165 E7.62408
G1 X96.008 Y75.033 E7.63801
G1 X92.697 Y73.046 E7.76645
G1 X92.299 Y72.913 E7.78038
G1 X92.035 Y72.649 E7.79284
G1 X91.637 Y72.516 E7.80677
G1 X91.372 Y72.251 E7.81923
G1 X90.975 Y72.119 E7.83316
G1 X87.664 Y70.132 E7.96160
G1 X87.266 Y69.999 E7.97553
G1 X87.001 Y69.735 E7.98799
G1 X86.604 Y69.602 E8.00192
G1 X83.293 Y67.615 E8.13036
G1 X82.895 Y67.483 E8.14429
G1 X82.630 Y67.218 E8.15675
G1 X82.233 Y67.085 E8.17069
G1 X78.259 Y64.701 E8.32481
G1 X77.887 Y64.577 E8.33786
G0 F3000 E7.33786
G0 X29.207 Y29.842 F5400
G0 X23.003 Y25.416
G0 X23.003 Y25.416
G0 F3000 E8.33786
;segType:Loop
G1 X23.598 Y24.386 E8.37741 F2400
G1 X23.724 Y24.314 E8.38224
G1 X297.614 Y182.446 E18.90115
G1 X297.489 Y182.392 E18.90569
G1 X296.691 Y183.774 E18.95875
G1 X296.511 Y184.000 E18.96837
G1 X296.426 Y184.119 E18.97324
G1 X22.738 Y26.108 E29.48431
G1 X22.732 Y25.985 E29.48838
G1 X22.854 Y25.675 E29.49949
G1 X22.903 Y25.589 E29.50277
G0 X22.906 Y26.205 F5400
G0 X22.908 Y26.590
;segType:Perimeter
G1 X22.232 Y26.162 E29.52938 F1439
G1 X22.493 Y25.500 E29.55304
G1 X23.435 Y23.868 E29.61575
G1 X23.648 Y23.808 E29.62309
G1 X298.012 Y182.222 E40.16036
G1 X298.031 Y182.252 E40.16153
G1 X297.022 Y184.000 E40.22865
G1 X296.537 Y184.608 E40.25454
G1 X296.412 Y184.585 E40.25878
G1 X22.302 Y26.318 E50.78629
G1 X22.251 Y26.262 E50.78878
G0 X22.232 Y26.162 F5400
G0 X22.493 Y25.500
G0 X22.937 Y24.731
G0 X23.841 Y24.843
;segType:Loop
G1 X296.952 Y182.522 E61.27770 F2400
G1 X296.486 Y183.329 E61.30870
G1 X296.322 Y183.597 E61.31917
G1 X23.338 Y25.992 E71.80321
G1 X23.215 Y25.849 E71.80949
G1 X23.832 Y24.781 E71.85049
G1 X23.841 Y24.843 E71.85256
G0 X24.594 Y25.739 F5400
G1 X296.403 Y182.667 E82.29152 F2400
G1 X296.178 Y183.052 E82.30638
G1 X23.836 Y25.818 E92.76575
G1 X23.770 Y25.689 E92.77058
G1 X23.954 Y25.370 E92.78282
G1 X24.420 Y25.639 E92.80074
G0 F3000 E91.80074
G0 X23.724 Y24.314 F5400
G0 X27.503 Y17.623
G0 X27.488 Y17.615
G0 F3000 E92.80074
G1 X27.503 Y17.623 E92.80129 F2400
G1 X28.309 Y16.226 E92.85497
G1 X28.479 Y16.013 E92.86400
G1 X28.593 Y15.889 E92.86960
G1 X302.279 Y173.901 E103.38066
G1 X302.280 Y173.985 E103.38347
G1 X302.146 Y174.324 E103.39558
G1 X301.275 Y175.834 E103.45356
G1 X301.294 Y175.695 E103.45824
G1 X27.488 Y17.615 E113.97385
G0 X27.488 Y17.615 F5400
G0 X27.402 Y17.565
G0 X27.488 Y17.615
G0 X27.503 Y17.623
G0 X27.555 Y17.922
;segType:Perimeter
G1 X26.999 Y17.696 E113.99380 F1439
G1 X27.978 Y16.000 E114.05896
G1 X28.438 Y15.423 E114.08350
G1 X28.557 Y15.407 E114.08751
G1 X302.668 Y173.675 E124.61501
G1 X302.763 Y173.848 E124.62160
G1 X302.507 Y174.499 E124.64487
G1 X301.544 Y176.168 E124.70895
G1 X301.403 Y176.232 E124.71409
G1 X27.129 Y17.870 E135.24789
G1 X27.016 Y17.784 E135.25259
G0 X26.999 Y17.696 F5400
G0 X27.799 Y16.311
G0 X28.391 Y16.885
;segType:Loop
G1 X28.505 Y16.686 E135.26022 F2400
G1 X28.683 Y16.403 E135.27135
G1 X301.782 Y174.075 E145.75983
G1 X301.751 Y174.209 E145.76440
G1 X301.193 Y175.175 E145.80148
G1 X28.049 Y17.477 E156.29170
G1 X28.291 Y17.058 E156.30779
G0 X28.903 Y16.993 F5400
G1 X301.387 Y174.309 E166.77261 F2400
G1 X301.222 Y174.326 E166.77815
G1 X301.047 Y174.628 E166.78976
G1 X28.595 Y17.330 E177.25338
G1 X28.739 Y17.082 E177.26292
; ------------------------------------
; Layer #1
; ------------------------------------
G92 E0 ;reset extr
G0 F3000 E-1.00000
G0 F600 Z0.400
G0 X23.449 Y24.134 F7200
G0 X29.937 Y29.818
G0 F3000 E0.00000
;segType:HShell
G0 X30.306 Y29.732 F7200
G1 X29.768 Y29.422 E0.05165 F3600
G1 X29.409 Y29.215 E0.08608
G1 X29.051 Y29.007 E0.12052
G1 X28.692 Y28.800 E0.15495
G1 X28.333 Y28.593 E0.18938
G1 X27.975 Y28.386 E0.22382
G1 X27.616 Y28.179 E0.25825
G1 X27.258 Y27.972 E0.29268
G1 X26.899 Y27.765 E0.32712
G1 X26.540 Y27.558 E0.36155
G1 X26.182 Y27.351 E0.39598
G1 X25.823 Y27.144 E0.43042
G1 X25.464 Y26.937 E0.46485
G1 X25.106 Y26.730 E0.49929
G1 X24.747 Y26.523 E0.53372
G1 X24.389 Y26.316 E0.56815
G1 X24.030 Y26.109 E0.60258
G0 X23.549 Y26.024 F7200
G1 X23.861 Y25.712 E0.61726 F3600
G0 X22.018 Y26.743 F7200
;segType:Perimeter
G1 X21.891 Y25.953 E0.64387 F2159
G1 X22.147 Y25.300 E0.66719
G1 X23.062 Y23.715 E0.72806
G1 X23.565 Y23.740 E0.74482
G1 X298.021 Y182.207 E11.28561
G1 X298.284 Y182.615 E11.30175
G1 X297.369 Y184.200 E11.36262
G1 X296.893 Y184.794 E11.38793
G1 X296.194 Y185.299 E11.41663
G1 X296.091 Y185.294 E11.42004
G1 X21.981 Y27.026 E21.94755
G1 X21.785 Y26.829 E21.95679
G1 X21.863 Y26.069 E21.98222
G0 X21.891 Y25.953 F7200
G0 X22.147 Y25.300
G0 X22.596 Y24.522
G0 X22.662 Y25.207
;segType:Loop
G1 X23.286 Y24.127 E22.02371 F3600
G1 X23.449 Y24.134 E22.02913
G1 X297.725 Y182.485 E32.56279
G1 X297.815 Y182.626 E32.56837
G1 X297.037 Y183.974 E32.62011
G1 X296.615 Y184.502 E32.64260
G1 X296.189 Y184.809 E32.66009
G1 X296.061 Y184.807 E32.66435
G1 X22.274 Y26.734 E43.17932
G1 X22.215 Y26.557 E43.18551
G1 X22.262 Y26.104 E43.20064
G1 X22.508 Y25.474 E43.22315
G1 X22.562 Y25.380 E43.22676
G0 X22.562 Y25.380 F7200
G0 X23.832 Y24.356
G0 X23.544 Y24.588
G1 X23.546 Y24.653 E43.22890 F3600
G1 X297.209 Y182.649 E53.73899
G1 X296.695 Y183.762 E53.77973
G1 X296.337 Y184.209 E53.79880
G1 X296.184 Y184.320 E53.80507
G1 X296.049 Y184.334 E53.80958
G1 X22.771 Y26.559 E64.30490
G1 X22.629 Y26.443 E64.31102
G1 X22.654 Y26.199 E64.31916
G1 X22.870 Y25.648 E64.33885
G1 X23.489 Y24.575 E64.38005
G0 X24.243 Y25.517 F7200
G1 X296.692 Y182.813 E74.84355 F3600
G1 X296.352 Y183.549 E74.87053
G1 X296.151 Y183.801 E74.88127
G1 X296.035 Y183.864 E74.88565
G1 X23.167 Y26.325 E85.36523
G1 X23.078 Y26.214 E85.36998
G1 X23.231 Y25.822 E85.38400
G1 X23.616 Y25.155 E85.40961
G1 X24.070 Y25.417 E85.42705
G0 F3000 E84.42705
G0 X30.296 Y30.025 F7200
G0 F3000 E85.42705
;segType:HShell
G0 X30.306 Y29.732 F7200
G1 X30.844 Y30.043 E85.47870 F3600
G1 X31.203 Y30.250 E85.51313
G1 X31.561 Y30.457 E85.54756
G1 X31.920 Y30.664 E85.58199
G1 X32.278 Y30.871 E85.61642
G1 X32.637 Y31.078 E85.65086
G1 X32.996 Y31.285 E85.68529
G1 X33.354 Y31.492 E85.71972
G1 X33.713 Y31.699 E85.75415
G1 X34.072 Y31.906 E85.78858
G1 X34.430 Y32.113 E85.82301
G1 X34.789 Y32.320 E85.85744
G1 X35.147 Y32.527 E85.89188
G1 X35.506 Y32.734 E85.92631
G1 X35.865 Y32.941 E85.96074
G1 X36.223 Y33.149 E85.99517
G1 X36.582 Y33.356 E86.02960
G1 X36.941 Y33.563 E86.06403
G1 X37.299 Y33.770 E86.09846
G1 X37.658 Y33.977 E86.13290
G1 X38.017 Y34.184 E86.16733
G1 X38.375 Y34.391 E86.20176
G1 X38.734 Y34.598 E86.23619
G1 X39.092 Y34.805 E86.27062
G1 X39.451 Y35.012 E86.30505
G1 X39.810 Y35.219 E86.33949
G1 X40.168 Y35.426 E86.37392
G1 X40.527 Y35.633 E86.40835
G1 X40.886 Y35.840 E86.44278
G1 X41.244 Y36.047 E86.47721
G1 X41.603 Y36.254 E86.51164
G1 X41.961 Y36.461 E86.54607
G1 X42.320 Y36.668 E86.58051
G1 X42.679 Y36.876 E86.61494
G1 X43.037 Y37.083 E86.64937
G1 X43.396 Y37.290 E86.68380
G1 X43.755 Y37.497 E86.71823
G1 X44.113 Y37.704 E86.75266
G1 X44.472 Y37.911 E86.78709
G1 X44.831 Y38.118 E86.82153
G1 X45.189 Y38.325 E86.85596
G1 X45.548 Y38.532 E86.89039
G1 X45.906 Y38.739 E86.92482
G1 X46.265 Y38.946 E86.95925
G1 X46.624 Y39.153 E86.99368
G1 X46.982 Y39.360 E87.02811
G1 X47.341 Y39.567 E87.06255
G1 X47.700 Y39.774 E87.09698
G1 X48.058 Y39.981 E87.13141
G1 X48.417 Y40.188 E87.16584
G1 X48.775 Y40.395 E87.20027
G1 X49.134 Y40.602 E87.23470
G1 X49.493 Y40.810 E87.26913
G1 X49.851 Y41.017 E87.30357
G1 X50.210 Y41.224 E87.33800
G1 X50.569 Y41.431 E87.37243
G1 X50.927 Y41.638 E87.40686
G1 X51.286 Y41.845 E87.44129
G1 X51.645 Y42.052 E87.47572
G1 X52.003 Y42.259 E87.51015
G1 X52.362 Y42.466 E87.54459
G1 X52.720 Y42.673 E87.57902
G1 X53.079 Y42.880 E87.61345
G1 X53.438 Y43.087 E87.64788
G1 X53.796 Y43.294 E87.68231
G1 X54.155 Y43.501 E87.71674
G1 X54.514 Y43.708 E87.75117
G1 X54.872 Y43.915 E87.78561
G1 X55.231 Y44.122 E87.82004
G1 X55.589 Y44.329 E87.85447
G1 X55.948 Y44.536 E87.88890
G1 X56.307 Y44.744 E87.92333
G1 X56.665 Y44.951 E87.95776
G1 X57.024 Y45.158 E87.99220
G1 X57.383 Y45.365 E88.02663
G1 X57.741 Y45.572 E88.06106
G1 X58.100 Y45.779 E88.09549
G1 X58.459 Y45.986 E88.12992
G1 X58.817 Y46.193 E88.16435
G1 X59.176 Y46.400 E88.19878
G1 X59.534 Y46.607 E88.23322
G1 X59.893 Y46.814 E88.26765
G1 X60.252 Y47.021 E88.30208
G1 X60.610 Y47.228 E88.33651
G1 X60.969 Y47.435 E88.37094
G1 X61.328 Y47.642 E88.40537
G1 X61.686 Y47.849 E88.43980
G1 X62.045 Y48.056 E88.47424
G1 X62.404 Y48.263 E88.50867
G1 X62.762 Y48.470 E88.54310
G1 X63.121 Y48.678 E88.57753
G1 X63.479 Y48.885 E88.61196
G1 X63.838 Y49.092 E88.64639
G1 X64.197 Y49.299 E88.68082
G1 X64.555 Y49.506 E88.71526
G1 X64.914 Y49.713 E88.74969
G1 X65.273 Y49.920 E88.78412
G1 X65.631 Y50.127 E88.81855
G1 X65.990 Y50.334 E88.85298
G1 X66.348 Y50.541 E88.88741
G1 X66.707 Y50.748 E88.92184
G1 X67.066 Y50.955 E88.95628
G1 X67.424 Y51.162 E88.99071
G1 X67.783 Y51.369 E89.02514
G1 X68.142 Y51.576 E89.05957
G1 X68.500 Y51.783 E89.09400
G1 X68.859 Y51.990 E89.12843
G1 X69.218 Y52.197 E89.16286
G1 X69.576 Y52.404 E89.19730
G1 X69.935 Y52.612 E89.23173
G1 X70.293 Y52.819 E89.26616
G1 X70.652 Y53.026 E89.30059
G1 X71.011 Y53.233 E89.33502
G1 X71.369 Y53.440 E89.36945
G1 X71.728 Y53.647 E89.40388
G1 X72.087 Y53.854 E89.43832
G1 X72.445 Y54.061 E89.47275
G1 X72.804 Y54.268 E89.50718
G1 X73.162 Y54.475 E89.54161
G1 X73.521 Y54.682 E89.57604
G1 X73.880 Y54.889 E89.61047
G1 X74.238 Y55.096 E89.64491
G1 X74.597 Y55.303 E89.67934
G1 X74.956 Y55.510 E89.71377
G1 X75.314 Y55.717 E89.74820
G1 X75.673 Y55.924 E89.78263
G1 X76.032 Y56.131 E89.81706
G1 X76.390 Y56.339 E89.85149
G1 X76.749 Y56.546 E89.88593
G1 X77.107 Y56.753 E89.92036
G1 X77.466 Y56.960 E89.95479
G1 X77.825 Y57.167 E89.98922
G1 X78.183 Y57.374 E90.02365
G1 X78.542 Y57.581 E90.05808
G1 X78.901 Y57.788 E90.09251
G1 X79.259 Y57.995 E90.12695
G1 X79.618 Y58.202 E90.16138
G1 X79.976 Y58.409 E90.19581
G1 X80.335 Y58.616 E90.23024
G1 X80.694 Y58.823 E90.26467
G1 X81.052 Y59.030 E90.29910
G1 X81.411 Y59.237 E90.33353
G1 X81.770 Y59.444 E90.36797
G1 X82.128 Y59.651 E90.40240
G1 X82.487 Y59.858 E90.43683
G1 X82.846 Y60.065 E90.47126
G1 X83.204 Y60.273 E90.50569
G1 X83.563 Y60.480 E90.54012
G1 X83.921 Y60.687 E90.57455
G1 X84.280 Y60.894 E90.60899
G1 X84.639 Y61.101 E90.64342
G1 X84.997 Y61.308 E90.67785
G1 X85.356 Y61.515 E90.71228
G1 X85.715 Y61.722 E90.74671
G1 X86.073 Y61.929 E90.78114
G1 X86.432 Y62.136 E90.81557
G1 X86.790 Y62.343 E90.85001
G1 X87.149 Y62.550 E90.88444
G1 X87.508 Y62.757 E90.91887
G1 X87.866 Y62.964 E90.95330
G1 X88.225 Y63.171 E90.98773
G1 X88.584 Y63.378 E91.02216
G1 X88.942 Y63.585 E91.05659
G1 X89.301 Y63.792 E91.09103
G1 X89.660 Y64.000 E91.12546
G1 X90.018 Y64.207 E91.15989
G1 X90.377 Y64.414 E91.19432
G1 X90.735 Y64.621 E91.22875
G1 X91.094 Y64.828 E91.26318
G1 X91.453 Y65.035 E91.29762
G1 X91.811 Y65.242 E91.33205
G1 X92.170 Y65.449 E91.36648
G1 X92.529 Y65.656 E91.40091
G1 X92.887 Y65.863 E91.43534
G1 X93.246 Y66.070 E91.46977
G1 X93.604 Y66.277 E91.50420
G1 X93.963 Y66.484 E91.53864
G1 X94.322 Y66.691 E91.57307
G1 X94.680 Y66.898 E91.60750
G1 X95.039 Y67.105 E91.64193
G1 X95.398 Y67.312 E91.67636
G1 X95.756 Y67.519 E91.71079
G1 X96.115 Y67.726 E91.74522
G1 X96.474 Y67.934 E91.77966
G1 X96.832 Y68.141 E91.81409
G1 X97.191 Y68.348 E91.84852
G1 X97.549 Y68.555 E91.88295
G1 X97.908 Y68.762 E91.91738
G1 X98.267 Y68.969 E91.95181
G1 X98.625 Y69.176 E91.98624
G1 X98.984 Y69.383 E92.02068
G1 X99.343 Y69.590 E92.05511
G1 X99.701 Y69.797 E92.08954
G1 X100.060 Y70.004 E92.12397
G1 X100.419 Y70.211 E92.15840
G1 X100.777 Y70.418 E92.19283
G1 X101.136 Y70.625 E92.22726
G1 X101.494 Y70.832 E92.26170
G1 X101.853 Y71.039 E92.29613
G1 X102.212 Y71.246 E92.33056
G1 X102.570 Y71.453 E92.36499
G1 X102.929 Y71.660 E92.39942
G1 X103.288 Y71.868 E92.43385
G1 X103.646 Y72.075 E92.46828
G1 X104.005 Y72.282 E92.50272
G1 X104.363 Y72.489 E92.53715
G1 X104.722 Y72.696 E92.57158
G1 X105.081 Y72.903 E92.60601
G1 X105.439 Y73.110 E92.64044
G1 X105.798 Y73.317 E92.67487
G1 X106.157 Y73.524 E92.70930
G1 X106.515 Y73.731 E92.74374
G1 X106.874 Y73.938 E92.77817
G1 X107.233 Y74.145 E92.81260
G1 X107.591 Y74.352 E92.84703
G1 X107.950 Y74.559 E92.88146
G1 X108.308 Y74.766 E92.91589
G1 X108.667 Y74.973 E92.95033
G1 X109.026 Y75.180 E92.98476
G1 X109.384 Y75.387 E93.01919
G1 X109.743 Y75.595 E93.05362
G1 X110.102 Y75.802 E93.08805
G1 X110.460 Y76.009 E93.12248
G1 X110.819 Y76.216 E93.15691
G1 X111.177 Y76.423 E93.19135
G1 X111.536 Y76.630 E93.22578
G1 X111.895 Y76.837 E93.26021
G1 X112.253 Y77.044 E93.29464
G1 X112.612 Y77.251 E93.32907
G1 X112.971 Y77.458 E93.36350
G1 X113.329 Y77.665 E93.39793
G1 X113.688 Y77.872 E93.43237
G1 X114.047 Y78.079 E93.46680
G1 X114.405 Y78.286 E93.50123
G1 X114.764 Y78.493 E93.53566
G1 X115.122 Y78.700 E93.57009
G1 X115.481 Y78.907 E93.60452
G1 X115.840 Y79.114 E93.63895
G1 X116.198 Y79.321 E93.67339
G1 X116.557 Y79.529 E93.70782
G1 X116.916 Y79.736 E93.74225
G1 X117.274 Y79.943 E93.77668
G1 X117.633 Y80.150 E93.81111
G1 X117.991 Y80.357 E93.84554
G1 X118.350 Y80.564 E93.87997
G1 X118.709 Y80.771 E93.91441
G1 X119.067 Y80.978 E93.94884
G1 X119.426 Y81.185 E93.98327
G1 X119.785 Y81.392 E94.01770
G1 X120.143 Y81.599 E94.05213
G1 X120.502 Y81.806 E94.08656
G1 X120.861 Y82.013 E94.12099
G1 X121.219 Y82.220 E94.15543
G1 X121.578 Y82.427 E94.18986
G1 X121.936 Y82.634 E94.22429
G1 X122.295 Y82.841 E94.25872
G1 X122.654 Y83.048 E94.29315
G1 X123.012 Y83.255 E94.32758
G1 X123.371 Y83.463 E94.36201
G1 X123.730 Y83.670 E94.39645
G1 X124.088 Y83.877 E94.43088
G1 X124.447 Y84.084 E94.46531
G1 X124.805 Y84.291 E94.49974
G1 X125.164 Y84.498 E94.53417
G1 X125.523 Y84.705 E94.56860
G1 X125.881 Y84.912 E94.60303
G1 X126.240 Y85.119 E94.63747
G1 X126.599 Y85.326 E94.67190
G1 X126.957 Y85.533 E94.70633
G1 X127.316 Y85.740 E94.74076
G1 X127.675 Y85.947 E94.77519
G1 X128.033 Y86.154 E94.80962
G1 X128.392 Y86.361 E94.84406
G1 X128.750 Y86.568 E94.87849
G1 X129.109 Y86.775 E94.91292
G1 X129.468 Y86.982 E94.94735
G1 X129.826 Y87.189 E94.98178
G1 X130.185 Y87.397 E95.01621
G1 X130.544 Y87.604 E95.05064
G1 X130.902 Y87.811 E95.08508
G1 X131.261 Y88.018 E95.11951
G1 X131.619 Y88.225 E95.15394
G1 X131.978 Y88.432 E95.18837
G1 X132.337 Y88.639 E95.22280
G1 X132.695 Y88.846 E95.25723
G1 X133.054 Y89.053 E95.29166
G1 X133.413 Y89.260 E95.32610
G1 X133.771 Y89.467 E95.36053
G1 X134.130 Y89.674 E95.39496
G1 X134.489 Y89.881 E95.42939
G1 X134.847 Y90.088 E95.46382
G1 X135.206 Y90.295 E95.49825
G1 X135.564 Y90.502 E95.53268
G1 X135.923 Y90.709 E95.56712
G1 X136.282 Y90.916 E95.60155
G1 X136.640 Y91.124 E95.63598
G1 X136.999 Y91.331 E95.67041
G1 X137.358 Y91.538 E95.70484
G1 X137.716 Y91.745 E95.73927
G1 X138.075 Y91.952 E95.77370
G1 X138.434 Y92.159 E95.80814
G1 X138.792 Y92.366 E95.84257
G1 X139.151 Y92.573 E95.87700
G1 X139.509 Y92.780 E95.91143
G1 X139.868 Y92.987 E95.94586
G1 X140.227 Y93.194 E95.98029
G1 X140.585 Y93.401 E96.01472
G1 X140.944 Y93.608 E96.04916
G1 X141.303 Y93.815 E96.08359
G1 X141.661 Y94.022 E96.11802
G1 X142.020 Y94.229 E96.15245
G1 X142.378 Y94.436 E96.18688
G1 X142.737 Y94.643 E96.22131
G1 X143.096 Y94.850 E96.25574
G1 X143.454 Y95.058 E96.29018
G1 X143.813 Y95.265 E96.32461
G1 X144.172 Y95.472 E96.35904
G1 X144.530 Y95.679 E96.39347
G1 X144.889 Y95.886 E96.42790
G1 X145.248 Y96.093 E96.46233
G1 X145.606 Y96.300 E96.49677
G1 X145.965 Y96.507 E96.53120
G1 X146.323 Y96.714 E96.56563
G1 X146.682 Y96.921 E96.60006
G1 X147.041 Y97.128 E96.63449
G1 X147.399 Y97.335 E96.66892
G1 X147.758 Y97.542 E96.70335
G1 X148.117 Y97.749 E96.73779
G1 X148.475 Y97.956 E96.77222
G1 X148.834 Y98.163 E96.80665
G1 X149.192 Y98.370 E96.84108
G1 X149.551 Y98.577 E96.87551
G1 X149.910 Y98.784 E96.90994
G1 X150.268 Y98.992 E96.94437
G1 X150.627 Y99.199 E96.97881
G1 X150.986 Y99.406 E97.01324
G1 X151.344 Y99.613 E97.04767
G1 X151.703 Y99.820 E97.08210
G1 X152.062 Y100.027 E97.11653
G1 X152.420 Y100.234 E97.15096
G1 X152.779 Y100.441 E97.18539
G1 X153.137 Y100.648 E97.21983
G1 X153.496 Y100.855 E97.25426
G1 X153.855 Y101.062 E97.28869
G1 X154.213 Y101.269 E97.32312
G1 X154.572 Y101.476 E97.35755
G1 X154.931 Y101.683 E97.39198
G1 X155.289 Y101.890 E97.42641
G1 X155.648 Y102.097 E97.46085
G1 X156.006 Y102.304 E97.49528
G1 X156.365 Y102.511 E97.52971
G1 X156.724 Y102.718 E97.56414
G1 X157.082 Y102.926 E97.59857
G1 X157.441 Y103.133 E97.63300
G1 X157.800 Y103.340 E97.66743
G1 X158.158 Y103.547 E97.70187
G1 X158.517 Y103.754 E97.73630
G1 X158.876 Y103.961 E97.77073
G1 X159.234 Y104.168 E97.80516
G1 X159.593 Y104.375 E97.83959
G1 X159.951 Y104.582 E97.87402
G1 X160.310 Y104.789 E97.90845
G1 X160.669 Y104.996 E97.94289
G1 X161.027 Y105.203 E97.97732
G1 X161.386 Y105.410 E98.01175
G1 X161.745 Y105.617 E98.04618
G1 X162.103 Y105.824 E98.08061
G1 X162.462 Y106.031 E98.11504
G1 X162.820 Y106.238 E98.14948
G1 X163.179 Y106.445 E98.18391
G1 X163.538 Y106.653 E98.21834
G1 X163.896 Y106.860 E98.25277
G1 X164.255 Y107.067 E98.28720
G1 X164.614 Y107.274 E98.32163
G1 X164.972 Y107.481 E98.35606
G1 X165.331 Y107.688 E98.39050
G1 X165.690 Y107.895 E98.42493
G1 X166.048 Y108.102 E98.45936
G1 X166.407 Y108.309 E98.49379
G1 X166.765 Y108.516 E98.52822
G1 X167.124 Y108.723 E98.56265
G1 X167.483 Y108.930 E98.59708
G1 X167.841 Y109.137 E98.63152
G1 X168.200 Y109.344 E98.66595
G1 X168.559 Y109.551 E98.70038
G1 X168.917 Y109.758 E98.73481
G1 X169.276 Y109.965 E98.76924
G1 X169.634 Y110.172 E98.80367
G1 X169.993 Y110.379 E98.83810
G1 X170.352 Y110.587 E98.87254
G1 X170.710 Y110.794 E98.90697
G1 X171.069 Y111.001 E98.94140
G1 X171.428 Y111.208 E98.97583
G1 X171.786 Y111.415 E99.01026
G1 X172.145 Y111.622 E99.04469
G1 X172.504 Y111.829 E99.07912
G1 X172.862 Y112.036 E99.11356
G1 X173.221 Y112.243 E99.14799
G1 X173.579 Y112.450 E99.18242
G1 X173.938 Y112.657 E99.21685
G1 X174.297 Y112.864 E99.25128
G1 X174.655 Y113.071 E99.28571
G1 X175.014 Y113.278 E99.32014
G1 X175.373 Y113.485 E99.35458
G1 X175.731 Y113.692 E99.38901
G1 X176.090 Y113.899 E99.42344
G1 X176.448 Y114.106 E99.45787
G1 X176.807 Y114.313 E99.49230
G1 X177.166 Y114.521 E99.52673
G1 X177.524 Y114.728 E99.56116
G1 X177.883 Y114.935 E99.59560
G1 X178.242 Y115.142 E99.63003
G1 X178.600 Y115.349 E99.66446
G1 X178.959 Y115.556 E99.69889
G1 X179.318 Y115.763 E99.73332
G1 X179.676 Y115.970 E99.76775
G1 X180.035 Y116.177 E99.80219
G1 X180.393 Y116.384 E99.83662
G1 X180.752 Y116.591 E99.87105
G1 X181.111 Y116.798 E99.90549
G1 X181.469 Y117.005 E99.93992
G1 X181.828 Y117.212 E99.97435
G1 X182.187 Y117.419 E100.00878
G1 X182.545 Y117.626 E100.04321
G1 X182.904 Y117.833 E100.07764
G1 X183.263 Y118.040 E100.11208
G1 X183.621 Y118.247 E100.14651
G1 X183.980 Y118.455 E100.18094
G1 X184.338 Y118.662 E100.21537
G1 X184.697 Y118.869 E100.24980
G1 X185.056 Y119.076 E100.28423
G1 X185.414 Y119.283 E100.31866
G1 X185.773 Y119.490 E100.35310
G1 X186.132 Y119.697 E100.38753
G1 X186.490 Y119.904 E100.42196
G1 X186.849 Y120.111 E100.45639
G1 X187.207 Y120.318 E100.49082
G1 X187.566 Y120.525 E100.52525
G1 X187.925 Y120.732 E100.55968
G1 X188.283 Y120.939 E100.59412
G1 X188.642 Y121.146 E100.62855
G1 X189.001 Y121.353 E100.66298
G1 X189.359 Y121.560 E100.69741
G1 X189.718 Y121.767 E100.73184
G1 X190.077 Y121.974 E100.76627
G1 X190.435 Y122.182 E100.80070
G1 X190.794 Y122.389 E100.83514
G1 X191.152 Y122.596 E100.86957
G1 X191.511 Y122.803 E100.90400
G1 X191.870 Y123.010 E100.93843
G1 X192.228 Y123.217 E100.97286
G1 X192.587 Y123.424 E101.00729
G1 X192.946 Y123.631 E101.04173
G1 X193.304 Y123.838 E101.07616
G1 X193.663 Y124.045 E101.11059
G1 X194.021 Y124.252 E101.14502
G1 X194.380 Y124.459 E101.17945
G1 X194.739 Y124.666 E101.21388
G1 X195.097 Y124.873 E101.24831
G1 X195.456 Y125.080 E101.28275
G1 X195.815 Y125.287 E101.31718
G1 X196.173 Y125.494 E101.35161
G1 X196.532 Y125.701 E101.38604
G1 X196.891 Y125.908 E101.42047
G1 X197.249 Y126.116 E101.45490
G1 X197.608 Y126.323 E101.48933
G1 X197.966 Y126.530 E101.52377
G1 X198.325 Y126.737 E101.55820
G1 X198.684 Y126.944 E101.59263
G1 X199.042 Y127.151 E101.62706
G1 X199.401 Y127.358 E101.66149
G1 X199.760 Y127.565 E101.69592
G1 X200.118 Y127.772 E101.73035
G1 X200.477 Y127.979 E101.76479
G1 X200.835 Y128.186 E101.79922
G1 X201.194 Y128.393 E101.83366
G1 X201.553 Y128.600 E101.86809
G1 X201.911 Y128.807 E101.90252
G1 X202.270 Y129.014 E101.93695
G1 X202.629 Y129.221 E101.97138
G1 X202.987 Y129.428 E102.00581
G1 X203.346 Y129.635 E102.04025
G1 X203.705 Y129.842 E102.07468
G1 X204.063 Y130.050 E102.10912
G1 X204.422 Y130.257 E102.14355
G1 X204.780 Y130.464 E102.17798
G1 X205.139 Y130.671 E102.21241
G1 X205.498 Y130.878 E102.24684
G1 X205.856 Y131.085 E102.28127
G1 X206.215 Y131.292 E102.31570
G1 X206.574 Y131.499 E102.35014
G1 X206.932 Y131.706 E102.38457
G1 X207.291 Y131.913 E102.41900
G1 X207.649 Y132.120 E102.45343
G1 X208.008 Y132.327 E102.48786
G1 X208.367 Y132.534 E102.52229
G1 X208.725 Y132.741 E102.55672
G1 X209.084 Y132.948 E102.59116
G1 X209.443 Y133.155 E102.62559
G1 X209.801 Y133.362 E102.66002
G1 X210.160 Y133.569 E102.69445
G1 X210.519 Y133.777 E102.72888
G1 X210.877 Y133.984 E102.76331
G1 X211.236 Y134.191 E102.79774
G1 X211.594 Y134.398 E102.83218
G1 X211.953 Y134.605 E102.86661
G1 X212.312 Y134.812 E102.90104
G1 X212.670 Y135.019 E102.93547
G1 X213.029 Y135.226 E102.96990
G1 X213.388 Y135.433 E103.00433
G1 X213.746 Y135.640 E103.03876
G1 X214.105 Y135.847 E103.07320
G1 X214.464 Y136.054 E103.10763
G1 X214.822 Y136.261 E103.14206
G1 X215.181 Y136.468 E103.17649
G1 X215.539 Y136.675 E103.21092
G1 X215.898 Y136.882 E103.24535
G1 X216.257 Y137.089 E103.27979
G1 X216.615 Y137.296 E103.31422
G1 X216.974 Y137.503 E103.34865
G1 X217.333 Y137.711 E103.38308
G1 X217.691 Y137.918 E103.41751
G1 X218.050 Y138.125 E103.45194
G1 X218.408 Y138.332 E103.48637
G1 X218.767 Y138.539 E103.52081
G1 X219.126 Y138.746 E103.55524
G1 X219.484 Y138.953 E103.58967
G1 X219.843 Y139.160 E103.62410
G1 X220.202 Y139.367 E103.65853
G1 X220.560 Y139.574 E103.69296
G1 X220.919 Y139.781 E103.72739
G1 X221.278 Y139.988 E103.76183
G1 X221.636 Y140.195 E103.79626
G1 X221.995 Y140.402 E103.83069
G1 X222.353 Y140.609 E103.86512
G1 X222.712 Y140.816 E103.89955
G1 X223.071 Y141.023 E103.93398
G1 X223.429 Y141.230 E103.96841
G1 X223.788 Y141.437 E104.00285
G1 X224.147 Y141.645 E104.03728
G1 X224.505 Y141.852 E104.07171
G1 X224.864 Y142.059 E104.10614
G1 X225.222 Y142.266 E104.14057
G1 X225.581 Y142.473 E104.17500
G1 X225.940 Y142.680 E104.20943
G1 X226.298 Y142.887 E104.24387
G1 X226.657 Y143.094 E104.27830
G1 X227.016 Y143.301 E104.31273
G1 X227.374 Y143.508 E104.34716
G1 X227.733 Y143.715 E104.38159
G1 X228.092 Y143.922 E104.41602
G1 X228.450 Y144.129 E104.45045
G1 X228.809 Y144.336 E104.48489
G1 X229.167 Y144.543 E104.51933
G1 X229.526 Y144.750 E104.55376
G1 X229.885 Y144.957 E104.58819
G1 X230.243 Y145.164 E104.62262
G1 X230.602 Y145.371 E104.65705
G1 X230.961 Y145.579 E104.69148
G1 X231.319 Y145.786 E104.72592
G1 X231.678 Y145.993 E104.76035
G1 X232.036 Y146.200 E104.79478
G1 X232.395 Y146.407 E104.82922
G1 X232.754 Y146.614 E104.86366
G1 X233.112 Y146.821 E104.89809
G1 X233.471 Y147.028 E104.93253
G1 X233.830 Y147.235 E104.96696
G1 X234.188 Y147.442 E105.00139
G1 X234.547 Y147.649 E105.03583
G1 X234.906 Y147.856 E105.07026
G1 X235.264 Y148.063 E105.10469
G1 X235.623 Y148.270 E105.13912
G1 X235.981 Y148.477 E105.17355
G1 X236.340 Y148.684 E105.20798
G1 X236.699 Y148.891 E105.24242
G1 X237.057 Y149.098 E105.27685
G1 X237.416 Y149.306 E105.31128
G1 X237.775 Y149.513 E105.34571
G1 X238.133 Y149.720 E105.38014
G1 X238.492 Y149.927 E105.41457
G1 X238.850 Y150.134 E105.44901
G1 X239.209 Y150.341 E105.48344
G1 X239.568 Y150.548 E105.51787
G1 X239.926 Y150.755 E105.55230
G1 X240.285 Y150.962 E105.58673
G1 X240.644 Y151.169 E105.62116
G1 X241.002 Y151.376 E105.65559
G1 X241.361 Y151.583 E105.69003
G1 X241.720 Y151.790 E105.72446
G1 X242.078 Y151.997 E105.75889
G1 X242.437 Y152.204 E105.79332
G1 X242.795 Y152.411 E105.82775
G1 X243.154 Y152.618 E105.86218
G1 X243.513 Y152.825 E105.89661
G1 X243.871 Y153.032 E105.93105
G1 X244.230 Y153.240 E105.96548
G1 X244.589 Y153.447 E105.99991
G1 X244.947 Y153.654 E106.03434
G1 X245.306 Y153.861 E106.06877
G1 X245.664 Y154.068 E106.10320
G1 X246.023 Y154.275 E106.13763
G1 X246.382 Y154.482 E106.17207
G1 X246.740 Y154.689 E106.20650
G1 X247.099 Y154.896 E106.24093
G1 X247.458 Y155.103 E106.27536
G1 X247.816 Y155.310 E106.30979
G1 X248.175 Y155.517 E106.34422
G1 X248.534 Y155.724 E106.37865
G1 X248.892 Y155.931 E106.41309
G1 X249.251 Y156.138 E106.44752
G1 X249.609 Y156.345 E106.48195
G1 X249.968 Y156.552 E106.51638
G1 X250.327 Y156.759 E106.55081
G1 X250.685 Y156.966 E106.58524
G1 X251.044 Y157.174 E106.61967
G1 X251.403 Y157.381 E106.65411
G1 X251.761 Y157.588 E106.68854
G1 X252.120 Y157.795 E106.72297
G1 X252.478 Y158.002 E106.75740
G1 X252.837 Y158.209 E106.79183
G1 X253.196 Y158.416 E106.82626
G1 X253.554 Y158.623 E106.86069
G1 X253.913 Y158.830 E106.89513
G1 X254.272 Y159.037 E106.92956
G1 X254.630 Y159.244 E106.96399
G1 X254.989 Y159.451 E106.99842
G1 X255.348 Y159.658 E107.03285
G1 X255.706 Y159.865 E107.06728
G1 X256.065 Y160.072 E107.10172
G1 X256.423 Y160.279 E107.13615
G1 X256.782 Y160.486 E107.17059
G1 X257.141 Y160.693 E107.20502
G1 X257.499 Y160.901 E107.23945
G1 X257.858 Y161.108 E107.27388
G1 X258.217 Y161.315 E107.30831
G1 X258.575 Y161.522 E107.34274
G1 X258.934 Y161.729 E107.37717
G1 X259.292 Y161.936 E107.41161
G1 X259.651 Y162.143 E107.44604
G1 X260.010 Y162.350 E107.48047
G1 X260.368 Y162.557 E107.51491
G1 X260.727 Y162.764 E107.54934
G1 X261.086 Y162.971 E107.58377
G1 X261.444 Y163.178 E107.61820
G1 X261.803 Y163.385 E107.65263
G1 X262.162 Y163.592 E107.68707
G1 X262.520 Y163.799 E107.72150
G1 X262.879 Y164.006 E107.75593
G1 X263.237 Y164.213 E107.79036
G1 X263.596 Y164.420 E107.82479
G1 X263.955 Y164.627 E107.85922
G1 X264.313 Y164.835 E107.89365
G1 X264.672 Y165.042 E107.92809
G1 X265.031 Y165.249 E107.96252
G1 X265.389 Y165.456 E107.99696
G1 X265.748 Y165.663 E108.03139
G1 X266.107 Y165.870 E108.06582
G1 X266.465 Y166.077 E108.10025
G1 X266.824 Y166.284 E108.13468
G1 X267.182 Y166.491 E108.16911
G1 X267.541 Y166.698 E108.20354
G1 X267.900 Y166.905 E108.23798
G1 X268.258 Y167.112 E108.27241
G1 X268.617 Y167.319 E108.30684
G1 X268.976 Y167.526 E108.34128
G1 X269.334 Y167.733 E108.37571
G1 X269.693 Y167.940 E108.41014
G1 X270.051 Y168.147 E108.44457
G1 X270.410 Y168.354 E108.47900
G1 X270.769 Y168.561 E108.51344
G1 X271.127 Y168.769 E108.54787
G1 X271.486 Y168.976 E108.58230
G1 X271.845 Y169.183 E108.61673
G1 X272.203 Y169.390 E108.65116
G1 X272.562 Y169.597 E108.68559
G1 X272.920 Y169.804 E108.72002
G1 X273.279 Y170.011 E108.75446
G1 X273.638 Y170.218 E108.78889
G1 X273.996 Y170.425 E108.82332
G1 X274.355 Y170.632 E108.85775
G1 X274.714 Y170.839 E108.89218
G1 X275.072 Y171.046 E108.92661
G1 X275.431 Y171.253 E108.96104
G1 X275.790 Y171.460 E108.99548
G1 X276.148 Y171.667 E109.02991
G1 X276.507 Y171.874 E109.06434
G1 X276.865 Y172.081 E109.09877
G1 X277.224 Y172.288 E109.13320
G1 X277.583 Y172.495 E109.16763
G1 X277.941 Y172.703 E109.20206
G1 X278.300 Y172.910 E109.23650
G1 X278.659 Y173.117 E109.27093
G1 X279.017 Y173.324 E109.30536
G1 X279.376 Y173.531 E109.33979
G1 X279.735 Y173.738 E109.37422
G1 X280.093 Y173.945 E109.40865
G1 X280.452 Y174.152 E109.44308
G1 X280.810 Y174.359 E109.47752
G1 X281.169 Y174.566 E109.51195
G1 X281.528 Y174.773 E109.54638
G1 X281.886 Y174.980 E109.58081
G1 X282.245 Y175.187 E109.61524
G1 X282.604 Y175.394 E109.64967
G1 X282.962 Y175.601 E109.68410
G1 X283.321 Y175.808 E109.71854
G1 X283.679 Y176.015 E109.75297
G1 X284.038 Y176.222 E109.78740
G1 X284.397 Y176.430 E109.82183
G1 X284.755 Y176.637 E109.85626
G1 X285.114 Y176.844 E109.89069
G1 X285.473 Y177.051 E109.92513
G1 X285.831 Y177.258 E109.95956
G1 X286.190 Y177.465 E109.99399
G1 X286.549 Y177.672 E110.02842
G1 X286.907 Y177.879 E110.06285
G1 X287.266 Y178.086 E110.09728
G1 X287.624 Y178.293 E110.13171
G1 X287.983 Y178.500 E110.16615
G1 X288.342 Y178.707 E110.20058
G1 X288.700 Y178.914 E110.23501
G1 X289.059 Y179.121 E110.26944
G1 X289.418 Y179.328 E110.30387
G1 X289.776 Y179.535 E110.33830
G1 X290.135 Y179.742 E110.37273
G1 X290.493 Y179.949 E110.40717
G1 X290.852 Y180.156 E110.44160
G1 X291.211 Y180.364 E110.47603
G1 X291.569 Y180.571 E110.51047
G1 X291.928 Y180.778 E110.54490
G1 X292.287 Y180.985 E110.57933
G1 X292.645 Y181.192 E110.61376
G1 X293.004 Y181.399 E110.64819
G1 X293.363 Y181.606 E110.68262
G1 X293.721 Y181.813 E110.71706
G1 X294.080 Y182.020 E110.75149
G1 X294.438 Y182.227 E110.78592
G1 X294.797 Y182.434 E110.82035
G1 X295.156 Y182.641 E110.85478
G1 X295.514 Y182.848 E110.88921
G1 X295.873 Y183.055 E110.92365
G0 F3000 E109.92365
G0 X23.449 Y24.134 F7200
G0 X27.273 Y17.511
G0 X35.841 Y20.520
G0 F3000 E110.92365
G0 X35.831 Y20.813 F7200
G1 X35.293 Y20.503 E110.97530 F3600
G1 X34.934 Y20.296 E111.00974
G1 X34.576 Y20.088 E111.04417
G1 X34.217 Y19.881 E111.07860
G1 X33.858 Y19.674 E111.11303
G1 X33.500 Y19.467 E111.14746
G1 X33.141 Y19.260 E111.18189
G1 X32.782 Y19.053 E111.21632
G1 X32.424 Y18.846 E111.25076
G1 X32.065 Y18.639 E111.28519
G1 X31.707 Y18.432 E111.31962
G1 X31.348 Y18.225 E111.35405
G1 X30.989 Y18.018 E111.38848
G1 X30.631 Y17.811 E111.42291
G1 X30.272 Y17.604 E111.45734
G1 X29.913 Y17.397 E111.49178
G1 X29.555 Y17.190 E111.52621
G1 X29.196 Y16.983 E111.56064
G0 X27.273 Y17.511 F7200
G0 X27.190 Y17.736
;segType:Perimeter
G1 X26.746 Y17.333 E111.58060 F2159
G1 X27.631 Y15.800 E111.63947
G1 X28.107 Y15.206 E111.66477
G1 X28.774 Y14.725 E111.69214
G1 X28.960 Y14.746 E111.69838
G1 X303.208 Y173.092 E122.23116
G1 X303.215 Y173.171 E122.23376
G1 X303.131 Y173.990 E122.26118
G1 X302.853 Y174.700 E122.28653
G1 X301.939 Y176.285 E122.34737
G1 X301.416 Y176.260 E122.36475
G1 X26.989 Y17.809 E132.90443
G1 X26.749 Y17.435 E132.91920
G0 X26.746 Y17.333 F7200
G0 X27.546 Y15.947
G0 X27.962 Y16.027
G0 X27.613 Y16.632
;segType:Loop
G1 X27.962 Y16.027 E132.94247 F3600
G1 X28.385 Y15.498 E132.96497
G1 X28.797 Y15.201 E132.98189
G1 X28.954 Y15.204 E132.98711
G1 X302.744 Y173.275 E143.50211
G1 X302.788 Y173.414 E143.50696
G1 X302.738 Y173.895 E143.52304
G1 X302.492 Y174.527 E143.54558
G1 X301.714 Y175.873 E143.59731
G1 X301.555 Y175.866 E143.60260
G1 X27.273 Y17.511 E154.13651
G1 X27.185 Y17.374 E154.14194
G1 X27.513 Y16.806 E154.16376
G0 X28.525 Y15.964 F7200
G1 X28.663 Y15.791 E154.17111 F3600
G1 X28.802 Y15.691 E154.17682
G1 X28.969 Y15.674 E154.18239
G1 X302.246 Y173.449 E164.67772
G1 X302.374 Y173.528 E164.68271
G1 X302.346 Y173.800 E164.69180
G1 X302.130 Y174.353 E164.71152
G1 X301.571 Y175.322 E164.74875
G1 X301.472 Y175.356 E164.75223
G1 X27.579 Y17.226 E175.27116
G1 X27.739 Y17.213 E175.27650
G1 X28.294 Y16.253 E175.31338
G1 X28.400 Y16.120 E175.31906
G0 X29.236 Y16.291 F7200
G1 X301.851 Y173.683 E185.78892 F3600
G1 X301.934 Y173.757 E185.79260
G1 X301.769 Y174.179 E185.80766
G1 X301.337 Y174.927 E185.83638
G1 X301.354 Y174.826 E185.83976
G1 X28.240 Y17.146 E196.32882
G1 X28.625 Y16.479 E196.35442
G1 X28.839 Y16.212 E196.36580
G1 X28.983 Y16.145 E196.37110
G1 X29.063 Y16.191 E196.37418
G0 X29.025 Y16.588 F7200
;segType:HShell
G1 X28.913 Y16.700 E196.37942 F3600
G0 X36.200 Y20.727 F7200
G0 X35.831 Y20.813
G1 X36.369 Y21.124 E196.43108 F3600
G1 X36.727 Y21.331 E196.46552
G1 X37.086 Y21.538 E196.49996
G1 X37.445 Y21.745 E196.53440
G1 X37.803 Y21.952 E196.56884
G1 X38.162 Y22.159 E196.60328
G1 X38.521 Y22.366 E196.63772
G1 X38.879 Y22.573 E196.67214
G1 X39.238 Y22.780 E196.70658
G1 X39.597 Y22.987 E196.74102
G1 X39.955 Y23.194 E196.77546
G1 X40.314 Y23.401 E196.80990
G1 X40.672 Y23.608 E196.84434
G1 X41.031 Y23.815 E196.87878
G1 X41.390 Y24.022 E196.91322
G1 X41.748 Y24.230 E196.94766
G1 X42.107 Y24.437 E196.98210
G1 X42.466 Y24.644 E197.01654
G1 X42.824 Y24.851 E197.05098
G1 X43.183 Y25.058 E197.08542
G1 X43.541 Y25.265 E197.11986
G1 X43.900 Y25.472 E197.15430
G1 X44.259 Y25.679 E197.18874
G1 X44.617 Y25.886 E197.22318
G1 X44.976 Y26.093 E197.25762
G1 X45.335 Y26.300 E197.29206
G1 X45.693 Y26.507 E197.32650
G1 X46.052 Y26.714 E197.36094
G1 X46.411 Y26.921 E197.39538
G1 X46.769 Y27.128 E197.42980
G1 X47.128 Y27.335 E197.46424
G1 X47.486 Y27.542 E197.49868
G1 X47.845 Y27.749 E197.53312
G1 X48.204 Y27.956 E197.56756
G1 X48.562 Y28.164 E197.60200
G1 X48.921 Y28.371 E197.63644
G1 X49.280 Y28.578 E197.67088
G1 X49.638 Y28.785 E197.70532
G1 X49.997 Y28.992 E197.73976
G1 X50.355 Y29.199 E197.77420
G1 X50.714 Y29.406 E197.80864
G1 X51.073 Y29.613 E197.84308
G1 X51.431 Y29.820 E197.87752
G1 X51.790 Y30.027 E197.91196
G1 X52.149 Y30.234 E197.94640
G1 X52.507 Y30.441 E197.98084
G1 X52.866 Y30.648 E198.01528
G1 X53.225 Y30.855 E198.04972
G1 X53.583 Y31.062 E198.08416
G1 X53.942 Y31.269 E198.11860
G1 X54.300 Y31.476 E198.15304
G1 X54.659 Y31.683 E198.18746
G1 X55.018 Y31.890 E198.22190
G1 X55.376 Y32.098 E198.25634
G1 X55.735 Y32.305 E198.29078
G1 X56.094 Y32.512 E198.32522
G1 X56.452 Y32.719 E198.35966
G1 X56.811 Y32.926 E198.39410
G1 X57.169 Y33.133 E198.42854
G1 X57.528 Y33.340 E198.46298
G1 X57.887 Y33.547 E198.49742
G1 X58.245 Y33.754 E198.53186
G1 X58.604 Y33.961 E198.56630
G1 X58.963 Y34.168 E198.60074
G1 X59.321 Y34.375 E198.63518
G1 X59.680 Y34.582 E198.66962
G1 X60.039 Y34.789 E198.70406
G1 X60.397 Y34.996 E198.73850
G1 X60.756 Y35.203 E198.77294
G1 X61.114 Y35.410 E198.80738
G1 X61.473 Y35.617 E198.84182
G1 X61.832 Y35.824 E198.87626
G1 X62.190 Y36.032 E198.91070
G1 X62.549 Y36.239 E198.94512
G1 X62.908 Y36.446 E198.97956
G1 X63.266 Y36.653 E199.01400
G1 X63.625 Y36.860 E199.04844
G1 X63.983 Y37.067 E199.08288
G1 X64.342 Y37.274 E199.11732
G1 X64.701 Y37.481 E199.15176
G1 X65.059 Y37.688 E199.18620
G1 X65.418 Y37.895 E199.22064
G1 X65.777 Y38.102 E199.25508
G1 X66.135 Y38.309 E199.28952
G1 X66.494 Y38.516 E199.32396
G1 X66.853 Y38.723 E199.35840
G1 X67.211 Y38.930 E199.39284
G1 X67.570 Y39.137 E199.42728
G1 X67.928 Y39.344 E199.46172
G1 X68.287 Y39.551 E199.49616
G1 X68.646 Y39.759 E199.53060
G1 X69.004 Y39.966 E199.56504
G1 X69.363 Y40.173 E199.59948
G1 X69.722 Y40.380 E199.63392
G1 X70.080 Y40.587 E199.66836
G1 X70.439 Y40.794 E199.70278
G1 X70.797 Y41.001 E199.73722
G1 X71.156 Y41.208 E199.77166
G1 X71.515 Y41.415 E199.80610
G1 X71.873 Y41.622 E199.84054
G1 X72.232 Y41.829 E199.87498
G1 X72.591 Y42.036 E199.90942
G1 X72.949 Y42.243 E199.94386
G1 X73.308 Y42.450 E199.97830
G1 X73.667 Y42.657 E200.01274
G1 X74.025 Y42.864 E200.04718
G1 X74.384 Y43.071 E200.08162
G1 X74.742 Y43.278 E200.11606
G1 X75.101 Y43.485 E200.15050
G1 X75.460 Y43.693 E200.18494
G1 X75.818 Y43.900 E200.21938
G1 X76.177 Y44.107 E200.25382
G1 X76.536 Y44.314 E200.28826
G1 X76.894 Y44.521 E200.32270
G1 X77.253 Y44.728 E200.35714
G1 X77.611 Y44.935 E200.39158
G1 X77.970 Y45.142 E200.42602
G1 X78.329 Y45.349 E200.46044
G1 X78.687 Y45.556 E200.49488
G1 X79.046 Y45.763 E200.52932
G1 X79.405 Y45.970 E200.56376
G1 X79.763 Y46.177 E200.59820
G1 X80.122 Y46.384 E200.63264
G1 X80.481 Y46.591 E200.66708
G1 X80.839 Y46.798 E200.70152
G1 X81.198 Y47.005 E200.73596
G1 X81.556 Y47.212 E200.77040
G1 X81.915 Y47.419 E200.80484
G1 X82.274 Y47.627 E200.83928
G1 X82.632 Y47.834 E200.87372
G1 X82.991 Y48.041 E200.90816
G1 X83.350 Y48.248 E200.94260
G1 X83.708 Y48.455 E200.97704
G1 X84.067 Y48.662 E201.01148
G1 X84.426 Y48.869 E201.04592
G1 X84.784 Y49.076 E201.08036
G1 X85.143 Y49.283 E201.11480
G1 X85.501 Y49.490 E201.14924
G1 X85.860 Y49.697 E201.18368
G1 X86.219 Y49.904 E201.21810
G1 X86.577 Y50.111 E201.25254
G1 X86.936 Y50.318 E201.28698
G1 X87.295 Y50.525 E201.32142
G1 X87.653 Y50.732 E201.35586
G1 X88.012 Y50.939 E201.39030
G1 X88.370 Y51.146 E201.42474
G1 X88.729 Y51.354 E201.45918
G1 X89.088 Y51.561 E201.49362
G1 X89.446 Y51.768 E201.52806
G1 X89.805 Y51.975 E201.56250
G1 X90.164 Y52.182 E201.59694
G1 X90.522 Y52.389 E201.63138
G1 X90.881 Y52.596 E201.66582
G1 X91.240 Y52.803 E201.70026
G1 X91.598 Y53.010 E201.73470
G1 X91.957 Y53.217 E201.76914
G1 X92.315 Y53.424 E201.80358
G1 X92.674 Y53.631 E201.83802
G1 X93.033 Y53.838 E201.87246
G1 X93.391 Y54.045 E201.90690
G1 X93.750 Y54.252 E201.94132
G1 X94.109 Y54.459 E201.97576
G1 X94.467 Y54.666 E202.01020
G1 X94.826 Y54.873 E202.04464
G1 X95.184 Y55.080 E202.07908
G1 X95.543 Y55.288 E202.11352
G1 X95.902 Y55.495 E202.14796
G1 X96.260 Y55.702 E202.18240
G1 X96.619 Y55.909 E202.21684
G1 X96.978 Y56.116 E202.25128
G1 X97.336 Y56.323 E202.28572
G1 X97.695 Y56.530 E202.32016
G1 X98.054 Y56.737 E202.35460
G1 X98.412 Y56.944 E202.38904
G1 X98.771 Y57.151 E202.42348
G1 X99.129 Y57.358 E202.45792
G1 X99.488 Y57.565 E202.49236
G1 X99.847 Y57.772 E202.52680
G1 X100.205 Y57.979 E202.56124
G1 X100.564 Y58.186 E202.59568
G1 X100.923 Y58.393 E202.63012
G1 X101.281 Y58.600 E202.66456
G1 X101.640 Y58.807 E202.69898
G1 X101.998 Y59.014 E202.73342
G1 X102.357 Y59.222 E202.76786
G1 X102.716 Y59.429 E202.80230
G1 X103.074 Y59.636 E202.83674
G1 X103.433 Y59.843 E202.87118
G1 X103.792 Y60.050 E202.90562
G1 X104.150 Y60.257 E202.94006
G1 X104.509 Y60.464 E202.97450
G1 X104.868 Y60.671 E203.00894
G1 X105.226 Y60.878 E203.04338
G1 X105.585 Y61.085 E203.07782
G1 X105.943 Y61.292 E203.11226
G1 X106.302 Y61.499 E203.14670
G1 X106.661 Y61.706 E203.18114
G1 X107.019 Y61.913 E203.21558
G1 X107.378 Y62.120 E203.25002
G1 X107.737 Y62.327 E203.28446
G1 X108.095 Y62.534 E203.31890
G1 X108.454 Y62.741 E203.35334
G1 X108.812 Y62.948 E203.38778
G1 X109.171 Y63.156 E203.42222
G1 X109.530 Y63.363 E203.45664
G1 X109.888 Y63.570 E203.49108
G1 X110.247 Y63.777 E203.52552
G1 X110.606 Y63.984 E203.55996
G1 X110.964 Y64.191 E203.59440
G1 X111.323 Y64.398 E203.62884
G1 X111.682 Y64.605 E203.66328
G1 X112.040 Y64.812 E203.69772
G1 X112.399 Y65.019 E203.73216
G1 X112.757 Y65.226 E203.76660
G1 X113.116 Y65.433 E203.80104
G1 X113.475 Y65.640 E203.83548
G1 X113.833 Y65.847 E203.86992
G1 X114.192 Y66.054 E203.90436
G1 X114.551 Y66.261 E203.93880
G1 X114.909 Y66.468 E203.97324
G1 X115.268 Y66.675 E204.00768
G1 X115.626 Y66.883 E204.04212
G1 X115.985 Y67.090 E204.07656
G1 X116.344 Y67.297 E204.11100
G1 X116.702 Y67.504 E204.14544
G1 X117.061 Y67.711 E204.17988
G1 X117.420 Y67.918 E204.21430
G1 X117.778 Y68.125 E204.24874
G1 X118.137 Y68.332 E204.28318
G1 X118.496 Y68.539 E204.31762
G1 X118.854 Y68.746 E204.35206
G1 X119.213 Y68.953 E204.38650
G1 X119.571 Y69.160 E204.42094
G1 X119.930 Y69.367 E204.45538
G1 X120.289 Y69.574 E204.48982
G1 X120.647 Y69.781 E204.52426
G1 X121.006 Y69.988 E204.55870
G1 X121.365 Y70.195 E204.59314
G1 X121.723 Y70.402 E204.62758
G1 X122.082 Y70.609 E204.66202
G1 X122.441 Y70.817 E204.69646
G1 X122.799 Y71.024 E204.73090
G1 X123.158 Y71.231 E204.76534
G1 X123.516 Y71.438 E204.79978
G1 X123.875 Y71.645 E204.83422
G1 X124.234 Y71.852 E204.86866
G1 X124.592 Y72.059 E204.90310
G1 X124.951 Y72.266 E204.93754
G1 X125.310 Y72.473 E204.97196
G1 X125.668 Y72.680 E205.00640
G1 X126.027 Y72.887 E205.04084
G1 X126.385 Y73.094 E205.07528
G1 X126.744 Y73.301 E205.10972
G1 X127.103 Y73.508 E205.14416
G1 X127.461 Y73.715 E205.17860
G1 X127.820 Y73.922 E205.21304
G1 X128.179 Y74.129 E205.24748
G1 X128.537 Y74.336 E205.28192
G1 X128.896 Y74.543 E205.31636
G1 X129.255 Y74.751 E205.35080
G1 X129.613 Y74.958 E205.38524
G1 X129.972 Y75.165 E205.41968
G1 X130.330 Y75.372 E205.45412
G1 X130.689 Y75.579 E205.48856
G1 X131.048 Y75.786 E205.52300
G1 X131.406 Y75.993 E205.55744
G1 X131.765 Y76.200 E205.59188
G1 X132.124 Y76.407 E205.62632
G1 X132.482 Y76.614 E205.66076
G1 X132.841 Y76.821 E205.69520
G1 X133.199 Y77.028 E205.72962
G1 X133.558 Y77.235 E205.76406
G1 X133.917 Y77.442 E205.79850
G1 X134.275 Y77.649 E205.83294
G1 X134.634 Y77.856 E205.86738
G1 X134.993 Y78.063 E205.90182
G1 X135.351 Y78.270 E205.93626
G1 X135.710 Y78.478 E205.97070
G1 X136.069 Y78.685 E206.00514
G1 X136.427 Y78.892 E206.03958
G1 X136.786 Y79.099 E206.07402
G1 X137.144 Y79.306 E206.10846
G1 X137.503 Y79.513 E206.14290
G1 X137.862 Y79.720 E206.17734
G1 X138.220 Y79.927 E206.21178
G1 X138.579 Y80.134 E206.24622
G1 X138.938 Y80.341 E206.28066
G1 X139.296 Y80.548 E206.31510
G1 X139.655 Y80.755 E206.34954
G1 X140.013 Y80.962 E206.38398
G1 X140.372 Y81.169 E206.41842
G1 X140.731 Y81.376 E206.45286
G1 X141.089 Y81.583 E206.48728
G1 X141.448 Y81.790 E206.52172
G1 X141.807 Y81.997 E206.55616
G1 X142.165 Y82.204 E206.59060
G1 X142.524 Y82.412 E206.62504
G1 X142.883 Y82.619 E206.65948
G1 X143.241 Y82.826 E206.69392
G1 X143.600 Y83.033 E206.72836
G1 X143.958 Y83.240 E206.76280
G1 X144.317 Y83.447 E206.79724
G1 X144.676 Y83.654 E206.83168
G1 X145.034 Y83.861 E206.86612
G1 X145.393 Y84.068 E206.90056
G1 X145.752 Y84.275 E206.93500
G1 X146.110 Y84.482 E206.96944
G1 X146.469 Y84.689 E207.00388
G1 X146.827 Y84.896 E207.03832
G1 X147.186 Y85.103 E207.07276
G1 X147.545 Y85.310 E207.10720
G1 X147.903 Y85.517 E207.14164
G1 X148.262 Y85.724 E207.17608
G1 X148.621 Y85.931 E207.21052
G1 X148.979 Y86.138 E207.24494
G1 X149.338 Y86.346 E207.27938
G1 X149.697 Y86.553 E207.31382
G1 X150.055 Y86.760 E207.34826
G1 X150.414 Y86.967 E207.38270
G1 X150.772 Y87.174 E207.41714
G1 X151.131 Y87.381 E207.45158
G1 X151.490 Y87.588 E207.48602
G1 X151.848 Y87.795 E207.52046
G1 X152.207 Y88.002 E207.55490
G1 X152.566 Y88.209 E207.58934
G1 X152.924 Y88.416 E207.62378
G1 X153.283 Y88.623 E207.65822
G1 X153.641 Y88.830 E207.69266
G1 X154.000 Y89.037 E207.72710
G1 X154.359 Y89.244 E207.76154
G1 X154.717 Y89.451 E207.79598
G1 X155.076 Y89.658 E207.83042
G1 X155.435 Y89.865 E207.86486
G1 X155.793 Y90.072 E207.89930
G1 X156.152 Y90.280 E207.93374
G1 X156.511 Y90.487 E207.96818
G1 X156.869 Y90.694 E208.00260
G1 X157.228 Y90.901 E208.03704
G1 X157.586 Y91.108 E208.07148
G1 X157.945 Y91.315 E208.10592
G1 X158.304 Y91.522 E208.14036
G1 X158.662 Y91.729 E208.17480
G1 X159.021 Y91.936 E208.20924
G1 X159.380 Y92.143 E208.24368
G1 X159.738 Y92.350 E208.27812
G1 X160.097 Y92.557 E208.31256
G1 X160.456 Y92.764 E208.34700
G1 X160.814 Y92.971 E208.38144
G1 X161.173 Y93.178 E208.41588
G1 X161.531 Y93.385 E208.45032
G1 X161.890 Y93.592 E208.48476
G1 X162.249 Y93.799 E208.51920
G1 X162.607 Y94.007 E208.55364
G1 X162.966 Y94.214 E208.58808
G1 X163.325 Y94.421 E208.62252
G1 X163.683 Y94.628 E208.65696
G1 X164.042 Y94.835 E208.69140
G1 X164.400 Y95.042 E208.72584
G1 X164.759 Y95.249 E208.76026
G1 X165.118 Y95.456 E208.79470
G1 X165.476 Y95.663 E208.82914
G1 X165.835 Y95.870 E208.86358
G1 X166.194 Y96.077 E208.89802
G1 X166.552 Y96.284 E208.93246
G1 X166.911 Y96.491 E208.96690
G1 X167.270 Y96.698 E209.00134
G1 X167.628 Y96.905 E209.03578
G1 X167.987 Y97.112 E209.07022
G1 X168.345 Y97.319 E209.10466
G1 X168.704 Y97.526 E209.13910
G1 X169.063 Y97.733 E209.17354
G1 X169.421 Y97.941 E209.20798
G1 X169.780 Y98.148 E209.24242
G1 X170.139 Y98.355 E209.27686
G1 X170.497 Y98.562 E209.31130
G1 X170.856 Y98.769 E209.34574
G1 X171.214 Y98.976 E209.38018
G1 X171.573 Y99.183 E209.41462
G1 X171.932 Y99.390 E209.44906
G1 X172.290 Y99.597 E209.48348
G1 X172.649 Y99.804 E209.51792
G1 X173.008 Y100.011 E209.55236
G1 X173.366 Y100.218 E209.58680
G1 X173.725 Y100.425 E209.62124
G1 X174.084 Y100.632 E209.65568
G1 X174.442 Y100.839 E209.69012
G1 X174.801 Y101.046 E209.72456
G1 X175.159 Y101.253 E209.75900
G1 X175.518 Y101.460 E209.79344
G1 X175.877 Y101.667 E209.82788
G1 X176.235 Y101.875 E209.86232
G1 X176.594 Y102.082 E209.89676
G1 X176.953 Y102.289 E209.93120
G1 X177.311 Y102.496 E209.96564
G1 X177.670 Y102.703 E210.00008
G1 X178.028 Y102.910 E210.03452
G1 X178.387 Y103.117 E210.06896
G1 X178.746 Y103.324 E210.10340
G1 X179.104 Y103.531 E210.13784
G1 X179.463 Y103.738 E210.17228
G1 X179.822 Y103.945 E210.20672
G1 X180.180 Y104.152 E210.24114
G1 X180.539 Y104.359 E210.27558
G1 X180.898 Y104.566 E210.31002
G1 X181.256 Y104.773 E210.34446
G1 X181.615 Y104.980 E210.37890
G1 X181.973 Y105.187 E210.41334
G1 X182.332 Y105.394 E210.44778
G1 X182.691 Y105.601 E210.48222
G1 X183.049 Y105.809 E210.51666
G1 X183.408 Y106.016 E210.55110
G1 X183.767 Y106.223 E210.58554
G1 X184.125 Y106.430 E210.61998
G1 X184.484 Y106.637 E210.65442
G1 X184.842 Y106.844 E210.68886
G1 X185.201 Y107.051 E210.72330
G1 X185.560 Y107.258 E210.75774
G1 X185.918 Y107.465 E210.79218
G1 X186.277 Y107.672 E210.82662
G1 X186.636 Y107.879 E210.86106
G1 X186.994 Y108.086 E210.89550
G1 X187.353 Y108.293 E210.92994
G1 X187.712 Y108.500 E210.96438
G1 X188.070 Y108.707 E210.99880
G1 X188.429 Y108.914 E211.03324
G1 X188.787 Y109.121 E211.06768
G1 X189.146 Y109.328 E211.10212
G1 X189.505 Y109.536 E211.13656
G1 X189.863 Y109.743 E211.17100
G1 X190.222 Y109.950 E211.20544
G1 X190.581 Y110.157 E211.23988
G1 X190.939 Y110.364 E211.27432
G1 X191.298 Y110.571 E211.30876
G1 X191.657 Y110.778 E211.34320
G1 X192.015 Y110.985 E211.37764
G1 X192.374 Y111.192 E211.41208
G1 X192.732 Y111.399 E211.44652
G1 X193.091 Y111.606 E211.48096
G1 X193.450 Y111.813 E211.51540
G1 X193.808 Y112.020 E211.54984
G1 X194.167 Y112.227 E211.58428
G1 X194.526 Y112.434 E211.61872
G1 X194.884 Y112.641 E211.65316
G1 X195.243 Y112.848 E211.68760
G1 X195.601 Y113.055 E211.72204
G1 X195.960 Y113.262 E211.75646
G1 X196.319 Y113.470 E211.79090
G1 X196.677 Y113.677 E211.82534
G1 X197.036 Y113.884 E211.85978
G1 X197.395 Y114.091 E211.89422
G1 X197.753 Y114.298 E211.92866
G1 X198.112 Y114.505 E211.96310
G1 X198.470 Y114.712 E211.99754
G1 X198.829 Y114.919 E212.03198
G1 X199.188 Y115.126 E212.06642
G1 X199.546 Y115.333 E212.10086
G1 X199.905 Y115.540 E212.13530
G1 X200.264 Y115.747 E212.16974
G1 X200.622 Y115.954 E212.20418
G1 X200.981 Y116.161 E212.23862
G1 X201.340 Y116.368 E212.27306
G1 X201.698 Y116.575 E212.30750
G1 X202.057 Y116.782 E212.34194
G1 X202.415 Y116.989 E212.37638
G1 X202.774 Y117.196 E212.41082
G1 X203.133 Y117.404 E212.44526
G1 X203.491 Y117.611 E212.47970
G1 X203.850 Y117.818 E212.51412
G1 X204.209 Y118.025 E212.54856
G1 X204.567 Y118.232 E212.58300
G1 X204.926 Y118.439 E212.61744
G1 X205.285 Y118.646 E212.65188
G1 X205.643 Y118.853 E212.68632
G1 X206.002 Y119.060 E212.72076
G1 X206.360 Y119.267 E212.75520
G1 X206.719 Y119.474 E212.78964
G1 X207.078 Y119.681 E212.82408
G1 X207.436 Y119.888 E212.85852
G1 X207.795 Y120.095 E212.89296
G1 X208.154 Y120.302 E212.92740
G1 X208.512 Y120.509 E212.96184
G1 X208.871 Y120.716 E212.99628
G1 X209.229 Y120.923 E213.03072
G1 X209.588 Y121.131 E213.06516
G1 X209.947 Y121.338 E213.09960
G1 X210.305 Y121.545 E213.13404
G1 X210.664 Y121.752 E213.16848
G1 X211.023 Y121.959 E213.20292
G1 X211.381 Y122.166 E213.23736
G1 X211.740 Y122.373 E213.27178
G1 X212.099 Y122.580 E213.30622
G1 X212.457 Y122.787 E213.34066
G1 X212.816 Y122.994 E213.37510
G1 X213.174 Y123.201 E213.40954
G1 X213.533 Y123.408 E213.44398
G1 X213.892 Y123.615 E213.47842
G1 X214.250 Y123.822 E213.51286
G1 X214.609 Y124.029 E213.54730
G1 X214.968 Y124.236 E213.58174
G1 X215.326 Y124.443 E213.61618
G1 X215.685 Y124.650 E213.65062
G1 X216.043 Y124.857 E213.68506
G1 X216.402 Y125.065 E213.71950
G1 X216.761 Y125.272 E213.75394
G1 X217.119 Y125.479 E213.78838
G1 X217.478 Y125.686 E213.82282
G1 X217.837 Y125.893 E213.85726
G1 X218.195 Y126.100 E213.89170
G1 X218.554 Y126.307 E213.92614
G1 X218.913 Y126.514 E213.96058
G1 X219.271 Y126.721 E213.99502
G1 X219.630 Y126.928 E214.02944
G1 X219.988 Y127.135 E214.06388
G1 X220.347 Y127.342 E214.09832
G1 X220.706 Y127.549 E214.13276
G1 X221.064 Y127.756 E214.16720
G1 X221.423 Y127.963 E214.20164
G1 X221.782 Y128.170 E214.23608
G1 X222.140 Y128.377 E214.27052
G1 X222.499 Y128.584 E214.30496
G1 X222.857 Y128.791 E214.33940
G1 X223.216 Y128.999 E214.37384
G1 X223.575 Y129.206 E214.40828
G1 X223.933 Y129.413 E214.44272
G1 X224.292 Y129.620 E214.47716
G1 X224.651 Y129.827 E214.51160
G1 X225.009 Y130.034 E214.54604
G1 X225.368 Y130.241 E214.58048
G1 X225.727 Y130.448 E214.61492
G1 X226.085 Y130.655 E214.64936
G1 X226.444 Y130.862 E214.68380
G1 X226.802 Y131.069 E214.71824
G1 X227.161 Y131.276 E214.75268
G1 X227.520 Y131.483 E214.78710
G1 X227.878 Y131.690 E214.82154
G1 X228.237 Y131.897 E214.85598
G1 X228.596 Y132.104 E214.89042
G1 X228.954 Y132.311 E214.92486
G1 X229.313 Y132.518 E214.95930
G1 X229.671 Y132.726 E214.99374
G1 X230.030 Y132.933 E215.02818
G1 X230.389 Y133.140 E215.06262
G1 X230.747 Y133.347 E215.09706
G1 X231.106 Y133.554 E215.13150
G1 X231.465 Y133.761 E215.16594
G1 X231.823 Y133.968 E215.20038
G1 X232.182 Y134.175 E215.23482
G1 X232.541 Y134.382 E215.26926
G1 X232.899 Y134.589 E215.30370
G1 X233.258 Y134.796 E215.33814
G1 X233.616 Y135.003 E215.37258
G1 X233.975 Y135.210 E215.40702
G1 X234.334 Y135.417 E215.44146
G1 X234.692 Y135.624 E215.47590
G1 X235.051 Y135.831 E215.51034
G1 X235.410 Y136.038 E215.54476
G1 X235.768 Y136.245 E215.57920
G1 X236.127 Y136.452 E215.61364
G1 X236.485 Y136.660 E215.64808
G1 X236.844 Y136.867 E215.68252
G1 X237.203 Y137.074 E215.71696
G1 X237.561 Y137.281 E215.75140
G1 X237.920 Y137.488 E215.78584
G1 X238.279 Y137.695 E215.82028
G1 X238.637 Y137.902 E215.85472
G1 X238.996 Y138.109 E215.88916
G1 X239.355 Y138.316 E215.92360
G1 X239.713 Y138.523 E215.95804
G1 X240.072 Y138.730 E215.99248
G1 X240.430 Y138.937 E216.02692
G1 X240.789 Y139.144 E216.06136
G1 X241.148 Y139.351 E216.09580
G1 X241.506 Y139.558 E216.13024
G1 X241.865 Y139.765 E216.16468
G1 X242.224 Y139.972 E216.19912
G1 X242.582 Y140.179 E216.23356
G1 X242.941 Y140.386 E216.26800
G1 X243.299 Y140.594 E216.30242
G1 X243.658 Y140.801 E216.33686
G1 X244.017 Y141.008 E216.37130
G1 X244.375 Y141.215 E216.40574
G1 X244.734 Y141.422 E216.44018
G1 X245.093 Y141.629 E216.47462
G1 X245.451 Y141.836 E216.50906
G1 X245.810 Y142.043 E216.54350
G1 X246.169 Y142.250 E216.57794
G1 X246.527 Y142.457 E216.61238
G1 X246.886 Y142.664 E216.64682
G1 X247.244 Y142.871 E216.68126
G1 X247.603 Y143.078 E216.71570
G1 X247.962 Y143.285 E216.75014
G1 X248.320 Y143.492 E216.78458
G1 X248.679 Y143.699 E216.81902
G1 X249.038 Y143.906 E216.85346
G1 X249.396 Y144.113 E216.88790
G1 X249.755 Y144.320 E216.92234
G1 X250.114 Y144.528 E216.95678
G1 X250.472 Y144.735 E216.99122
G1 X250.831 Y144.942 E217.02566
G1 X251.189 Y145.149 E217.06008
G1 X251.548 Y145.356 E217.09452
G1 X251.907 Y145.563 E217.12896
G1 X252.265 Y145.770 E217.16340
G1 X252.624 Y145.977 E217.19784
G1 X252.983 Y146.184 E217.23228
G1 X253.341 Y146.391 E217.26672
G1 X253.700 Y146.598 E217.30116
G1 X254.058 Y146.805 E217.33560
G1 X254.417 Y147.012 E217.37004
G1 X254.776 Y147.219 E217.40448
G1 X255.134 Y147.426 E217.43892
G1 X255.493 Y147.633 E217.47336
G1 X255.852 Y147.840 E217.50780
G1 X256.210 Y148.047 E217.54224
G1 X256.569 Y148.255 E217.57668
G1 X256.927 Y148.462 E217.61112
G1 X257.286 Y148.669 E217.64556
G1 X257.645 Y148.876 E217.68000
G1 X258.003 Y149.083 E217.71444
G1 X258.362 Y149.290 E217.74888
G1 X258.721 Y149.497 E217.78330
G1 X259.079 Y149.704 E217.81774
G1 X259.438 Y149.911 E217.85218
G1 X259.797 Y150.118 E217.88662
G1 X260.155 Y150.325 E217.92106
G1 X260.514 Y150.532 E217.95550
G1 X260.872 Y150.739 E217.98994
G1 X261.231 Y150.946 E218.02438
G1 X261.590 Y151.153 E218.05882
G1 X261.948 Y151.360 E218.09326
G1 X262.307 Y151.567 E218.12770
G1 X262.666 Y151.774 E218.16214
G1 X263.024 Y151.981 E218.19658
G1 X263.383 Y152.189 E218.23102
G1 X263.742 Y152.396 E218.26546
G1 X264.100 Y152.603 E218.29990
G1 X264.459 Y152.810 E218.33434
G1 X264.817 Y153.017 E218.36878
G1 X265.176 Y153.224 E218.40322
G1 X265.535 Y153.431 E218.43766
G1 X265.893 Y153.638 E218.47210
G1 X266.252 Y153.845 E218.50654
G1 X266.611 Y154.052 E218.54096
G1 X266.969 Y154.259 E218.57540
G1 X267.328 Y154.466 E218.60984
G1 X267.686 Y154.673 E218.64428
G1 X268.045 Y154.880 E218.67872
G1 X268.404 Y155.087 E218.71316
G1 X268.762 Y155.294 E218.74758
G1 X269.121 Y155.501 E218.78202
G1 X269.480 Y155.708 E218.81646
G1 X269.838 Y155.915 E218.85090
G1 X270.197 Y156.123 E218.88534
G1 X270.556 Y156.330 E218.91978
G1 X270.914 Y156.537 E218.95420
G1 X271.273 Y156.744 E218.98864
G1 X271.631 Y156.951 E219.02308
G1 X271.990 Y157.158 E219.05752
G1 X272.349 Y157.365 E219.09196
G1 X272.707 Y157.572 E219.12640
G1 X273.066 Y157.779 E219.16084
G1 X273.425 Y157.986 E219.19528
G1 X273.783 Y158.193 E219.22970
G1 X274.142 Y158.400 E219.26414
G1 X274.501 Y158.607 E219.29858
G1 X274.859 Y158.814 E219.33300
G1 X275.218 Y159.021 E219.36744
G1 X275.576 Y159.228 E219.40188
G1 X275.935 Y159.435 E219.43632
G1 X276.294 Y159.642 E219.47076
G1 X276.652 Y159.849 E219.50520
G1 X277.011 Y160.057 E219.53964
G1 X277.370 Y160.264 E219.57406
G1 X277.728 Y160.471 E219.60850
G1 X278.087 Y160.678 E219.64292
G1 X278.445 Y160.885 E219.67736
G1 X278.804 Y161.092 E219.71180
G1 X279.163 Y161.299 E219.74624
G1 X279.521 Y161.506 E219.78068
G1 X279.880 Y161.713 E219.81510
G1 X280.239 Y161.920 E219.84954
G1 X280.597 Y162.127 E219.88398
G1 X280.956 Y162.334 E219.91842
G1 X281.315 Y162.541 E219.95286
G1 X281.673 Y162.748 E219.98728
G1 X282.032 Y162.955 E220.02172
G1 X282.390 Y163.162 E220.05616
G1 X282.749 Y163.369 E220.09060
G1 X283.108 Y163.576 E220.12504
G1 X283.466 Y163.784 E220.15946
G1 X283.825 Y163.991 E220.19390
G1 X284.184 Y164.198 E220.22834
G1 X284.542 Y164.405 E220.26278
G1 X284.901 Y164.612 E220.29722
G1 X285.259 Y164.819 E220.33166
G1 X285.618 Y165.026 E220.36608
G1 X285.977 Y165.233 E220.40052
G1 X286.335 Y165.440 E220.43496
G1 X286.694 Y165.647 E220.46940
G1 X287.053 Y165.854 E220.50384
G1 X287.411 Y166.061 E220.53826
G1 X287.770 Y166.268 E220.57270
G1 X288.128 Y166.475 E220.60714
G1 X288.487 Y166.682 E220.64158
G1 X288.846 Y166.889 E220.67602
G1 X289.204 Y167.096 E220.71046
G1 X289.563 Y167.303 E220.74490
G1 X289.922 Y167.510 E220.77932
G1 X290.280 Y167.718 E220.81376
G1 X290.639 Y167.925 E220.84820
G1 X290.998 Y168.132 E220.88264
G1 X291.356 Y168.339 E220.91708
G1 X291.715 Y168.546 E220.95152
G1 X292.073 Y168.753 E220.98594
G1 X292.432 Y168.960 E221.02038
G1 X292.791 Y169.167 E221.05482
G1 X293.149 Y169.374 E221.08926
G1 X293.508 Y169.581 E221.12370
G1 X293.867 Y169.788 E221.15814
G1 X294.225 Y169.995 E221.19256
G1 X294.584 Y170.202 E221.22700
G1 X294.943 Y170.409 E221.26144
G1 X295.301 Y170.616 E221.29586
G1 X295.660 Y170.823 E221.33030
G1 X296.018 Y171.030 E221.36474
G1 X296.377 Y171.237 E221.39916
G1 X296.736 Y171.444 E221.43360
G1 X297.094 Y171.652 E221.46804
G1 X297.453 Y171.859 E221.50248
G1 X297.812 Y172.066 E221.53692
G1 X298.170 Y172.273 E221.57136
G1 X298.529 Y172.480 E221.60578
G1 X298.887 Y172.687 E221.64022
G1 X299.246 Y172.894 E221.67466
G1 X299.605 Y173.101 E221.70908
G1 X299.963 Y173.308 E221.74352
G1 X300.322 Y173.515 E221.77794
G1 X300.681 Y173.722 E221.81238
G1 X301.039 Y173.929 E221.84682
G1 X301.279 Y174.255 E221.88046
; ------------------------------------
; Layer #2
; ------------------------------------
G92 E0 ;reset extr
G0 F3000 E-1.00000
G0 F600 Z0.600
G0 X27.263 Y17.525 F7200
G0 X23.456 Y24.119
G0 X36.259 Y34.057
G0 F3000 E0.00000
;segType:HShell
G1 X33.403 Y31.201 E0.13432 F3600
G0 X32.243 Y31.738 F7200
G1 X29.388 Y28.883 E0.26864 F3600
G0 X28.228 Y29.420 F7200
G1 X25.373 Y26.565 E0.40296 F3600
G0 X24.213 Y27.102 F7200
G1 X23.121 Y26.010 E0.45435 F3600
G0 X21.855 Y26.605 F7200
G0 X21.686 Y26.522
;segType:Perimeter
G1 X21.554 Y25.733 E0.48095 F2159
G1 X21.800 Y25.100 E0.50354
G1 X22.624 Y23.673 E0.55835
G1 X23.573 Y23.724 E0.58997
G1 X298.030 Y182.192 E11.13079
G1 X298.539 Y182.972 E11.16178
G1 X297.715 Y184.400 E11.21658
G1 X297.252 Y184.976 E11.24118
G1 X296.583 Y185.454 E11.26854
G1 X295.881 Y185.761 E11.29400
G1 X21.537 Y27.358 E21.83052
G1 X21.453 Y26.608 E21.85563
G1 X21.527 Y25.849 E21.88100
G0 X21.554 Y25.733 F7200
G0 X21.800 Y25.100
G0 X22.261 Y24.303
G0 F3000 E20.88100
G0 X22.327 Y24.988 F7200
G0 F3000 E21.88100
;segType:Loop
G1 X22.848 Y24.086 E21.91564 F3600
G1 X23.456 Y24.119 E21.93590
G1 X297.739 Y182.477 E32.46988
G1 X298.070 Y182.985 E32.49006
G1 X297.384 Y184.173 E32.53567
G1 X296.975 Y184.683 E32.55742
G1 X296.384 Y185.105 E32.58157
G1 X295.914 Y185.311 E32.59865
G1 X21.912 Y27.113 E43.12187
G1 X21.855 Y26.605 E43.13887
G1 X21.925 Y25.883 E43.16301
G1 X22.162 Y25.273 E43.18474
G1 X22.227 Y25.161 E43.18907
G0 F3000 E42.18907
G0 X23.171 Y24.504 F7200
G0 F3000 E43.18907
G1 X23.339 Y24.513 E43.19466 F3600
G1 X297.452 Y182.770 E53.72207
G1 X297.601 Y182.998 E53.73112
G1 X297.053 Y183.946 E53.76755
G1 X296.697 Y184.389 E53.78644
G1 X296.185 Y184.755 E53.80737
G1 X295.943 Y184.861 E53.81617
G1 X22.287 Y26.868 E64.32603
G1 X22.257 Y26.602 E64.33492
G1 X22.318 Y25.976 E64.35585
G1 X22.524 Y25.447 E64.37473
G1 X23.021 Y24.585 E64.40783
G0 X23.946 Y25.325 F7200
G1 X297.056 Y183.003 E74.89673 F3600
G1 X297.075 Y183.109 E74.90030
G1 X296.722 Y183.720 E74.92375
G1 X296.420 Y184.096 E74.93980
G1 X296.057 Y184.355 E74.95462
G1 X295.866 Y184.355 E74.96098
G1 X22.794 Y26.698 E85.44843
G1 X22.664 Y26.557 E85.45483
G1 X22.711 Y26.070 E85.47111
G1 X22.885 Y25.620 E85.48714
G1 X23.243 Y25.001 E85.51093
G1 X23.369 Y24.992 E85.51511
G1 X23.773 Y25.225 E85.53063
G0 F3000 E84.53063
G0 X25.551 Y27.875 F7200
G0 F3000 E85.53063
;segType:HShell
G1 X23.300 Y25.623 E85.63655 F3600
G0 X24.034 Y25.792 F7200
G1 X26.890 Y28.648 E85.77087 F3600
G0 X28.049 Y28.110 F7200
G1 X30.905 Y30.966 E85.90520 F3600
G0 X32.065 Y30.428 F7200
G1 X34.920 Y33.284 E86.03952 F3600
G0 X36.080 Y32.746 F7200
G1 X38.935 Y35.602 E86.17384 F3600
G0 X40.274 Y36.375 F7200
G1 X37.418 Y33.519 E86.30817 F3600
G0 X38.757 Y34.292 F7200
G1 X41.612 Y37.147 E86.44249 F3600
G0 X41.433 Y35.837 F7200
G1 X44.289 Y38.693 E86.57681 F3600
G0 X45.627 Y39.466 F7200
G1 X42.772 Y36.610 E86.71114 F3600
G0 X44.110 Y37.383 F7200
G1 X46.966 Y40.238 E86.84546 F3600
G0 X46.787 Y38.928 F7200
G1 X49.643 Y41.784 E86.97978 F3600
G0 X49.464 Y40.473 F7200
G1 X52.319 Y43.329 E87.11411 F3600
G0 X53.658 Y44.102 F7200
G1 X50.802 Y41.246 E87.24843 F3600
G0 X52.141 Y42.019 F7200
G1 X54.996 Y44.875 E87.38275 F3600
G0 X54.817 Y43.564 F7200
G1 X57.673 Y46.420 E87.51707 F3600
G0 X57.494 Y45.110 F7200
G1 X60.350 Y47.965 E87.65140 F3600
G0 X60.171 Y46.655 F7200
G1 X63.027 Y49.511 E87.78572 F3600
G0 X62.848 Y48.201 F7200
G1 X65.703 Y51.056 E87.92004 F3600
G0 X68.201 Y51.291 F7200
G1 X71.057 Y54.147 E88.05437 F3600
G0 X69.719 Y53.374 F7200
G1 X66.863 Y50.519 E88.18869 F3600
G0 X65.525 Y49.746 F7200
G1 X68.380 Y52.602 E88.32301 F3600
G0 X70.878 Y52.837 F7200
G1 X73.734 Y55.693 E88.45734 F3600
G0 X76.232 Y55.928 F7200
G1 X79.087 Y58.783 E88.59166 F3600
G0 X78.909 Y57.473 F7200
G1 X81.764 Y60.329 E88.72598 F3600
G0 X81.585 Y59.019 F7200
G1 X84.441 Y61.874 E88.86031 F3600
G0 X84.262 Y60.564 F7200
G1 X87.118 Y63.420 E88.99463 F3600
G0 X86.939 Y62.110 F7200
G1 X89.795 Y64.965 E89.12895 F3600
G0 X89.616 Y63.655 F7200
G1 X92.471 Y66.511 E89.26328 F3600
G0 X92.293 Y65.200 F7200
G1 X95.148 Y68.056 E89.39760 F3600
G0 X97.646 Y68.291 F7200
G1 X100.502 Y71.147 E89.53192 F3600
G0 X100.323 Y69.837 F7200
G1 X103.179 Y72.692 E89.66624 F3600
G0 X103.000 Y71.382 F7200
G1 X105.855 Y74.238 E89.80057 F3600
G0 X105.677 Y72.928 F7200
G1 X108.532 Y75.783 E89.93489 F3600
G0 X108.353 Y74.473 F7200
G1 X111.209 Y77.329 E90.06921 F3600
G0 X111.030 Y76.018 F7200
G1 X113.886 Y78.874 E90.20354 F3600
G0 X116.384 Y79.109 F7200
G1 X119.240 Y81.965 E90.33786 F3600
G0 X119.061 Y80.655 F7200
G1 X121.916 Y83.510 E90.47218 F3600
G0 X121.737 Y82.200 F7200
G1 X124.593 Y85.056 E90.60651 F3600
G0 X124.414 Y83.746 F7200
G1 X127.270 Y86.601 E90.74083 F3600
G0 X128.608 Y87.374 F7200
G1 X125.753 Y84.518 E90.87515 F3600
G0 X127.091 Y85.291 F7200
G1 X129.947 Y88.147 E91.00948 F3600
G0 X129.768 Y86.836 F7200
G1 X132.624 Y89.692 E91.14380 F3600
G0 X133.962 Y90.465 F7200
G1 X131.106 Y87.609 E91.27812 F3600
G0 X132.445 Y88.382 F7200
G1 X135.300 Y91.237 E91.41245 F3600
G0 X135.121 Y89.927 F7200
G1 X137.977 Y92.783 E91.54677 F3600
G0 X137.798 Y91.473 F7200
G1 X140.654 Y94.328 E91.68109 F3600
G0 X140.475 Y93.018 F7200
G1 X143.331 Y95.874 E91.81541 F3600
G0 X143.152 Y94.564 F7200
G1 X146.008 Y97.419 E91.94974 F3600
G0 X145.829 Y96.109 F7200
G1 X148.684 Y98.965 E92.08406 F3600
G0 X148.506 Y97.654 F7200
G1 X151.361 Y100.510 E92.21838 F3600
G0 X152.700 Y101.283 F7200
G1 X149.844 Y98.427 E92.35271 F3600
G0 X151.182 Y99.200 F7200
G1 X154.038 Y102.056 E92.48703 F3600
G0 X153.859 Y100.745 F7200
G1 X156.715 Y103.601 E92.62135 F3600
G0 X156.536 Y102.291 F7200
G1 X159.392 Y105.146 E92.75568 F3600
G0 X159.213 Y103.836 F7200
G1 X162.068 Y106.692 E92.89000 F3600
G0 X161.890 Y105.382 F7200
G1 X164.745 Y108.237 E93.02432 F3600
G0 X164.566 Y106.927 F7200
G1 X167.422 Y109.783 E93.15865 F3600
G0 X168.760 Y110.555 F7200
G1 X165.905 Y107.700 E93.29297 F3600
G0 X167.243 Y108.472 F7200
G1 X170.099 Y111.328 E93.42729 F3600
G0 X169.920 Y110.018 F7200
G1 X172.776 Y112.874 E93.56161 F3600
G0 X174.114 Y113.646 F7200
G1 X171.258 Y110.791 E93.69594 F3600
G0 X172.597 Y111.563 F7200
G1 X175.452 Y114.419 E93.83026 F3600
G0 X175.274 Y113.109 F7200
G1 X178.129 Y115.964 E93.96458 F3600
G0 X177.950 Y114.654 F7200
G1 X180.806 Y117.510 E94.09891 F3600
G0 X183.304 Y117.745 F7200
G1 X186.160 Y120.601 E94.23323 F3600
G0 X188.658 Y120.836 F7200
G1 X191.513 Y123.692 E94.36755 F3600
G0 X191.334 Y122.381 F7200
G1 X194.190 Y125.237 E94.50188 F3600
G0 X196.688 Y125.472 F7200
G1 X199.544 Y128.328 E94.63620 F3600
G0 X202.042 Y128.563 F7200
G1 X204.897 Y131.419 E94.77052 F3600
G0 X204.718 Y130.108 F7200
G1 X207.574 Y132.964 E94.90485 F3600
G0 X207.395 Y131.654 F7200
G1 X210.251 Y134.510 E95.03917 F3600
G0 X211.589 Y135.282 F7200
G1 X208.734 Y132.427 E95.17349 F3600
G0 X210.072 Y133.199 F7200
G1 X212.928 Y136.055 E95.30782 F3600
G0 X212.749 Y134.745 F7200
G1 X215.604 Y137.600 E95.44214 F3600
G0 X215.426 Y136.290 F7200
G1 X218.281 Y139.146 E95.57646 F3600
G0 X218.102 Y137.836 F7200
G1 X220.958 Y140.691 E95.71078 F3600
G0 X223.456 Y140.927 F7200
G1 X226.312 Y143.782 E95.84511 F3600
G0 X226.133 Y142.472 F7200
G1 X228.988 Y145.328 E95.97943 F3600
G0 X228.810 Y144.017 F7200
G1 X231.665 Y146.873 E96.11375 F3600
G0 X234.163 Y147.108 F7200
G1 X237.019 Y149.964 E96.24808 F3600
G0 X236.840 Y148.654 F7200
G1 X239.696 Y151.509 E96.38240 F3600
G0 X239.517 Y150.199 F7200
G1 X242.372 Y153.055 E96.51672 F3600
G0 X244.870 Y153.290 F7200
G1 X247.726 Y156.146 E96.65105 F3600
G0 X247.547 Y154.835 F7200
G1 X250.403 Y157.691 E96.78537 F3600
G0 X251.562 Y157.154 F7200
G1 X254.418 Y160.009 E96.91969 F3600
G0 X254.239 Y158.699 F7200
G1 X257.095 Y161.555 E97.05402 F3600
G0 X256.916 Y160.244 F7200
G1 X259.772 Y163.100 E97.18834 F3600
G0 X259.593 Y161.790 F7200
G1 X262.448 Y164.645 E97.32266 F3600
G0 X263.787 Y165.418 F7200
G1 X260.931 Y162.563 E97.45699 F3600
G0 X262.270 Y163.335 F7200
G1 X265.125 Y166.191 E97.59131 F3600
G0 X267.623 Y166.426 F7200
G1 X270.479 Y169.282 E97.72563 F3600
G0 X271.817 Y170.055 F7200
G1 X268.962 Y167.199 E97.85995 F3600
G0 X270.300 Y167.972 F7200
G1 X273.156 Y170.827 E97.99428 F3600
G0 X272.977 Y169.517 F7200
G1 X275.832 Y172.373 E98.12860 F3600
G0 X278.330 Y172.608 F7200
G1 X281.186 Y175.464 E98.26292 F3600
G0 X281.007 Y174.153 F7200
G1 X283.863 Y177.009 E98.39725 F3600
G0 X285.201 Y177.782 F7200
G1 X282.346 Y174.926 E98.53157 F3600
G0 X283.684 Y175.699 F7200
G1 X286.540 Y178.554 E98.66589 F3600
G0 X286.361 Y177.244 F7200
G1 X289.217 Y180.100 E98.80022 F3600
G0 X290.555 Y180.873 F7200
G1 X287.699 Y178.017 E98.93454 F3600
G0 X289.038 Y178.790 F7200
G1 X291.893 Y181.645 E99.06886 F3600
G0 X291.714 Y180.335 F7200
G1 X294.570 Y183.191 E99.20319 F3600
G0 X294.391 Y181.881 F7200
G1 X296.247 Y183.736 E99.29047 F3600
G0 X296.485 Y183.409 F7200
G1 X295.730 Y182.653 E99.32602 F3600
G0 X295.909 Y183.963 F7200
G1 X293.053 Y181.108 E99.46033 F3600
G0 X293.232 Y182.418 F7200
G1 X290.376 Y179.562 E99.59466 F3600
G0 X287.878 Y179.327 F7200
G1 X285.022 Y176.472 E99.72898 F3600
G0 X282.525 Y176.236 F7200
G1 X279.669 Y173.381 E99.86330 F3600
G0 X279.848 Y174.691 F7200
G1 X276.992 Y171.835 E99.99763 F3600
G0 X275.654 Y171.062 F7200
G1 X278.509 Y173.918 E100.13195 F3600
G0 X277.171 Y173.145 F7200
G1 X274.315 Y170.290 E100.26627 F3600
G0 X274.494 Y171.600 F7200
G1 X271.638 Y168.744 E100.40060 F3600
G0 X269.140 Y168.509 F7200
G1 X266.285 Y165.653 E100.53492 F3600
G0 X264.946 Y164.881 F7200
G1 X267.802 Y167.736 E100.66924 F3600
G0 X266.464 Y166.964 F7200
G1 X263.608 Y164.108 E100.80357 F3600
G0 X261.110 Y163.873 F7200
G1 X258.254 Y161.017 E100.93789 F3600
G0 X258.433 Y162.327 F7200
G1 X255.578 Y159.472 E101.07221 F3600
G0 X255.756 Y160.782 F7200
G1 X252.901 Y157.926 E101.20654 F3600
G0 X253.080 Y159.236 F7200
G1 X250.224 Y156.381 E101.34086 F3600
G0 X251.741 Y158.464 F7200
G1 X248.886 Y155.608 E101.47518 F3600
G0 X249.064 Y156.918 F7200
G1 X246.209 Y154.063 E101.60950 F3600
G0 X246.388 Y155.373 F7200
G1 X243.532 Y152.517 E101.74383 F3600
G0 X242.194 Y151.744 F7200
G1 X245.049 Y154.600 E101.87814 F3600
G0 X243.711 Y153.827 F7200
G1 X240.855 Y150.972 E102.01247 F3600
G0 X241.034 Y152.282 F7200
G1 X238.178 Y149.426 E102.14679 F3600
G0 X238.357 Y150.737 F7200
G1 X235.502 Y147.881 E102.28111 F3600
G0 X235.680 Y149.191 F7200
G1 X232.825 Y146.335 E102.41544 F3600
G0 X231.486 Y145.563 F7200
G1 X234.342 Y148.418 E102.54976 F3600
G0 X233.004 Y147.646 F7200
G1 X230.148 Y144.790 E102.68408 F3600
G0 X230.327 Y146.100 F7200
G1 X227.471 Y143.245 E102.81841 F3600
G0 X227.650 Y144.555 F7200
G1 X224.794 Y141.699 E102.95273 F3600
G0 X224.973 Y143.009 F7200
G1 X222.118 Y140.154 E103.08705 F3600
G0 X219.441 Y138.608 F7200
G1 X222.296 Y141.464 E103.22137 F3600
G0 X223.635 Y142.237 F7200
G1 X220.779 Y139.381 E103.35570 F3600
G0 X219.620 Y139.919 F7200
G1 X216.764 Y137.063 E103.49002 F3600
G0 X216.943 Y138.373 F7200
G1 X214.087 Y135.517 E103.62434 F3600
G0 X214.266 Y136.828 F7200
G1 X211.410 Y133.972 E103.75867 F3600
G0 X208.912 Y133.737 F7200
G1 X206.057 Y130.881 E103.89299 F3600
G0 X206.236 Y132.191 F7200
G1 X203.380 Y129.336 E104.02731 F3600
G0 X203.559 Y130.646 F7200
G1 X200.703 Y127.790 E104.16164 F3600
G0 X199.365 Y127.018 F7200
G1 X202.220 Y129.873 E104.29596 F3600
G0 X200.882 Y129.101 F7200
G1 X198.026 Y126.245 E104.43028 F3600
G0 X198.205 Y127.555 F7200
G1 X195.350 Y124.699 E104.56461 F3600
G0 X194.011 Y123.927 F7200
G1 X196.867 Y126.782 E104.69893 F3600
G0 X195.528 Y126.010 F7200
G1 X192.673 Y123.154 E104.83325 F3600
G0 X192.852 Y124.464 F7200
G1 X189.996 Y121.609 E104.96758 F3600
G0 X190.175 Y122.919 F7200
G1 X187.319 Y120.063 E105.10190 F3600
G0 X185.981 Y119.291 F7200
G1 X188.836 Y122.146 E105.23622 F3600
G0 X187.498 Y121.373 F7200
G1 X184.642 Y118.518 E105.37054 F3600
G0 X184.821 Y119.828 F7200
G1 X181.966 Y116.972 E105.50487 F3600
G0 X180.627 Y116.200 F7200
G1 X183.483 Y119.055 E105.63919 F3600
G0 X182.144 Y118.283 F7200
G1 X179.289 Y115.427 E105.77351 F3600
G0 X179.468 Y116.737 F7200
G1 X176.612 Y113.881 E105.90784 F3600
G0 X176.791 Y115.192 F7200
G1 X173.935 Y112.336 E106.04216 F3600
G0 X171.437 Y112.101 F7200
G1 X168.582 Y109.245 E106.17648 F3600
G0 X166.084 Y109.010 F7200
G1 X163.228 Y106.154 E106.31081 F3600
G0 X163.407 Y107.465 F7200
G1 X160.551 Y104.609 E106.44513 F3600
G0 X160.730 Y105.919 F7200
G1 X157.874 Y103.063 E106.57945 F3600
G0 X158.053 Y104.374 F7200
G1 X155.198 Y101.518 E106.71378 F3600
G0 X155.376 Y102.828 F7200
G1 X152.521 Y99.973 E106.84810 F3600
G0 X150.023 Y99.737 F7200
G1 X147.167 Y96.882 E106.98242 F3600
G0 X147.346 Y98.192 F7200
G1 X144.490 Y95.336 E107.11674 F3600
G0 X144.669 Y96.646 F7200
G1 X141.813 Y93.791 E107.25107 F3600
G0 X141.992 Y95.101 F7200
G1 X139.137 Y92.245 E107.38539 F3600
G0 X139.316 Y93.556 F7200
G1 X136.460 Y90.700 E107.51971 F3600
G0 X136.639 Y92.010 F7200
G1 X133.783 Y89.155 E107.65404 F3600
G0 X131.285 Y88.919 F7200
G1 X128.429 Y86.064 E107.78836 F3600
G0 X125.932 Y85.828 F7200
G1 X123.076 Y82.973 E107.92268 F3600
G0 X123.255 Y84.283 F7200
G1 X120.399 Y81.427 E108.05701 F3600
G0 X120.578 Y82.738 F7200
G1 X117.722 Y79.882 E108.19133 F3600
G0 X117.901 Y81.192 F7200
G1 X115.045 Y78.337 E108.32565 F3600
G0 X113.707 Y77.564 F7200
G1 X116.563 Y80.419 E108.45998 F3600
G0 X115.224 Y79.647 F7200
G1 X112.369 Y76.791 E108.59430 F3600
G0 X112.547 Y78.101 F7200
G1 X109.692 Y75.246 E108.72862 F3600
G0 X109.871 Y76.556 F7200
G1 X107.015 Y73.700 E108.86295 F3600
G0 X107.194 Y75.010 F7200
G1 X104.338 Y72.155 E108.99727 F3600
G0 X104.517 Y73.465 F7200
G1 X101.661 Y70.609 E109.13159 F3600
G0 X101.840 Y71.920 F7200
G1 X98.985 Y69.064 E109.26591 F3600
G0 X99.163 Y70.374 F7200
G1 X96.308 Y67.519 E109.40024 F3600
G0 X94.969 Y66.746 F7200
G1 X97.825 Y69.601 E109.53456 F3600
G0 X96.487 Y68.829 F7200
G1 X93.631 Y65.973 E109.66888 F3600
G0 X93.810 Y67.283 F7200
G1 X90.954 Y64.428 E109.80321 F3600
G0 X91.133 Y65.738 F7200
G1 X88.277 Y62.882 E109.93753 F3600
G0 X88.456 Y64.192 F7200
G1 X85.601 Y61.337 E110.07185 F3600
G0 X85.779 Y62.647 F7200
G1 X82.924 Y59.791 E110.20618 F3600
G0 X83.103 Y61.102 F7200
G1 X80.247 Y58.246 E110.34050 F3600
G0 X80.426 Y59.556 F7200
G1 X77.570 Y56.701 E110.47482 F3600
G0 X77.749 Y58.011 F7200
G1 X74.893 Y55.155 E110.60915 F3600
G0 X73.555 Y54.382 F7200
G1 X76.411 Y57.238 E110.74347 F3600
G0 X75.072 Y56.465 F7200
G1 X72.217 Y53.610 E110.87779 F3600
G0 X72.395 Y54.920 F7200
G1 X69.540 Y52.064 E111.01212 F3600
G0 X67.042 Y51.829 F7200
G1 X64.186 Y48.973 E111.14644 F3600
G0 X64.365 Y50.284 F7200
G1 X61.509 Y47.428 E111.28076 F3600
G0 X61.688 Y48.738 F7200
G1 X58.833 Y45.882 E111.41508 F3600
G0 X59.011 Y47.193 F7200
G1 X56.156 Y44.337 E111.54941 F3600
G0 X56.335 Y45.647 F7200
G1 X53.479 Y42.792 E111.68373 F3600
G0 X50.981 Y42.556 F7200
G1 X48.125 Y39.701 E111.81805 F3600
G0 X48.304 Y41.011 F7200
G1 X45.449 Y38.155 E111.95238 F3600
G0 X42.951 Y37.920 F7200
G1 X40.095 Y35.064 E112.08670 F3600
G0 X37.597 Y34.829 F7200
G1 X34.741 Y31.974 E112.22102 F3600
G0 X33.582 Y32.511 F7200
G1 X30.726 Y29.655 E112.35535 F3600
G0 X29.567 Y30.193 F7200
G1 X26.711 Y27.337 E112.48967 F3600
G0 F3000 E111.48967
G0 X27.263 Y17.525 F7200
G0 X38.386 Y22.607
G0 F3000 E112.48967
G1 X35.531 Y19.752 E112.62397 F3600
G0 X34.371 Y20.289 F7200
G1 X31.516 Y17.434 E112.75827 F3600
G0 X30.356 Y17.971 F7200
G1 X28.706 Y16.322 E112.83585 F3600
G0 X29.017 Y17.198 F7200
G1 X28.476 Y16.657 E112.86130 F3600
G0 X26.938 Y17.376 F7200
;segType:Perimeter
G1 X26.491 Y16.976 E112.88126 F2159
G1 X27.285 Y15.600 E112.93407
G1 X27.748 Y15.024 E112.95866
G1 X28.417 Y14.546 E112.98602
G1 X29.109 Y14.243 E113.01114
G1 X303.465 Y172.652 E123.54807
G1 X303.547 Y173.392 E123.57282
G1 X303.467 Y174.211 E123.60020
G1 X303.200 Y174.899 E123.62474
G1 X302.376 Y176.327 E123.67958
G1 X301.408 Y176.275 E123.71182
G1 X26.980 Y17.824 E134.25154
G1 X26.494 Y17.078 E134.28116
G0 X26.491 Y16.976 F7200
G0 X27.285 Y15.600
G0 X27.292 Y15.591
G0 X27.616 Y15.827
G0 X27.357 Y16.275
;segType:Loop
G1 X27.616 Y15.827 E134.29836 F3600
G1 X28.025 Y15.317 E134.32010
G1 X28.616 Y14.896 E134.34424
G1 X29.084 Y14.691 E134.36124
G1 X303.088 Y172.885 E144.88446
G1 X303.145 Y173.395 E144.90154
G1 X303.075 Y174.118 E144.92570
G1 X302.838 Y174.726 E144.94739
G1 X302.152 Y175.914 E144.99303
G1 X301.548 Y175.882 E145.01315
G1 X27.263 Y17.525 E155.54718
G1 X26.930 Y17.015 E155.56744
G1 X27.257 Y16.448 E155.58920
G0 X28.293 Y15.623 F7200
G1 X28.302 Y15.611 E155.58972 F3600
G1 X28.814 Y15.245 E155.61063
G1 X29.059 Y15.138 E155.61952
G1 X302.713 Y173.130 E166.12929
G1 X302.743 Y173.398 E166.13824
G1 X302.682 Y174.024 E166.15919
G1 X302.477 Y174.552 E166.17802
G1 X301.929 Y175.502 E166.21448
G1 X301.665 Y175.487 E166.22325
G1 X27.546 Y17.227 E176.75092
G1 X27.399 Y17.002 E176.75982
G1 X27.947 Y16.054 E176.79624
G1 X28.167 Y15.779 E176.80796
G0 X29.238 Y15.703 F7200
G1 X302.224 Y173.310 E187.29210 F3600
G1 X302.339 Y173.414 E187.29726
G1 X302.289 Y173.931 E187.31452
G1 X302.115 Y174.379 E187.33052
G1 X301.748 Y175.014 E187.35492
G1 X301.649 Y175.016 E187.35822
G1 X27.962 Y17.005 E197.86928
G1 X27.869 Y16.989 E197.87242
G1 X28.278 Y16.280 E197.89966
G1 X28.580 Y15.904 E197.91570
G1 X28.929 Y15.655 E197.92994
G0 X28.998 Y16.048 F7200
;segType:HShell
G1 X31.694 Y18.744 E198.05674 F3600
G0 X32.854 Y18.207 F7200
G1 X35.709 Y21.062 E198.19104 F3600
G0 X36.869 Y20.525 F7200
G1 X39.724 Y23.380 E198.32534 F3600
G0 X41.063 Y24.153 F7200
G1 X38.208 Y21.298 E198.45966 F3600
G0 X39.546 Y22.070 F7200
G1 X42.401 Y24.926 E198.59396 F3600
G0 X42.223 Y23.616 F7200
G1 X45.078 Y26.471 E198.72826 F3600
G0 X44.900 Y25.161 F7200
G1 X47.755 Y28.016 E198.86256 F3600
G0 X50.253 Y28.252 F7200
G1 X53.108 Y31.107 E198.99688 F3600
G0 X51.770 Y30.335 F7200
G1 X48.915 Y27.479 E199.13118 F3600
G0 X47.576 Y26.707 F7200
G1 X50.432 Y29.562 E199.26548 F3600
G0 X52.930 Y29.797 F7200
G1 X55.785 Y32.653 E199.39980 F3600
G0 X58.283 Y32.888 F7200
G1 X61.139 Y35.744 E199.53410 F3600
G0 X60.960 Y34.434 F7200
G1 X63.816 Y37.289 E199.66840 F3600
G0 X66.314 Y37.525 F7200
G1 X69.169 Y40.380 E199.80270 F3600
G0 X71.667 Y40.615 F7200
G1 X74.523 Y43.471 E199.93702 F3600
G0 X73.184 Y42.698 F7200
G1 X70.329 Y39.843 E200.07132 F3600
G0 X68.991 Y39.070 F7200
G1 X71.846 Y41.925 E200.20562 F3600
G0 X74.344 Y42.161 F7200
G1 X77.200 Y45.016 E200.33994 F3600
G0 X79.698 Y45.252 F7200
G1 X82.553 Y48.107 E200.47424 F3600
G0 X82.375 Y46.797 F7200
G1 X85.230 Y49.652 E200.60856 F3600
G0 X85.052 Y48.343 F7200
G1 X87.907 Y51.198 E200.74286 F3600
G0 X89.245 Y51.971 F7200
G1 X86.390 Y49.115 E200.87716 F3600
G0 X87.728 Y49.888 F7200
G1 X90.584 Y52.743 E201.01148 F3600
G0 X90.405 Y51.433 F7200
G1 X93.260 Y54.289 E201.14578 F3600
G0 X95.759 Y54.524 F7200
G1 X98.614 Y57.380 E201.28010 F3600
G0 X98.436 Y56.070 F7200
G1 X101.291 Y58.925 E201.41440 F3600
G0 X101.112 Y57.615 F7200
G1 X103.968 Y60.470 E201.54870 F3600
G0 X103.789 Y59.161 F7200
G1 X106.644 Y62.016 E201.68302 F3600
G0 X106.466 Y60.706 F7200
G1 X109.321 Y63.561 E201.81732 F3600
G0 X110.660 Y64.334 F7200
G1 X107.804 Y61.479 E201.95162 F3600
G0 X109.143 Y62.252 F7200
G1 X111.998 Y65.107 E202.08594 F3600
G0 X111.820 Y63.797 F7200
G1 X114.675 Y66.652 E202.22024 F3600
G0 X114.496 Y65.342 F7200
G1 X117.352 Y68.198 E202.35456 F3600
G0 X118.690 Y68.970 F7200
G1 X115.835 Y66.115 E202.48886 F3600
G0 X117.173 Y66.888 F7200
G1 X120.028 Y69.743 E202.62316 F3600
G0 X119.850 Y68.433 F7200
G1 X122.705 Y71.288 E202.75748 F3600
G0 X122.527 Y69.979 F7200
G1 X125.382 Y72.834 E202.89178 F3600
G0 X125.204 Y71.524 F7200
G1 X128.059 Y74.379 E203.02608 F3600
G0 X127.880 Y73.070 F7200
G1 X130.736 Y75.925 E203.16038 F3600
G0 X130.557 Y74.615 F7200
G1 X133.412 Y77.470 E203.29470 F3600
G0 X133.234 Y76.160 F7200
G1 X136.089 Y79.016 E203.42900 F3600
G0 X135.911 Y77.706 F7200
G1 X138.766 Y80.561 E203.56330 F3600
G0 X138.588 Y79.251 F7200
G1 X141.443 Y82.106 E203.69762 F3600
G0 X141.264 Y80.797 F7200
G1 X144.120 Y83.652 E203.83192 F3600
G0 X143.941 Y82.342 F7200
G1 X146.796 Y85.197 E203.96624 F3600
G0 X148.135 Y85.970 F7200
G1 X145.280 Y83.115 E204.10054 F3600
G0 X146.618 Y83.888 F7200
G1 X149.473 Y86.743 E204.23484 F3600
G0 X149.295 Y85.433 F7200
G1 X152.150 Y88.288 E204.36916 F3600
G0 X151.972 Y86.978 F7200
G1 X154.827 Y89.834 E204.50346 F3600
G0 X156.165 Y90.606 F7200
G1 X153.310 Y87.751 E204.63778 F3600
G0 X154.648 Y88.524 F7200
G1 X157.504 Y91.379 E204.77208 F3600
G0 X157.325 Y90.069 F7200
G1 X160.180 Y92.924 E204.90638 F3600
G0 X160.002 Y91.615 F7200
G1 X162.857 Y94.470 E205.04070 F3600
G0 X162.679 Y93.160 F7200
G1 X165.534 Y96.015 E205.17500 F3600
G0 X168.032 Y96.251 F7200
G1 X170.888 Y99.106 E205.30932 F3600
G0 X170.709 Y97.796 F7200
G1 X173.564 Y100.652 E205.44362 F3600
G0 X176.063 Y100.887 F7200
G1 X178.918 Y103.743 E205.57792 F3600
G0 X180.256 Y104.515 F7200
G1 X177.401 Y101.660 E205.71224 F3600
G0 X174.903 Y101.424 F7200
G1 X172.048 Y98.569 E205.84654 F3600
G0 X173.386 Y99.342 F7200
G1 X176.241 Y102.197 E205.98086 F3600
G0 X178.740 Y102.433 F7200
G1 X181.595 Y105.288 E206.11516 F3600
G0 X181.416 Y103.978 F7200
G1 X184.272 Y106.833 E206.24946 F3600
G0 X185.610 Y107.606 F7200
G1 X182.755 Y104.751 E206.38378 F3600
G0 X184.093 Y105.524 F7200
G1 X186.948 Y108.379 E206.51808 F3600
G0 X186.770 Y107.069 F7200
G1 X189.625 Y109.924 E206.65238 F3600
G0 X189.447 Y108.614 F7200
G1 X192.302 Y111.470 E206.78670 F3600
G0 X193.462 Y110.933 F7200
G1 X196.317 Y113.788 E206.92100 F3600
G0 X196.139 Y112.478 F7200
G1 X198.994 Y115.333 E207.05532 F3600
G0 X198.816 Y114.023 F7200
G1 X201.671 Y116.879 E207.18962 F3600
G0 X201.492 Y115.569 F7200
G1 X204.348 Y118.424 E207.32392 F3600
G0 X204.169 Y117.114 F7200
G1 X207.024 Y119.970 E207.45824 F3600
G0 X206.846 Y118.660 F7200
G1 X209.701 Y121.515 E207.59254 F3600
G0 X212.200 Y121.751 F7200
G1 X215.055 Y124.606 E207.72686 F3600
G0 X216.393 Y125.379 F7200
G1 X213.538 Y122.523 E207.86116 F3600
G0 X211.040 Y122.288 F7200
G1 X208.184 Y119.432 E207.99546 F3600
G0 X209.523 Y120.205 F7200
G1 X212.378 Y123.060 E208.12978 F3600
G0 X214.876 Y123.296 F7200
G1 X217.732 Y126.151 E208.26408 F3600
G0 X217.553 Y124.841 F7200
G1 X220.408 Y127.697 E208.39840 F3600
G0 X220.230 Y126.387 F7200
G1 X223.085 Y129.242 E208.53270 F3600
G0 X225.584 Y129.478 F7200
G1 X228.439 Y132.333 E208.66700 F3600
G0 X227.100 Y131.560 F7200
G1 X224.245 Y128.705 E208.80132 F3600
G0 X222.907 Y127.932 F7200
G1 X225.762 Y130.788 E208.93562 F3600
G0 X228.260 Y131.023 F7200
G1 X231.116 Y133.878 E209.06994 F3600
G0 X233.614 Y134.114 F7200
G1 X236.469 Y136.969 E209.20424 F3600
G0 X235.131 Y136.197 F7200
G1 X232.276 Y133.341 E209.33854 F3600
G0 X230.937 Y132.569 F7200
G1 X233.792 Y135.424 E209.47286 F3600
G0 X236.291 Y135.659 F7200
G1 X239.146 Y138.515 E209.60716 F3600
G0 X238.968 Y137.205 F7200
G1 X241.823 Y140.060 E209.74148 F3600
G0 X244.321 Y140.296 F7200
G1 X247.176 Y143.151 E209.87578 F3600
G0 X246.998 Y141.841 F7200
G1 X249.853 Y144.696 E210.01008 F3600
G0 X252.352 Y144.932 F7200
G1 X255.207 Y147.787 E210.14440 F3600
G0 X253.690 Y145.705 F7200
G1 X256.545 Y148.560 E210.27870 F3600
G0 X256.367 Y147.250 F7200
G1 X259.222 Y150.105 E210.41300 F3600
G0 X259.044 Y148.796 F7200
G1 X261.899 Y151.651 E210.54732 F3600
G0 X261.720 Y150.341 F7200
G1 X264.576 Y153.196 E210.68162 F3600
G0 X264.397 Y151.887 F7200
G1 X267.253 Y154.742 E210.81594 F3600
G0 X268.591 Y155.514 F7200
G1 X265.736 Y152.659 E210.95024 F3600
G0 X267.074 Y153.432 F7200
G1 X269.929 Y156.287 E211.08454 F3600
G0 X272.428 Y156.523 F7200
G1 X275.283 Y159.378 E211.21886 F3600
G0 X276.621 Y160.151 F7200
G1 X273.766 Y157.296 E211.35316 F3600
G0 X275.105 Y158.068 F7200
G1 X277.960 Y160.923 E211.48748 F3600
G0 X277.781 Y159.614 F7200
G1 X280.637 Y162.469 E211.62178 F3600
G0 X280.458 Y161.159 F7200
G1 X283.313 Y164.014 E211.75608 F3600
G0 X285.812 Y164.250 F7200
G1 X288.667 Y167.105 E211.89040 F3600
G0 X288.489 Y165.795 F7200
G1 X291.344 Y168.651 E212.02470 F3600
G0 X293.842 Y168.886 F7200
G1 X296.697 Y171.742 E212.15902 F3600
G0 X295.359 Y170.969 F7200
G1 X292.504 Y168.114 E212.29332 F3600
G0 X291.165 Y167.341 F7200
G1 X294.021 Y170.196 E212.42762 F3600
G0 X296.519 Y170.432 F7200
G1 X299.374 Y173.287 E212.56194 F3600
G0 X300.713 Y174.060 F7200
G1 X297.857 Y171.204 E212.69624 F3600
G0 X299.196 Y171.977 F7200
G1 X301.662 Y174.443 E212.81224 F3600
G0 X301.850 Y174.066 F7200
G1 X300.534 Y172.750 E212.87414 F3600
G0 X298.036 Y172.514 F7200
G1 X295.181 Y169.659 E213.00846 F3600
G0 X292.682 Y169.423 F7200
G1 X289.827 Y166.568 E213.14276 F3600
G0 X290.005 Y167.878 F7200
G1 X287.150 Y165.023 E213.27706 F3600
G0 X284.652 Y164.787 F7200
G1 X281.797 Y161.932 E213.41138 F3600
G0 X283.135 Y162.705 F7200
G1 X285.990 Y165.560 E213.54568 F3600
G0 X287.329 Y166.333 F7200
G1 X284.473 Y163.477 E213.68000 F3600
G0 X281.975 Y163.242 F7200
G1 X279.120 Y160.386 E213.81430 F3600
G0 X279.298 Y161.696 F7200
G1 X276.443 Y158.841 E213.94860 F3600
G0 X273.945 Y158.605 F7200
G1 X271.089 Y155.750 E214.08292 F3600
G0 X269.751 Y154.977 F7200
G1 X272.606 Y157.833 E214.21722 F3600
G0 X271.268 Y157.060 F7200
G1 X268.412 Y154.205 E214.35154 F3600
G0 X265.914 Y153.969 F7200
G1 X263.059 Y151.114 E214.48584 F3600
G0 X263.237 Y152.424 F7200
G1 X260.382 Y149.568 E214.62014 F3600
G0 X260.560 Y150.878 F7200
G1 X257.705 Y148.023 E214.75446 F3600
G0 X257.884 Y149.333 F7200
G1 X255.028 Y146.477 E214.88876 F3600
G0 X253.868 Y147.015 F7200
G1 X251.013 Y144.159 E215.02308 F3600
G0 X249.675 Y143.387 F7200
G1 X252.530 Y146.242 E215.15738 F3600
G0 X251.192 Y145.469 F7200
G1 X248.336 Y142.614 E215.29168 F3600
G0 X248.515 Y143.924 F7200
G1 X245.660 Y141.068 E215.42600 F3600
G0 X245.838 Y142.378 F7200
G1 X242.983 Y139.523 E215.56030 F3600
G0 X241.644 Y138.750 F7200
G1 X244.500 Y141.606 E215.69462 F3600
G0 X243.161 Y140.833 F7200
G1 X240.306 Y137.978 E215.82892 F3600
G0 X240.484 Y139.287 F7200
G1 X237.629 Y136.432 E215.96322 F3600
G0 X237.808 Y137.742 F7200
G1 X234.952 Y134.887 E216.09754 F3600
G0 X232.454 Y134.651 F7200
G1 X229.599 Y131.796 E216.23184 F3600
G0 X229.777 Y133.106 F7200
G1 X226.922 Y130.250 E216.36614 F3600
G0 X224.424 Y130.015 F7200
G1 X221.568 Y127.160 E216.50046 F3600
G0 X221.747 Y128.469 F7200
G1 X218.892 Y125.614 E216.63476 F3600
G0 X219.070 Y126.924 F7200
G1 X216.215 Y124.069 E216.76908 F3600
G0 X213.716 Y123.833 F7200
G1 X210.861 Y120.978 E216.90338 F3600
G0 X208.363 Y120.742 F7200
G1 X205.508 Y117.887 E217.03768 F3600
G0 X205.686 Y119.197 F7200
G1 X202.831 Y116.342 E217.17200 F3600
G0 X203.009 Y117.651 F7200
G1 X200.154 Y114.796 E217.30630 F3600
G0 X200.332 Y116.106 F7200
G1 X197.477 Y113.251 E217.44062 F3600
G0 X197.656 Y114.561 F7200
G1 X194.800 Y111.705 E217.57492 F3600
G0 X194.979 Y113.015 F7200
G1 X192.124 Y110.160 E217.70922 F3600
G0 X193.640 Y112.242 F7200
G1 X190.785 Y109.387 E217.84354 F3600
G0 X190.964 Y110.697 F7200
G1 X188.108 Y107.842 E217.97784 F3600
G0 X188.287 Y109.152 F7200
G1 X185.432 Y106.296 E218.11216 F3600
G0 X182.933 Y106.061 F7200
G1 X180.078 Y103.205 E218.24646 F3600
G0 X177.580 Y102.970 F7200
G1 X174.724 Y100.115 E218.38076 F3600
G0 X172.226 Y99.879 F7200
G1 X169.371 Y97.024 E218.51508 F3600
G0 X169.549 Y98.334 F7200
G1 X166.694 Y95.478 E218.64938 F3600
G0 X165.356 Y94.706 F7200
G1 X168.211 Y97.561 E218.78370 F3600
G0 X166.872 Y96.788 F7200
G1 X164.017 Y93.933 E218.91800 F3600
G0 X164.196 Y95.243 F7200
G1 X161.340 Y92.387 E219.05230 F3600
G0 X161.519 Y93.697 F7200
G1 X158.664 Y90.842 E219.18662 F3600
G0 X158.842 Y92.152 F7200
G1 X155.987 Y89.297 E219.32092 F3600
G0 X153.488 Y89.061 F7200
G1 X150.633 Y86.206 E219.45524 F3600
G0 X150.812 Y87.515 F7200
G1 X147.956 Y84.660 E219.58954 F3600
G0 X145.458 Y84.425 F7200
G1 X142.603 Y81.569 E219.72384 F3600
G0 X142.781 Y82.879 F7200
G1 X139.926 Y80.024 E219.85816 F3600
G0 X140.104 Y81.334 F7200
G1 X137.249 Y78.479 E219.99246 F3600
G0 X137.428 Y79.788 F7200
G1 X134.572 Y76.933 E220.12678 F3600
G0 X134.751 Y78.243 F7200
G1 X131.896 Y75.388 E220.26108 F3600
G0 X132.074 Y76.697 F7200
G1 X129.219 Y73.842 E220.39538 F3600
G0 X129.397 Y75.152 F7200
G1 X126.542 Y72.297 E220.52970 F3600
G0 X126.720 Y73.607 F7200
G1 X123.865 Y70.751 E220.66400 F3600
G0 X124.044 Y72.061 F7200
G1 X121.188 Y69.206 E220.79830 F3600
G0 X121.367 Y70.516 F7200
G1 X118.512 Y67.661 E220.93262 F3600
G0 X116.013 Y67.425 F7200
G1 X113.158 Y64.570 E221.06692 F3600
G0 X113.336 Y65.879 F7200
G1 X110.481 Y63.024 E221.20124 F3600
G0 X107.983 Y62.789 F7200
G1 X105.128 Y59.933 E221.33554 F3600
G0 X105.306 Y61.243 F7200
G1 X102.451 Y58.388 E221.46984 F3600
G0 X102.629 Y59.698 F7200
G1 X99.774 Y56.843 E221.60414 F3600
G0 X99.952 Y58.152 F7200
G1 X97.097 Y55.297 E221.73844 F3600
G0 X97.276 Y56.607 F7200
G1 X94.420 Y53.752 E221.87276 F3600
G0 X93.082 Y52.979 F7200
G1 X95.937 Y55.834 E222.00706 F3600
G0 X94.599 Y55.061 F7200
G1 X91.744 Y52.206 E222.14138 F3600
G0 X91.922 Y53.516 F7200
G1 X89.067 Y50.661 E222.27568 F3600
G0 X86.568 Y50.425 F7200
G1 X83.713 Y47.570 E222.40998 F3600
G0 X83.892 Y48.880 F7200
G1 X81.036 Y46.024 E222.54430 F3600
G0 X81.215 Y47.334 F7200
G1 X78.360 Y44.479 E222.67860 F3600
G0 X77.021 Y43.706 F7200
G1 X79.876 Y46.562 E222.81292 F3600
G0 X78.538 Y45.789 F7200
G1 X75.683 Y42.934 E222.94722 F3600
G0 X75.861 Y44.243 F7200
G1 X73.006 Y41.388 E223.08152 F3600
G0 X70.508 Y41.153 F7200
G1 X67.652 Y38.297 E223.21584 F3600
G0 X65.154 Y38.062 F7200
G1 X62.299 Y35.206 E223.35014 F3600
G0 X63.637 Y35.979 F7200
G1 X66.492 Y38.834 E223.48446 F3600
G0 X67.831 Y39.607 F7200
G1 X64.975 Y36.752 E223.61876 F3600
G0 X62.477 Y36.516 F7200
G1 X59.622 Y33.661 E223.75306 F3600
G0 X57.124 Y33.425 F7200
G1 X54.268 Y30.570 E223.88738 F3600
G0 X55.607 Y31.343 F7200
G1 X58.462 Y34.198 E224.02168 F3600
G0 X59.800 Y34.971 F7200
G1 X56.945 Y32.116 E224.15598 F3600
G0 X54.447 Y31.880 F7200
G1 X51.592 Y29.025 E224.29028 F3600
G0 X49.093 Y28.789 F7200
G1 X46.238 Y25.934 E224.42460 F3600
G0 X46.416 Y27.244 F7200
G1 X43.561 Y24.388 E224.55890 F3600
G0 X43.740 Y25.698 F7200
G1 X40.884 Y22.843 E224.69320 F3600
G0 X37.048 Y21.835 F7200
G1 X34.192 Y18.979 E224.82752 F3600
G0 X33.032 Y19.517 F7200
G1 X30.177 Y16.661 E224.96182 F3600
; ------------------------------------
; Layer #3
; ------------------------------------
M106 S255 ;set fan speed
G92 E0 ;reset extr
G0 F3000 E-1.00000
G0 F600 Z0.800
G0 X25.698 Y26.704 F7200
G0 F3000 E0.00000
;segType:HShell
G1 X24.621 Y27.780 E0.05062 F3600
G0 X24.263 Y27.573 F7200
G1 X25.339 Y26.497 E0.10125 F3600
G0 X24.980 Y26.290 F7200
G1 X23.904 Y27.366 E0.15187 F3600
G0 X23.545 Y27.159 F7200
G1 X24.622 Y26.083 E0.20250 F3600
G0 X24.263 Y25.876 F7200
G1 X23.187 Y26.952 E0.25312 F3600
G0 X22.831 Y26.742 F7200
G1 X23.904 Y25.669 E0.30360 F3600
G0 X22.865 Y25.576 F7200
G1 X23.187 Y25.254 E0.31875 F3600
G0 X23.546 Y25.461 F7200
G1 X22.694 Y26.313 E0.35882 F3600
G0 X21.319 Y26.104 F7200
;segType:Perimeter
G1 X21.217 Y25.513 E0.37877 F2159
G1 X21.454 Y24.900 E0.40063
G1 X22.193 Y23.620 E0.44980
G1 X22.827 Y23.656 E0.47091
G1 X23.595 Y23.688 E0.49650
G1 X298.050 Y182.155 E11.03723
G1 X298.454 Y182.791 E11.06230
G1 X298.801 Y183.319 E11.08331
G1 X298.062 Y184.600 E11.13250
G1 X297.611 Y185.158 E11.15635
G1 X296.958 Y185.620 E11.18296
G1 X296.061 Y186.007 E11.21544
G1 X295.704 Y186.101 E11.22772
G1 X21.330 Y27.681 E21.76536
G1 X21.222 Y27.261 E21.77979
G1 X21.122 Y26.367 E21.80973
G1 X21.190 Y25.629 E21.83437
G0 X21.217 Y25.513 F7200
G0 X21.454 Y24.900
G0 X21.925 Y24.083
G0 X22.417 Y24.031
G0 X21.992 Y24.768
;segType:Loop
G1 X22.417 Y24.031 E21.86269 F3600
G1 X23.479 Y24.083 E21.89804
G1 X297.754 Y182.434 E32.43167
G1 X298.332 Y183.331 E32.46716
G1 X297.731 Y184.373 E32.50720
G1 X297.335 Y184.863 E32.52816
G1 X296.761 Y185.269 E32.55153
G1 X296.005 Y185.595 E32.57892
G1 X295.715 Y185.638 E32.58868
G1 X21.676 Y27.419 E43.11332
G1 X21.616 Y27.189 E43.12123
G1 X21.524 Y26.363 E43.14887
G1 X21.589 Y25.661 E43.17231
G1 X21.816 Y25.073 E43.19327
G1 X21.892 Y24.942 E43.19832
G0 F3000 E42.19832
G0 X22.742 Y24.447 F7200
G0 F3000 E43.19832
G1 X23.363 Y24.478 E43.21900 F3600
G1 X297.470 Y182.732 E53.74620
G1 X297.864 Y183.342 E53.77036
G1 X297.400 Y184.146 E53.80124
G1 X297.059 Y184.569 E53.81930
G1 X296.564 Y184.918 E53.83945
G1 X295.927 Y185.194 E53.86254
G1 X295.805 Y185.224 E53.86669
G1 X22.118 Y27.212 E64.37775
G1 X22.012 Y27.128 E64.38224
G1 X21.926 Y26.359 E64.40800
G1 X21.982 Y25.753 E64.42823
G1 X22.178 Y25.246 E64.44630
G1 X22.592 Y24.529 E64.47383
G0 X23.577 Y25.063 F7200
G1 X297.187 Y183.030 E74.98191 F3600
G1 X297.395 Y183.354 E74.99472
G1 X297.069 Y183.919 E75.01645
G1 X296.782 Y184.274 E75.03161
G1 X296.367 Y184.568 E75.04853
G1 X295.961 Y184.743 E75.06324
G1 X295.791 Y184.754 E75.06890
G1 X22.513 Y26.979 E85.56422
G1 X22.389 Y26.900 E85.56911
G1 X22.329 Y26.355 E85.58735
G1 X22.375 Y25.845 E85.60437
G1 X22.540 Y25.419 E85.61956
G1 X22.866 Y24.854 E85.64127
G1 X23.246 Y24.873 E85.65393
G1 X23.404 Y24.963 E85.65997
G0 F3000 E84.65997
G0 X295.747 Y184.312 F7200
G0 F3000 E85.65997
;segType:HShell
G1 X296.823 Y183.236 E85.71059 F3600
G0 X296.465 Y183.029 F7200
G1 X295.389 Y184.105 E85.76121 F3600
G0 X295.030 Y183.898 F7200
G1 X296.106 Y182.822 E85.81183 F3600
G0 X295.748 Y182.615 F7200
G1 X294.671 Y183.691 E85.86245 F3600
G0 X294.313 Y183.484 F7200
G1 X295.389 Y182.408 E85.91307 F3600
G0 X295.030 Y182.201 F7200
G1 X293.954 Y183.277 E85.96369 F3600
G0 X293.595 Y183.070 F7200
G1 X294.672 Y181.994 E86.01431 F3600
G0 X294.313 Y181.787 F7200
G1 X293.237 Y182.863 E86.06493 F3600
G0 X292.878 Y182.656 F7200
G1 X293.954 Y181.580 E86.11555 F3600
G0 X293.596 Y181.373 F7200
G1 X292.519 Y182.449 E86.16618 F3600
G0 X292.161 Y182.242 F7200
G1 X293.237 Y181.166 E86.21680 F3600
G0 X292.878 Y180.959 F7200
G1 X291.802 Y182.035 E86.26742 F3600
G0 X291.444 Y181.828 F7200
G1 X292.520 Y180.751 E86.31804 F3600
G0 X292.161 Y180.544 F7200
G1 X291.085 Y181.621 E86.36866 F3600
G0 X290.726 Y181.414 F7200
G1 X291.803 Y180.337 E86.41928 F3600
G0 X291.444 Y180.130 F7200
G1 X290.368 Y181.207 E86.46990 F3600
G0 X290.009 Y181.000 F7200
G1 X291.085 Y179.923 E86.52052 F3600
G0 X290.727 Y179.716 F7200
G1 X289.650 Y180.792 E86.57114 F3600
G0 X289.292 Y180.585 F7200
G1 X290.368 Y179.509 E86.62177 F3600
G0 X290.009 Y179.302 F7200
G1 X288.933 Y180.378 E86.67239 F3600
G0 X288.575 Y180.171 F7200
G1 X289.651 Y179.095 E86.72301 F3600
G0 X289.292 Y178.888 F7200
G1 X288.216 Y179.964 E86.77363 F3600
G0 X287.857 Y179.757 F7200
G1 X288.933 Y178.681 E86.82425 F3600
G0 X288.575 Y178.474 F7200
G1 X287.499 Y179.550 E86.87487 F3600
G0 X287.140 Y179.343 F7200
G1 X288.216 Y178.267 E86.92549 F3600
G0 X287.858 Y178.060 F7200
G1 X286.781 Y179.136 E86.97612 F3600
G0 X286.423 Y178.929 F7200
G1 X287.499 Y177.853 E87.02674 F3600
G0 X287.140 Y177.646 F7200
G1 X286.064 Y178.722 E87.07736 F3600
G0 X285.705 Y178.515 F7200
G1 X286.782 Y177.439 E87.12798 F3600
G0 X286.423 Y177.232 F7200
G1 X285.347 Y178.308 E87.17860 F3600
G0 X284.988 Y178.101 F7200
G1 X286.064 Y177.025 E87.22923 F3600
G0 X285.706 Y176.817 F7200
G1 X284.630 Y177.894 E87.27985 F3600
G0 X284.271 Y177.687 F7200
G1 X285.347 Y176.610 E87.33047 F3600
G0 X284.989 Y176.403 F7200
G1 X283.912 Y177.480 E87.38109 F3600
G0 X283.554 Y177.273 F7200
G1 X284.630 Y176.196 E87.43171 F3600
G0 X284.271 Y175.989 F7200
G1 X283.195 Y177.066 E87.48233 F3600
G0 X282.836 Y176.858 F7200
G1 X283.913 Y175.782 E87.53295 F3600
G0 X283.554 Y175.575 F7200
G1 X282.478 Y176.651 E87.58358 F3600
G0 X282.119 Y176.444 F7200
G1 X283.195 Y175.368 E87.63420 F3600
G0 X282.837 Y175.161 F7200
G1 X281.761 Y176.237 E87.68482 F3600
G0 X281.402 Y176.030 F7200
G1 X282.478 Y174.954 E87.73544 F3600
G0 X282.120 Y174.747 F7200
G1 X281.043 Y175.823 E87.78606 F3600
G0 X280.685 Y175.616 F7200
G1 X281.761 Y174.540 E87.83669 F3600
G0 X281.402 Y174.333 F7200
G1 X280.326 Y175.409 E87.88731 F3600
G0 X279.967 Y175.202 F7200
G1 X281.044 Y174.126 E87.93793 F3600
G0 X280.685 Y173.919 F7200
G1 X279.609 Y174.995 E87.98856 F3600
G0 X279.250 Y174.788 F7200
G1 X280.326 Y173.712 E88.03918 F3600
G0 X279.968 Y173.505 F7200
G1 X278.891 Y174.581 E88.08980 F3600
G0 X278.533 Y174.374 F7200
G1 X279.609 Y173.298 E88.14042 F3600
G0 X279.250 Y173.091 F7200
G1 X278.174 Y174.167 E88.19104 F3600
G0 X277.816 Y173.960 F7200
G1 X278.892 Y172.883 E88.24166 F3600
G0 X278.533 Y172.676 F7200
