; #disp params :
; Printmode:0
; Layer:13
; Xmin:36.287 mm
; Xmax:223.713 mm
; XDimension:187.426 mm
; Ymin:6.287 mm
; Ymax:193.713 mm
; YDimension:187.426 mm
; Zmax:2 mm
; E0diam:0.4 mm
; E0len:1.59782 m
; E0temp:215 C
; Bedtemp:215 C
; Time:25.0489 min
; #params end
; GCode generated by CraftWare

G28 X Y ; home horizontally
G28 Z ; home vertically


M104 S215 ;set head temp (no wait)
M190 S60 ;set bed temp (wait)
M109 S215 ;set head temp (wait)
; ------------------------------------
; Layer #0
; ------------------------------------
M106 S0 ;turn off fan
G21 ; mm
G90 ; abs
G92 E0 ;reset extr
G0 F600 Z0.200
;segType:HShell
G0 F3000 E-1.00000
G0 X220.172 Y8.232 F5400
G0 F3000 E0.00000
G1 X220.166 Y8.228 E0.00019 F2400
G1 X219.520 Y7.829 E0.02040
G1 X218.830 Y7.507 E0.04066
G1 X218.109 Y7.268 E0.06088
G1 X217.364 Y7.114 E0.08111
G1 X216.608 Y7.048 E0.10131
G1 X215.847 Y7.070 E0.12156
G1 X215.094 Y7.180 E0.14180
G1 X214.361 Y7.377 E0.16201
G1 X213.654 Y7.658 E0.18226
G1 X212.985 Y8.019 E0.20248
G1 X212.361 Y8.455 E0.22272
G1 X211.775 Y8.977 E0.24360
G1 X38.979 Y181.773 E6.74584
G1 X38.455 Y182.361 E6.76681
G1 X38.019 Y182.984 E6.78704
G1 X37.658 Y183.654 E6.80727
G1 X37.377 Y184.360 E6.82750
G1 X37.180 Y185.094 E6.84773
G1 X37.070 Y185.847 E6.86796
G1 X37.048 Y186.607 E6.88820
G1 X37.114 Y187.364 E6.90843
G1 X37.268 Y188.109 E6.92865
G1 X37.507 Y188.831 E6.94889
G1 X37.829 Y189.520 E6.96911
G1 X38.228 Y190.167 E6.98934
G1 X38.699 Y190.763 E7.00957
G1 X39.237 Y191.301 E7.02980
G1 X39.833 Y191.772 E7.05003
G1 X40.480 Y192.171 E7.07026
G1 X41.169 Y192.493 E7.09049
G1 X41.891 Y192.732 E7.11073
G1 X42.636 Y192.886 E7.13096
G1 X43.393 Y192.952 E7.15119
G1 X44.153 Y192.930 E7.17142
G1 X44.906 Y192.820 E7.19164
G1 X45.640 Y192.623 E7.21187
G1 X46.347 Y192.342 E7.23211
G1 X47.016 Y191.981 E7.25234
G1 X47.639 Y191.545 E7.27257
G1 X48.227 Y191.021 E7.29354
G1 X221.019 Y18.230 E13.79561
G1 X221.545 Y17.639 E13.81666
G1 X221.981 Y17.016 E13.83690
G1 X222.342 Y16.346 E13.85713
G1 X222.623 Y15.639 E13.87737
G1 X222.820 Y14.906 E13.89758
G1 X222.930 Y14.153 E13.91782
G1 X222.952 Y13.392 E13.93807
G1 X222.886 Y12.636 E13.95828
G1 X222.732 Y11.892 E13.97849
G1 X222.493 Y11.170 E13.99873
G1 X222.171 Y10.480 E14.01897
G1 X221.772 Y9.833 E14.03920
G1 X221.301 Y9.237 E14.05942
G1 X220.763 Y8.699 E14.07966
G1 X220.329 Y8.356 E14.09438
G0 X218.963 Y7.172 F5400
G0 X219.144 Y7.051
;segType:Perimeter
G1 X219.932 Y7.190 E14.12099 F1439
G1 X220.603 Y7.604 E14.14720
G1 X221.269 Y8.131 E14.17545
G1 X221.869 Y8.731 E14.20369
G1 X222.396 Y9.397 E14.23192
G1 X222.842 Y10.119 E14.26016
G1 X223.200 Y10.889 E14.28840
G1 X223.467 Y11.695 E14.31663
G1 X223.639 Y12.525 E14.34483
G1 X223.713 Y13.371 E14.37307
G1 X223.688 Y14.219 E14.40131
G1 X223.565 Y15.060 E14.42955
G1 X223.345 Y15.879 E14.45778
G1 X223.032 Y16.668 E14.48601
G1 X222.629 Y17.415 E14.51424
G1 X222.142 Y18.111 E14.54248
G1 X221.572 Y18.752 E14.57102
G1 X48.749 Y191.574 E22.70006
G1 X48.111 Y192.142 E22.72848
G1 X47.415 Y192.629 E22.75672
G1 X46.668 Y193.032 E22.78495
G1 X45.879 Y193.345 E22.81318
G1 X45.059 Y193.565 E22.84141
G1 X44.220 Y193.688 E22.86965
G1 X43.371 Y193.713 E22.89788
G1 X42.526 Y193.639 E22.92611
G1 X41.694 Y193.467 E22.95435
G1 X40.888 Y193.200 E22.98258
G1 X40.119 Y192.841 E23.01081
G1 X39.397 Y192.396 E23.03904
G1 X38.731 Y191.869 E23.06727
G1 X38.131 Y191.269 E23.09550
G1 X37.604 Y190.603 E23.12373
G1 X37.159 Y189.881 E23.15197
G1 X36.800 Y189.112 E23.18019
G1 X36.533 Y188.306 E23.20843
G1 X36.361 Y187.475 E23.23666
G1 X36.287 Y186.629 E23.26489
G1 X36.312 Y185.780 E23.29313
G1 X36.435 Y184.940 E23.32136
G1 X36.655 Y184.121 E23.34959
G1 X36.968 Y183.332 E23.37782
G1 X37.371 Y182.585 E23.40606
G1 X37.858 Y181.889 E23.43429
G1 X38.426 Y181.251 E23.46271
G1 X211.253 Y8.424 E31.59197
G1 X211.889 Y7.858 E31.62029
G1 X212.585 Y7.371 E31.64853
G1 X213.332 Y6.968 E31.67676
G1 X214.121 Y6.655 E31.70499
G1 X214.940 Y6.435 E31.73322
G1 X215.781 Y6.312 E31.76146
G1 X216.629 Y6.287 E31.78971
G1 X217.475 Y6.361 E31.81792
G1 X218.306 Y6.533 E31.84615
G1 X219.111 Y6.800 E31.87438
G1 X219.827 Y7.133 E31.90062
G0 X219.932 Y7.190 F5400
G0 X220.603 Y7.604
G0 X221.240 Y8.107
G0 F3000 E30.90062
G0 X221.002 Y8.430 F5400
G0 X220.949 Y8.388
G0 X218.380 Y10.871
G0 X218.340 Y10.837
G0 X217.834 Y10.545
G0 X217.284 Y10.345
G0 X216.709 Y10.243
G0 X216.125 Y10.243
G0 X215.549 Y10.345
G0 X215.000 Y10.545
G0 X214.494 Y10.837
G0 X214.046 Y11.213
G0 X213.670 Y11.660
G0 X213.378 Y12.167
G0 X213.178 Y12.716
G0 X213.077 Y13.291
G0 X213.077 Y13.876
G0 X213.178 Y14.451
G0 X213.378 Y15.000
G0 X213.639 Y15.452
G0 X213.372 Y15.710
G0 F3000 E31.90062
;segType:HShell
G1 X213.050 Y15.153 E31.91773 F2400
G1 X212.829 Y14.545 E31.93495
G1 X212.717 Y13.907 E31.95217
G1 X212.717 Y13.260 E31.96941
G1 X212.829 Y12.622 E31.98663
G1 X213.050 Y12.014 E32.00385
G1 X213.374 Y11.453 E32.02109
G1 X213.790 Y10.957 E32.03830
G1 X214.286 Y10.541 E32.05554
G1 X214.847 Y10.217 E32.07277
G1 X215.455 Y9.996 E32.08999
G1 X216.093 Y9.883 E32.10723
G1 X216.740 Y9.883 E32.12444
G1 X217.378 Y9.996 E32.14167
G1 X217.986 Y10.217 E32.15890
G1 X218.547 Y10.541 E32.17613
G1 X219.043 Y10.957 E32.19336
G1 X219.459 Y11.453 E32.21057
G1 X219.783 Y12.013 E32.22779
G1 X220.004 Y12.622 E32.24503
G1 X220.117 Y13.260 E32.26226
G1 X220.117 Y13.907 E32.27947
G1 X220.004 Y14.545 E32.29671
G1 X219.783 Y15.153 E32.31394
G1 X219.459 Y15.714 E32.33116
G1 X219.043 Y16.210 E32.34839
G1 X218.547 Y16.626 E32.36561
G1 X217.986 Y16.950 E32.38285
G1 X217.378 Y17.171 E32.40008
G1 X216.740 Y17.283 E32.41729
G1 X216.093 Y17.283 E32.43452
G1 X215.455 Y17.171 E32.45175
G1 X214.847 Y16.949 E32.46897
G1 X214.286 Y16.626 E32.48620
G1 X213.790 Y16.210 E32.50343
G1 X213.500 Y15.863 E32.51546
G0 X215.244 Y16.528 F5400
;segType:Perimeter
G1 X214.678 Y15.962 E32.54207 F1439
G1 X214.330 Y15.670 E32.55717
G1 X213.999 Y15.276 E32.57428
G1 X213.742 Y14.831 E32.59139
G1 X213.566 Y14.347 E32.60850
G1 X213.477 Y13.841 E32.62562
G1 X213.477 Y13.326 E32.64273
G1 X213.566 Y12.820 E32.65983
G1 X213.742 Y12.336 E32.67695
G1 X213.999 Y11.891 E32.69405
G1 X214.330 Y11.497 E32.71116
G1 X214.724 Y11.166 E32.72827
G1 X215.169 Y10.909 E32.74539
G1 X215.653 Y10.733 E32.76249
G1 X216.159 Y10.643 E32.77961
G1 X216.674 Y10.643 E32.79672
G1 X217.180 Y10.733 E32.81382
G1 X217.664 Y10.909 E32.83094
G1 X218.109 Y11.166 E32.84805
G1 X218.503 Y11.497 E32.86516
G1 X218.834 Y11.891 E32.88226
G1 X219.091 Y12.336 E32.89937
G1 X219.267 Y12.820 E32.91649
G1 X219.357 Y13.326 E32.93360
G1 X219.357 Y13.841 E32.95070
G1 X219.267 Y14.347 E32.96782
G1 X219.091 Y14.831 E32.98493
G1 X218.834 Y15.276 E33.00204
G1 X218.503 Y15.670 E33.01915
G1 X218.109 Y16.001 E33.03626
G1 X217.664 Y16.258 E33.05337
G1 X217.180 Y16.434 E33.07048
G1 X216.674 Y16.523 E33.08758
G1 X216.159 Y16.523 E33.10470
G1 X215.653 Y16.434 E33.12181
G1 X215.169 Y16.258 E33.13892
G1 X214.776 Y16.031 E33.15403
G0 X214.678 Y15.962 F5400
G0 X214.330 Y15.670
G0 X213.999 Y15.276
G0 X213.742 Y14.831
G0 X213.702 Y14.721
G0 F3000 E32.15403
G0 X213.378 Y15.000 F5400
G0 X213.396 Y15.031
G0 X46.246 Y184.394
G0 X46.500 Y184.136
G0 F3000 E33.15403
;segType:HShell
G1 X46.210 Y183.790 E33.16606 F2400
G1 X45.714 Y183.374 E33.18329
G1 X45.153 Y183.051 E33.20052
G1 X44.545 Y182.829 E33.21773
G1 X43.907 Y182.717 E33.23496
G1 X43.259 Y182.717 E33.25220
G1 X42.622 Y182.829 E33.26943
G1 X42.014 Y183.051 E33.28665
G1 X41.453 Y183.374 E33.30387
G1 X40.957 Y183.790 E33.32110
G1 X40.541 Y184.286 E33.33832
G1 X40.217 Y184.847 E33.35555
G1 X39.996 Y185.455 E33.37277
G1 X39.883 Y186.093 E33.39000
G1 X39.883 Y186.740 E33.40723
G1 X39.996 Y187.378 E33.42445
G1 X40.217 Y187.986 E33.44169
G1 X40.541 Y188.547 E33.45891
G1 X40.957 Y189.043 E33.47614
G1 X41.453 Y189.459 E33.49336
G1 X42.014 Y189.783 E33.51058
G1 X42.622 Y190.004 E33.52782
G1 X43.260 Y190.117 E33.54504
G1 X43.907 Y190.117 E33.56226
G1 X44.545 Y190.004 E33.57950
G1 X45.153 Y189.783 E33.59672
G1 X45.714 Y189.459 E33.61395
G1 X46.210 Y189.043 E33.63118
G1 X46.626 Y188.547 E33.64840
G1 X46.950 Y187.986 E33.66564
G1 X47.171 Y187.378 E33.68286
G1 X47.283 Y186.741 E33.70007
G1 X47.283 Y186.093 E33.71731
G1 X47.171 Y185.455 E33.73454
G1 X46.950 Y184.847 E33.75176
G1 X46.628 Y184.290 E33.76887
G0 X44.756 Y183.472 F5400
;segType:Perimeter
G1 X45.322 Y184.038 E33.79548 F1439
G1 X45.670 Y184.330 E33.81059
G1 X46.001 Y184.724 E33.82770
G1 X46.258 Y185.169 E33.84482
G1 X46.434 Y185.653 E33.86192
G1 X46.523 Y186.159 E33.87903
G1 X46.523 Y186.674 E33.89615
G1 X46.434 Y187.180 E33.91326
G1 X46.258 Y187.664 E33.93036
G1 X46.001 Y188.109 E33.94747
G1 X45.670 Y188.503 E33.96458
G1 X45.276 Y188.834 E33.98169
G1 X44.831 Y189.091 E33.99881
G1 X44.347 Y189.267 E34.01591
G1 X43.841 Y189.357 E34.03303
G1 X43.326 Y189.357 E34.05013
G1 X42.820 Y189.267 E34.06724
G1 X42.336 Y189.091 E34.08436
G1 X41.891 Y188.834 E34.10146
G1 X41.497 Y188.503 E34.11857
G1 X41.166 Y188.109 E34.13568
G1 X40.909 Y187.664 E34.15279
G1 X40.733 Y187.180 E34.16991
G1 X40.643 Y186.674 E34.18701
G1 X40.643 Y186.159 E34.20412
G1 X40.733 Y185.653 E34.22123
G1 X40.909 Y185.169 E34.23834
G1 X41.166 Y184.724 E34.25546
G1 X41.497 Y184.330 E34.27257
G1 X41.891 Y183.999 E34.28967
G1 X42.336 Y183.742 E34.30678
G1 X42.820 Y183.566 E34.32389
G1 X43.326 Y183.477 E34.34100
G1 X43.841 Y183.477 E34.35811
G1 X44.347 Y183.566 E34.37523
G1 X44.831 Y183.742 E34.39233
G1 X45.224 Y183.969 E34.40744
G0 X45.322 Y184.038 F5400
G0 X45.670 Y184.330
G0 X46.001 Y184.724
G0 X46.258 Y185.169
G0 X46.298 Y185.279
G0 X46.622 Y185.000
G0 X46.935 Y184.032
;segType:HShell
G1 X46.955 Y184.056 E34.40846 F2400
G1 X47.314 Y184.678 E34.43234
G1 X47.559 Y185.351 E34.45618
G1 X47.683 Y186.058 E34.48004
G1 X47.683 Y186.776 E34.50392
G1 X47.559 Y187.482 E34.52776
G1 X47.314 Y188.156 E34.55162
G1 X46.955 Y188.777 E34.57549
G1 X46.494 Y189.327 E34.59935
G1 X45.944 Y189.788 E34.62321
G1 X45.323 Y190.147 E34.64707
G1 X44.649 Y190.392 E34.67093
G1 X43.942 Y190.517 E34.69480
G1 X43.225 Y190.517 E34.71865
G1 X42.518 Y190.392 E34.74251
G1 X41.844 Y190.147 E34.76638
G1 X41.223 Y189.788 E34.79024
G1 X40.673 Y189.327 E34.81410
G1 X40.212 Y188.777 E34.83795
G1 X39.853 Y188.156 E34.86181
G1 X39.608 Y187.482 E34.88568
G1 X39.483 Y186.775 E34.90954
G1 X39.483 Y186.058 E34.93339
G1 X39.608 Y185.351 E34.95726
G1 X39.853 Y184.677 E34.98112
G1 X40.212 Y184.056 E35.00498
G1 X40.673 Y183.506 E35.02884
G1 X41.223 Y183.045 E35.05271
G1 X41.844 Y182.687 E35.07656
G1 X42.518 Y182.441 E35.10041
G1 X43.224 Y182.317 E35.12427
G1 X43.942 Y182.317 E35.14815
G1 X44.649 Y182.441 E35.17202
G1 X45.322 Y182.687 E35.19586
G1 X45.944 Y183.045 E35.21972
G1 X46.494 Y183.506 E35.24358
G1 X46.807 Y183.879 E35.25978
G0 X47.242 Y183.775 F5400
G1 X47.284 Y183.826 E35.26196 F2400
G1 X47.678 Y184.508 E35.28817
G1 X47.947 Y185.247 E35.31434
G1 X48.083 Y186.023 E35.34052
G1 X48.083 Y186.811 E35.36673
G1 X47.947 Y187.586 E35.39291
G1 X47.678 Y188.325 E35.41909
G1 X47.284 Y189.008 E35.44529
G1 X46.778 Y189.611 E35.47147
G1 X46.174 Y190.117 E35.49766
G1 X45.492 Y190.510 E35.52385
G1 X44.753 Y190.780 E35.55004
G1 X43.977 Y190.917 E35.57624
G1 X43.190 Y190.917 E35.60242
G1 X42.414 Y190.780 E35.62861
G1 X41.674 Y190.510 E35.65481
G1 X40.992 Y190.117 E35.68100
G1 X40.389 Y189.611 E35.70718
G1 X39.883 Y189.008 E35.73336
G1 X39.490 Y188.326 E35.75955
G1 X39.220 Y187.586 E35.78575
G1 X39.083 Y186.810 E35.81194
G1 X39.083 Y186.023 E35.83812
G1 X39.220 Y185.247 E35.86432
G1 X39.490 Y184.508 E35.89050
G1 X39.883 Y183.826 E35.91670
G1 X40.389 Y183.222 E35.94288
G1 X40.993 Y182.716 E35.96908
G1 X41.675 Y182.323 E35.99526
G1 X42.414 Y182.054 E36.02144
G1 X43.189 Y181.917 E36.04762
G1 X43.977 Y181.917 E36.07383
G1 X44.753 Y182.054 E36.10003
G1 X45.492 Y182.323 E36.12619
G1 X46.174 Y182.716 E36.15238
G1 X46.778 Y183.222 E36.17858
G1 X47.113 Y183.622 E36.19593
G0 X47.548 Y183.518 F5400
G1 X47.613 Y183.595 E36.19928 F2400
G1 X48.042 Y184.338 E36.22782
G1 X48.334 Y185.143 E36.25631
G1 X48.483 Y185.988 E36.28483
G1 X48.483 Y186.846 E36.31337
G1 X48.334 Y187.690 E36.34187
G1 X48.042 Y188.495 E36.37037
G1 X47.612 Y189.238 E36.39891
G1 X47.061 Y189.895 E36.42742
G1 X46.405 Y190.446 E36.45593
G1 X45.662 Y190.874 E36.48445
G1 X44.857 Y191.168 E36.51297
G1 X44.012 Y191.317 E36.54149
G1 X43.155 Y191.317 E36.57000
G1 X42.310 Y191.168 E36.59852
G1 X41.504 Y190.874 E36.62705
G1 X40.762 Y190.446 E36.65556
G1 X40.105 Y189.895 E36.68407
G1 X39.554 Y189.238 E36.71257
G1 X39.126 Y188.496 E36.74109
G1 X38.832 Y187.690 E36.76962
G1 X38.683 Y186.845 E36.79814
G1 X38.683 Y185.988 E36.82664
G1 X38.832 Y185.143 E36.85517
G1 X39.126 Y184.338 E36.88368
G1 X39.554 Y183.595 E36.91221
G1 X40.105 Y182.939 E36.94072
G1 X40.762 Y182.387 E36.96924
G1 X41.505 Y181.959 E36.99776
G1 X42.310 Y181.666 E37.02625
G1 X43.154 Y181.517 E37.05477
G1 X44.012 Y181.517 E37.08331
G1 X44.857 Y181.666 E37.11184
G1 X45.662 Y181.959 E37.14032
G1 X46.404 Y182.387 E37.16884
G1 X47.061 Y182.939 E37.19737
G1 X47.419 Y183.365 E37.21588
G0 X47.854 Y183.261 F5400
G1 X47.942 Y183.365 E37.22040 F2400
G1 X48.406 Y184.169 E37.25126
G1 X48.722 Y185.040 E37.28208
G1 X48.883 Y185.953 E37.31292
G1 X48.883 Y186.881 E37.34380
G1 X48.722 Y187.793 E37.37462
G1 X48.627 Y188.056 E37.38392
G1 X48.794 Y188.192 E37.39108
G1 X218.177 Y18.809 E45.35831
G1 X218.127 Y18.601 E45.36543
G1 X217.793 Y18.722 E45.37723
G1 X216.880 Y18.884 E45.40805
G1 X215.953 Y18.884 E45.43890
G1 X215.039 Y18.722 E45.46977
G1 X214.168 Y18.405 E45.50059
G1 X213.365 Y17.942 E45.53143
G1 X212.655 Y17.346 E45.56227
G1 X212.058 Y16.635 E45.59315
G1 X211.595 Y15.831 E45.62399
G1 X211.278 Y14.960 E45.65483
G1 X211.116 Y14.048 E45.68565
G1 X211.116 Y13.120 E45.71651
G1 X211.278 Y12.207 E45.74734
G1 X211.399 Y11.873 E45.75914
G1 X211.191 Y11.824 E45.76625
G1 X41.809 Y181.206 E53.73348
G1 X41.944 Y181.373 E53.74064
G1 X42.206 Y181.278 E53.74992
G1 X43.119 Y181.117 E53.78076
G1 X44.047 Y181.117 E53.81164
G1 X44.961 Y181.278 E53.84250
G1 X45.831 Y181.595 E53.87330
G1 X46.635 Y182.058 E53.90414
G1 X47.345 Y182.655 E53.93500
G1 X47.726 Y183.108 E53.95468
G0 X48.467 Y182.747 F5400
G1 X48.599 Y182.904 E53.96153 F2400
G1 X49.133 Y183.829 E53.99706
G1 X49.498 Y184.832 E54.03253
G1 X49.680 Y185.862 E54.06732
G1 X49.909 Y185.945 E54.07544
G1 X215.995 Y19.860 E61.88758
G1 X215.841 Y19.676 E61.89555
G1 X214.831 Y19.498 E61.92966
G1 X213.829 Y19.133 E61.96512
G1 X212.905 Y18.600 E62.00062
G1 X212.087 Y17.914 E62.03611
G1 X211.400 Y17.095 E62.07166
G1 X210.867 Y16.171 E62.10716
G1 X210.502 Y15.168 E62.14265
G1 X210.324 Y14.159 E62.17672
G1 X210.140 Y14.006 E62.18468
G1 X44.055 Y180.091 E69.99682
G1 X44.138 Y180.320 E70.00493
G1 X45.169 Y180.502 E70.03976
G1 X46.170 Y180.867 E70.07521
G1 X47.095 Y181.400 E70.11071
G1 X47.913 Y182.087 E70.14623
G1 X48.338 Y182.593 E70.16822
G0 X49.080 Y182.232 F5400
G1 X49.257 Y182.444 E70.17740 F2400
G1 X49.861 Y183.490 E70.21759
G1 X50.159 Y184.308 E70.24652
G1 X50.313 Y184.410 E70.25269
G1 X214.395 Y20.328 E77.97056
G1 X214.287 Y20.151 E77.97747
G1 X213.490 Y19.861 E78.00569
G1 X212.444 Y19.258 E78.04582
G1 X211.519 Y18.482 E78.08599
G1 X210.742 Y17.556 E78.12619
G1 X210.139 Y16.510 E78.16636
G1 X209.849 Y15.713 E78.19454
G1 X209.672 Y15.606 E78.20145
G1 X45.591 Y179.687 E85.91932
G1 X45.692 Y179.841 E85.92548
G1 X46.510 Y180.139 E85.95441
G1 X47.556 Y180.742 E85.99457
G1 X48.481 Y181.519 E86.03475
G1 X48.951 Y182.079 E86.05907
G0 X50.372 Y183.844 F5400
;segType:InnerHair
G1 X50.376 Y183.825 E86.05962 F2400
G0 X50.209 Y184.576 F5400
G1 X50.211 Y184.566 E86.05988 F2400
G1 X50.235 Y184.460 E86.06384
G0 X49.956 Y185.401 F5400
G1 X49.969 Y185.358 E86.06512 F2400
G1 X50.000 Y185.260 E86.06889
G1 X50.031 Y185.162 E86.07349
G0 X49.589 Y186.400 F5400
G1 X49.626 Y186.309 E86.07584 F2400
G1 X49.664 Y186.217 E86.07881
G1 X49.702 Y186.126 E86.08241
G1 X49.752 Y186.047 E86.08614
G1 X49.783 Y185.948 E86.09106
G0 X49.353 Y186.959 F5400
G1 X49.305 Y187.051 E86.09528 F2400
G1 X49.257 Y187.142 E86.09896
G1 X49.210 Y187.233 E86.10211
G1 X49.162 Y187.325 E86.10474
G1 X49.114 Y187.416 E86.10683
G0 X49.093 Y187.456 F5400
G0 X49.137 Y187.371
G0 X49.182 Y187.286
G0 X49.226 Y187.201
G0 X49.271 Y187.117
G0 X49.323 Y187.040
G0 X49.361 Y186.949
G1 X49.353 Y186.959 E86.10744 F2400
G0 X48.698 Y188.148 F5400
G1 X48.640 Y188.239 E86.11240 F2400
G1 X48.582 Y188.331 E86.11694
G1 X48.524 Y188.422 E86.12106
G1 X48.466 Y188.513 E86.12475
G0 X48.309 Y188.741 F5400
G0 X48.084 Y189.034
G1 X48.141 Y188.960 E86.12656 F2400
G1 X48.197 Y188.887 E86.12856
G1 X48.253 Y188.814 E86.13075
G1 X48.309 Y188.741 E86.13313
G0 X48.366 Y188.669 F5400
G0 X48.417 Y188.590
G0 X48.467 Y188.511
G0 X48.517 Y188.432
G0 X48.568 Y188.353
G0 X48.618 Y188.274
G0 X48.668 Y188.195
G1 X48.698 Y188.148 E86.13592 F2400
G0 X46.235 Y179.611 F5400
G1 X46.175 Y179.624 E86.13764 F2400
G1 X46.069 Y179.648 E86.13964
G1 X46.058 Y179.650 E86.13983
G1 X46.149 Y179.630 E86.14225
G1 X46.235 Y179.611 E86.14518
G0 X45.327 Y179.812 F5400
G1 X45.418 Y179.792 E86.14755 F2400
G1 X45.509 Y179.772 E86.15071
G1 X45.601 Y179.752 E86.15466
G1 X45.540 Y179.765 E86.15694
G1 X45.434 Y179.789 E86.15985
G1 X45.328 Y179.812 E86.16171
G1 X45.327 Y179.812 E86.16173
G0 X44.504 Y180.074 F5400
G1 X44.595 Y180.046 E86.16412 F2400
G1 X44.687 Y180.017 E86.16721
G1 X44.778 Y179.988 E86.17101
G1 X44.869 Y179.959 E86.17552
G1 X44.838 Y179.969 E86.17697
G1 X44.740 Y180.000 E86.18074
G1 X44.642 Y180.031 E86.18370
G1 X44.543 Y180.062 E86.18584
G1 X44.504 Y180.074 E86.18658
G0 X43.967 Y180.244 F5400
G1 X43.954 Y180.248 E86.18714 F2400
G1 X43.874 Y180.298 E86.19055
G1 X43.783 Y180.336 E86.19353
G1 X43.691 Y180.374 E86.19588
G1 X43.600 Y180.412 E86.19761
G1 X43.589 Y180.416 E86.19780
G1 X43.681 Y180.378 E86.20008
G1 X43.772 Y180.340 E86.20298
G1 X43.864 Y180.302 E86.20650
G1 X43.954 Y180.265 E86.21060
G0 X43.051 Y180.639 F5400
G1 X42.960 Y180.677 E86.21455 F2400
G1 X42.883 Y180.729 E86.21800
G1 X42.799 Y180.774 E86.22110
G1 X42.714 Y180.818 E86.22374
G1 X42.629 Y180.863 E86.22593
G1 X42.544 Y180.907 E86.22766
G0 X42.584 Y180.886 F5400
G0 X42.675 Y180.838
G0 X42.767 Y180.791
G0 X42.858 Y180.743
G0 X42.949 Y180.695
G0 X43.041 Y180.647
G1 X43.051 Y180.639 E86.22828 F2400
G0 X41.259 Y181.691 F5400
G1 X41.186 Y181.747 E86.23047 F2400
G1 X41.113 Y181.803 E86.23247
G1 X41.040 Y181.860 E86.23428
G1 X40.967 Y181.916 E86.23592
G0 X41.259 Y181.691 F5400
G1 X41.487 Y181.535 E86.24532 F2400
G1 X41.578 Y181.476 E86.24943
G1 X41.669 Y181.418 E86.25397
G1 X41.761 Y181.360 E86.25893
G1 X41.768 Y181.355 E86.25932
G0 F3000 E85.25932
G0 X209.093 Y20.712 F5400
G0 F3000 E86.25932
;segType:HShell
G1 X209.090 Y20.713 E86.25943 F2400
G1 X50.698 Y179.105 E93.70970
G1 X50.752 Y179.248 E93.71478
G1 X50.895 Y179.302 E93.71987
G1 X209.352 Y20.846 E101.17319
G1 X209.254 Y20.758 E101.17757
G0 X209.137 Y20.107 F5400
G1 X209.130 Y20.107 E101.17780 F2400
G1 X50.092 Y179.145 E108.65848
G1 X50.117 Y179.237 E108.66163
G1 X50.468 Y179.531 E108.67689
G1 X50.763 Y179.883 E108.69215
G1 X50.855 Y179.908 E108.69530
G1 X209.893 Y20.870 E116.17599
G1 X209.883 Y20.764 E116.17954
G1 X209.532 Y20.469 E116.19477
G1 X209.301 Y20.194 E116.20674
G0 X209.144 Y19.539 F5400
G1 X209.106 Y19.565 E116.20827 F2400
G1 X49.486 Y179.186 E123.71632
G1 X49.552 Y179.284 E123.72027
G1 X50.184 Y179.815 E123.74773
G1 X50.775 Y180.518 E123.77826
G1 X50.879 Y180.450 E123.78242
G1 X210.499 Y20.830 E131.29047
G1 X210.518 Y20.775 E131.29239
G1 X209.816 Y20.185 E131.32288
G1 X209.290 Y19.558 E131.35011
G0 X209.388 Y19.053 F5400
G1 X209.273 Y18.917 E131.35606 F2400
G1 X209.146 Y18.959 E131.36052
G1 X48.880 Y179.226 E138.89897
G1 X48.987 Y179.332 E138.90399
G1 X49.901 Y180.099 E138.94366
G1 X50.727 Y181.084 E138.98640
G1 X50.839 Y181.056 E138.99023
G1 X211.105 Y20.789 E146.52869
G1 X211.083 Y20.727 E146.53088
G1 X210.100 Y19.901 E146.57359
G1 X209.517 Y19.207 E146.60376
G0 X209.223 Y18.318 F5400
G1 X209.187 Y18.353 E146.60544 F2400
G1 X48.246 Y179.294 E154.17558
G1 X48.477 Y179.426 E154.18442
G1 X49.617 Y180.383 E154.23392
G1 X50.573 Y181.522 E154.28339
G1 X50.706 Y181.754 E154.29228
G1 X211.753 Y20.707 E161.86742
G1 X211.522 Y20.573 E161.87631
G1 X210.384 Y19.617 E161.92572
G1 X209.426 Y18.477 E161.97527
G1 X209.345 Y18.335 E161.98070
G0 X209.494 Y17.793 F5400
G1 X209.351 Y17.546 E161.99019 F2400
G1 X209.292 Y17.682 E161.99515
G1 X47.603 Y179.372 E169.60050
G1 X47.464 Y179.304 E169.60566
G1 X48.246 Y179.755 E169.63572
G1 X49.333 Y180.667 E169.68288
G1 X50.244 Y181.753 E169.73002
G1 X50.696 Y182.536 E169.76010
G1 X50.629 Y182.397 E169.76524
G1 X212.403 Y20.623 E177.37462
G1 X211.753 Y20.244 E177.39966
G1 X210.668 Y19.334 E177.44676
G1 X209.755 Y18.246 E177.49398
G1 X209.594 Y17.966 E177.50474
G0 X210.307 Y18.282 F5400
G1 X210.084 Y18.016 E177.51626 F2400
G1 X209.455 Y16.925 E177.55816
G1 X209.397 Y17.012 E177.56164
G1 X46.997 Y179.412 E185.20044
G1 X47.007 Y179.502 E185.20346
G1 X48.016 Y180.084 E185.24222
G1 X49.049 Y180.951 E185.28706
G1 X49.915 Y181.983 E185.33188
G1 X50.498 Y182.993 E185.37066
G1 X50.588 Y183.003 E185.37368
G1 X213.053 Y20.539 E193.01554
G1 X212.911 Y20.451 E193.02108
G1 X211.984 Y19.916 E193.05670
G1 X210.952 Y19.050 E193.10152
G1 X210.436 Y18.435 E193.12818
G0 X210.614 Y18.025 F5400
G1 X210.413 Y17.786 E193.13856 F2400
G1 X209.775 Y16.679 E193.18106
G1 X209.689 Y16.445 E193.18936
G1 X209.567 Y16.276 E193.19628
G1 X46.261 Y179.582 E200.87768
G1 X46.424 Y179.682 E200.88402
G1 X46.679 Y179.775 E200.89306
G1 X47.786 Y180.413 E200.93554
G1 X48.765 Y181.235 E200.97806
G1 X49.586 Y182.213 E201.02054
G1 X50.225 Y183.321 E201.06306
G1 X50.318 Y183.576 E201.07212
G1 X50.418 Y183.739 E201.07846
G1 X213.724 Y20.434 E208.75984
G1 X213.555 Y20.310 E208.76678
G1 X213.320 Y20.224 E208.77512
G1 X212.214 Y19.587 E208.81758
G1 X211.236 Y18.766 E208.86006
G1 X210.742 Y18.178 E208.88558
G0 X211.227 Y17.510 F5400
G1 X211.071 Y17.325 E208.89362 F2400
G1 X210.503 Y16.340 E208.93144
G1 X210.114 Y15.272 E208.96926
G1 X210.063 Y14.982 E208.97904
G1 X209.841 Y14.870 E208.98730
G1 X44.855 Y179.856 E216.74776
G1 X44.961 Y180.059 E216.75538
G1 X45.273 Y180.115 E216.76592
G1 X46.340 Y180.503 E216.80368
G1 X47.325 Y181.071 E216.84150
G1 X48.197 Y181.803 E216.87936
G1 X48.928 Y182.674 E216.91720
G1 X49.497 Y183.660 E216.95504
G1 X49.886 Y184.728 E216.99284
G1 X49.941 Y185.039 E217.00336
G1 X50.144 Y185.145 E217.01098
G1 X215.130 Y20.159 E224.77142
G1 X215.018 Y19.937 E224.77970
G1 X214.727 Y19.885 E224.78952
G1 X213.659 Y19.497 E224.82732
G1 X212.674 Y18.929 E224.86512
G1 X211.803 Y18.198 E224.90296
G1 X211.355 Y17.664 E224.92614
G0 X211.839 Y16.996 F5400
G1 X211.729 Y16.865 E224.93186 F2400
G1 X211.231 Y16.001 E224.96502
G1 X210.890 Y15.064 E224.99818
G1 X210.716 Y14.083 E225.03132
G1 X210.716 Y13.153 E225.06222
G1 X210.504 Y13.076 E225.06974
G1 X43.061 Y180.519 E232.94576
G1 X43.132 Y180.717 E232.95272
G1 X44.083 Y180.717 E232.98432
G1 X45.065 Y180.890 E233.01752
G1 X46.001 Y181.231 E233.05064
G1 X46.865 Y181.729 E233.08382
G1 X47.629 Y182.371 E233.11700
G1 X48.270 Y183.135 E233.15018
G1 X48.769 Y183.999 E233.18338
G1 X49.110 Y184.936 E233.21652
G1 X49.283 Y185.917 E233.24968
G1 X49.283 Y186.868 E233.28128
G1 X49.481 Y186.939 E233.28826
G1 X216.924 Y19.496 E241.16428
G1 X216.847 Y19.284 E241.17180
G1 X215.918 Y19.284 E241.20268
G1 X214.935 Y19.110 E241.23588
G1 X213.999 Y18.769 E241.26902
G1 X213.135 Y18.271 E241.30220
G1 X212.371 Y17.630 E241.33538
G1 X211.968 Y17.149 E241.35624
G0 X212.452 Y16.482 F5400
G1 X212.387 Y16.404 E241.35960 F2400
G1 X211.959 Y15.662 E241.38810
G1 X211.666 Y14.856 E241.41662
G1 X211.516 Y14.013 E241.44512
G1 X211.516 Y13.155 E241.47364
G1 X211.666 Y12.311 E241.50216
G1 X211.958 Y11.505 E241.53068
G1 X212.388 Y10.762 E241.55920
G1 X212.938 Y10.106 E241.58770
G1 X213.595 Y9.554 E241.61622
G1 X214.338 Y9.126 E241.64474
G1 X215.143 Y8.832 E241.67326
G1 X215.989 Y8.683 E241.70182
G1 X216.845 Y8.683 E241.73030
G1 X217.690 Y8.832 E241.75884
G1 X218.496 Y9.126 E241.78736
G1 X219.238 Y9.554 E241.81588
G1 X219.895 Y10.106 E241.84440
G1 X220.445 Y10.761 E241.87286
G1 X220.874 Y11.505 E241.90142
G1 X221.168 Y12.310 E241.92992
G1 X221.317 Y13.155 E241.95846
G1 X221.317 Y14.011 E241.98694
G1 X221.168 Y14.857 E242.01548
G1 X220.874 Y15.662 E242.04400
G1 X220.446 Y16.405 E242.07250
G1 X219.894 Y17.062 E242.10102
G1 X219.238 Y17.612 E242.12954
G1 X218.495 Y18.042 E242.15806
G1 X217.689 Y18.334 E242.18658
G1 X216.845 Y18.484 E242.21508
G1 X215.988 Y18.484 E242.24360
G1 X215.143 Y18.334 E242.27214
G1 X214.338 Y18.041 E242.30064
G1 X213.595 Y17.613 E242.32914
G1 X212.939 Y17.062 E242.35766
G1 X212.581 Y16.635 E242.37620
G0 X212.758 Y16.225 F5400
G1 X212.716 Y16.174 E242.37840 F2400
G1 X212.322 Y15.492 E242.40458
G1 X212.053 Y14.752 E242.43078
G1 X211.917 Y13.978 E242.45694
G1 X211.917 Y13.190 E242.48314
G1 X212.053 Y12.414 E242.50932
G1 X212.322 Y11.675 E242.53550
G1 X212.716 Y10.992 E242.56170
G1 X213.222 Y10.390 E242.58790
G1 X213.826 Y9.883 E242.61408
G1 X214.508 Y9.489 E242.64028
G1 X215.247 Y9.220 E242.66648
G1 X216.023 Y9.083 E242.69268
G1 X216.810 Y9.083 E242.71886
G1 X217.586 Y9.220 E242.74508
G1 X218.326 Y9.490 E242.77128
G1 X219.008 Y9.883 E242.79746
G1 X219.611 Y10.390 E242.82366
G1 X220.116 Y10.992 E242.84980
G1 X220.510 Y11.674 E242.87600
G1 X220.780 Y12.414 E242.90218
G1 X220.917 Y13.190 E242.92840
G1 X220.917 Y13.977 E242.95456
G1 X220.780 Y14.753 E242.98078
G1 X220.511 Y15.492 E243.00696
G1 X220.117 Y16.174 E243.03316
G1 X219.610 Y16.778 E243.05936
G1 X219.008 Y17.284 E243.08554
G1 X218.325 Y17.678 E243.11174
G1 X217.586 Y17.947 E243.13792
G1 X216.810 Y18.084 E243.16410
G1 X216.023 Y18.084 E243.19030
G1 X215.247 Y17.946 E243.21650
G1 X214.508 Y17.677 E243.24270
G1 X213.826 Y17.284 E243.26888
G1 X213.223 Y16.778 E243.29506
G1 X212.887 Y16.378 E243.31242
G0 X213.065 Y15.967 F5400
G1 X213.045 Y15.944 E243.31344 F2400
G1 X212.686 Y15.322 E243.33732
G1 X212.441 Y14.648 E243.36116
G1 X212.317 Y13.942 E243.38500
G1 X212.317 Y13.225 E243.40888
G1 X212.441 Y12.518 E243.43274
G1 X212.686 Y11.844 E243.45660
G1 X213.045 Y11.223 E243.48046
G1 X213.506 Y10.673 E243.50432
G1 X214.056 Y10.212 E243.52818
G1 X214.677 Y9.853 E243.55204
G1 X215.351 Y9.608 E243.57590
G1 X216.058 Y9.483 E243.59978
G1 X216.775 Y9.483 E243.62362
G1 X217.482 Y9.608 E243.64748
G1 X218.156 Y9.854 E243.67134
G1 X218.777 Y10.212 E243.69520
G1 X219.327 Y10.674 E243.71906
G1 X219.788 Y11.222 E243.74288
G1 X220.146 Y11.844 E243.76676
G1 X220.392 Y12.518 E243.79062
G1 X220.517 Y13.225 E243.81448
G1 X220.517 Y13.942 E243.83832
G1 X220.392 Y14.649 E243.86220
G1 X220.147 Y15.323 E243.88604
G1 X219.788 Y15.944 E243.90992
G1 X219.327 Y16.494 E243.93378
G1 X218.777 Y16.955 E243.95762
G1 X218.156 Y17.314 E243.98150
G1 X217.482 Y17.559 E244.00536
G1 X216.775 Y17.684 E244.02920
G1 X216.058 Y17.684 E244.05308
G1 X215.351 Y17.559 E244.07694
G1 X214.677 Y17.313 E244.10078
G1 X214.056 Y16.955 E244.12464
G1 X213.507 Y16.494 E244.14852
G1 X213.193 Y16.121 E244.16472
G0 F3000 E243.16472
G0 X209.786 Y15.445 F5400
G0 F3000 E244.16472
;segType:InnerHair
G1 X209.783 Y15.459 E244.16512 F2400
G1 X209.760 Y15.564 E244.16932
G1 X209.747 Y15.622 E244.17190
G1 X209.767 Y15.531 E244.17524
G1 X209.786 Y15.445 E244.17768
G0 X209.624 Y16.177 F5400
G1 X209.619 Y16.199 E244.17838 F2400
G1 X209.585 Y16.353 E244.18538
G1 X209.605 Y16.262 E244.18876
G1 X209.624 Y16.177 E244.19122
G0 X210.038 Y14.620 F5400
G1 X210.024 Y14.665 E244.19264 F2400
G1 X209.993 Y14.763 E244.19660
G1 X209.962 Y14.861 E244.20138
G1 X209.953 Y14.891 E244.20288
G1 X209.981 Y14.799 E244.20684
G1 X210.010 Y14.708 E244.21010
G1 X210.038 Y14.620 E244.21258
G0 X210.407 Y13.611 F5400
G1 X210.403 Y13.621 E244.21276 F2400
G1 X210.365 Y13.713 E244.21464
G1 X210.327 Y13.804 E244.21714
G1 X210.272 Y13.878 E244.22006
G1 X210.241 Y13.976 E244.22354
G1 X210.218 Y14.068 E244.22744
G1 X210.256 Y13.976 E244.23236
G1 X210.294 Y13.885 E244.23664
G1 X210.332 Y13.793 E244.24032
G0 X210.896 Y12.563 F5400
G0 X210.852 Y12.648 F5400
G0 X210.807 Y12.733
G0 X210.763 Y12.818
G0 X210.719 Y12.903
G0 X210.668 Y12.981
G0 X210.630 Y13.073
G1 X210.636 Y13.062 E244.24090 F2400
G1 X210.684 Y12.971 E244.24520
G1 X210.731 Y12.879 E244.24900
G1 X210.779 Y12.788 E244.25226
G1 X210.827 Y12.696 E244.25498
G1 X210.874 Y12.605 E244.25718
G0 X211.903 Y10.984 F5400
G1 X211.846 Y11.057 E244.25904 F2400
G1 X211.790 Y11.130 E244.26110
G1 X211.734 Y11.203 E244.26332
G1 X211.678 Y11.276 E244.26574
G0 X211.622 Y11.349 F5400
G0 X211.572 Y11.428
G0 X211.521 Y11.507
G0 X211.471 Y11.586
G0 X211.421 Y11.665
G0 X211.370 Y11.744
G0 X211.320 Y11.823
G1 X211.347 Y11.782 E244.26804 F2400
G1 X211.405 Y11.691 E244.27268
G1 X211.463 Y11.599 E244.27688
G1 X211.521 Y11.508 E244.28068
G0 F3000 E243.28068
G0 X219.391 Y9.160 F5400
G0 F3000 E244.28068
;segType:HShell
G1 X218.949 Y8.887 E244.29796 F2400
G1 X218.386 Y8.624 E244.31862
G1 X217.797 Y8.429 E244.33924
G1 X217.190 Y8.304 E244.35988
G1 X216.573 Y8.250 E244.38048
G1 X215.951 Y8.268 E244.40116
G1 X215.337 Y8.358 E244.42182
G1 X214.739 Y8.518 E244.44242
G1 X214.162 Y8.747 E244.46308
G1 X213.616 Y9.042 E244.48370
G1 X213.107 Y9.398 E244.50434
G1 X212.598 Y9.850 E244.52700
G1 X39.852 Y182.597 E252.65246
G1 X39.398 Y183.107 E252.67518
G1 X39.042 Y183.615 E252.69582
G1 X38.747 Y184.162 E252.71646
G1 X38.518 Y184.738 E252.73710
G1 X38.358 Y185.337 E252.75774
G1 X38.268 Y185.951 E252.77838
G1 X38.250 Y186.572 E252.79902
G1 X38.304 Y187.190 E252.81966
G1 X38.429 Y187.798 E252.84028
G1 X38.625 Y188.387 E252.86094
G1 X38.887 Y188.949 E252.88156
G1 X39.212 Y189.477 E252.90220
G1 X39.597 Y189.964 E252.92284
G1 X40.036 Y190.403 E252.94346
G1 X40.523 Y190.788 E252.96412
G1 X41.051 Y191.113 E252.98474
G1 X41.613 Y191.375 E253.00538
G1 X42.202 Y191.571 E253.02602
G1 X42.810 Y191.696 E253.04666
G1 X43.428 Y191.750 E253.06730
G1 X44.049 Y191.732 E253.08796
G1 X44.662 Y191.642 E253.10858
G1 X45.262 Y191.482 E253.12922
G1 X45.839 Y191.253 E253.14986
G1 X46.385 Y190.958 E253.17050
G1 X46.893 Y190.602 E253.19114
G1 X47.403 Y190.148 E253.21386
G1 X220.145 Y17.406 E261.33912
G1 X220.602 Y16.893 E261.36194
G1 X220.958 Y16.385 E261.38260
G1 X221.253 Y15.838 E261.40326
G1 X221.482 Y15.261 E261.42388
G1 X221.642 Y14.663 E261.44448
G1 X221.732 Y14.049 E261.46512
G1 X221.750 Y13.427 E261.48580
G1 X221.696 Y12.810 E261.50640
G1 X221.571 Y12.203 E261.52704
G1 X221.376 Y11.614 E261.54766
G1 X221.113 Y11.051 E261.56832
G1 X220.787 Y10.523 E261.58896
G1 X220.403 Y10.037 E261.60956
G1 X219.963 Y9.597 E261.63024
G1 X219.555 Y9.274 E261.64756
G0 X219.621 Y8.831 F5400
G1 X219.139 Y8.534 E261.66638 F2400
G1 X218.534 Y8.252 E261.68856
G1 X217.901 Y8.042 E261.71076
G1 X217.248 Y7.907 E261.73294
G1 X216.584 Y7.849 E261.75510
G1 X215.916 Y7.869 E261.77732
G1 X215.256 Y7.965 E261.79950
G1 X214.612 Y8.138 E261.82168
G1 X213.992 Y8.384 E261.84388
G1 X213.405 Y8.701 E261.86606
G1 X212.858 Y9.084 E261.88824
G1 X212.324 Y9.559 E261.91202
G1 X39.561 Y182.322 E270.03826
G1 X39.084 Y182.858 E270.06216
G1 X38.701 Y183.405 E270.08436
G1 X38.384 Y183.992 E270.10654
G1 X38.138 Y184.612 E270.12872
G1 X37.965 Y185.256 E270.15090
G1 X37.869 Y185.917 E270.17310
G1 X37.849 Y186.584 E270.19528
G1 X37.907 Y187.248 E270.21746
G1 X38.042 Y187.901 E270.23966
G1 X38.252 Y188.535 E270.26184
G1 X38.534 Y189.139 E270.28402
G1 X38.884 Y189.707 E270.30622
G1 X39.298 Y190.230 E270.32840
G1 X39.770 Y190.702 E270.35058
G1 X40.293 Y191.116 E270.37278
G1 X40.861 Y191.466 E270.39496
G1 X41.465 Y191.748 E270.41714
G1 X42.099 Y191.958 E270.43934
G1 X42.752 Y192.093 E270.46152
G1 X43.417 Y192.151 E270.48370
G1 X44.084 Y192.131 E270.50588
G1 X44.743 Y192.035 E270.52808
G1 X45.388 Y191.862 E270.55026
G1 X46.008 Y191.616 E270.57244
G1 X46.595 Y191.299 E270.59464
G1 X47.142 Y190.917 E270.61682
G1 X47.678 Y190.439 E270.64072
G1 X220.437 Y17.681 E278.76676
G1 X220.916 Y17.142 E278.79074
G1 X221.299 Y16.595 E278.81292
G1 X221.616 Y16.008 E278.83512
G1 X221.862 Y15.388 E278.85730
G1 X222.035 Y14.744 E278.87948
G1 X222.131 Y14.084 E278.90168
G1 X222.151 Y13.416 E278.92388
G1 X222.093 Y12.752 E278.94604
G1 X221.958 Y12.099 E278.96824
G1 X221.748 Y11.466 E278.99042
G1 X221.466 Y10.861 E279.01264
G1 X221.116 Y10.293 E279.03482
G1 X220.702 Y9.770 E279.05698
G1 X220.230 Y9.298 E279.07922
G1 X219.785 Y8.946 E279.09808
G0 X219.923 Y8.547 F5400
G1 X219.330 Y8.181 E279.12128 F2400
G1 X218.682 Y7.880 E279.14506
G1 X218.005 Y7.655 E279.16876
G1 X217.306 Y7.511 E279.19250
G1 X216.596 Y7.449 E279.21622
G1 X215.882 Y7.469 E279.24000
G1 X215.175 Y7.573 E279.26374
G1 X214.486 Y7.758 E279.28744
G1 X213.823 Y8.021 E279.31118
G1 X213.195 Y8.360 E279.33494
G1 X212.610 Y8.769 E279.35868
G1 X212.050 Y9.268 E279.38360
G1 X39.270 Y182.047 E287.51062
G1 X38.769 Y182.610 E287.53568
G1 X38.360 Y183.195 E287.55942
G1 X38.021 Y183.823 E287.58316
G1 X37.758 Y184.486 E287.60690
G1 X37.573 Y185.175 E287.63064
G1 X37.470 Y185.882 E287.65438
G1 X37.449 Y186.595 E287.67814
G1 X37.511 Y187.306 E287.70188
G1 X37.655 Y188.005 E287.72562
G1 X37.880 Y188.683 E287.74936
G1 X38.181 Y189.329 E287.77310
G1 X38.556 Y189.937 E287.79684
G1 X38.999 Y190.497 E287.82058
G1 X39.503 Y191.001 E287.84432
G1 X40.063 Y191.444 E287.86808
G1 X40.671 Y191.819 E287.89182
G1 X41.317 Y192.120 E287.91556
G1 X41.995 Y192.345 E287.93930
G1 X42.694 Y192.489 E287.96304
G1 X43.405 Y192.551 E287.98678
G1 X44.118 Y192.531 E288.01052
G1 X44.824 Y192.427 E288.03428
G1 X45.514 Y192.242 E288.05802
G1 X46.177 Y191.979 E288.08176
G1 X46.806 Y191.640 E288.10550
G1 X47.390 Y191.231 E288.12924
G1 X47.953 Y190.730 E288.15430
G1 X220.728 Y17.955 E296.28110
G1 X221.231 Y17.390 E296.30628
G1 X221.640 Y16.805 E296.33002
G1 X221.979 Y16.177 E296.35376
G1 X222.243 Y15.514 E296.37750
G1 X222.427 Y14.825 E296.40122
G1 X222.531 Y14.118 E296.42496
G1 X222.551 Y13.404 E296.44874
G1 X222.489 Y12.694 E296.47244
G1 X222.345 Y11.995 E296.49616
G1 X222.120 Y11.318 E296.51990
G1 X221.819 Y10.670 E296.54368
G1 X221.444 Y10.063 E296.56742
G1 X221.002 Y9.504 E296.59112
G1 X220.496 Y8.999 E296.61490
G1 X220.081 Y8.670 E296.63250
G0 X220.552 Y8.074 F5400
;segType:Loop
G1 X221.002 Y8.430 E296.65162 F2400
G1 X221.570 Y8.998 E296.67832
G1 X222.068 Y9.627 E296.70498
G1 X222.489 Y10.310 E296.73166
G1 X222.828 Y11.037 E296.75834
G1 X223.080 Y11.798 E296.78504
G1 X223.242 Y12.583 E296.81170
G1 X223.312 Y13.382 E296.83838
G1 X223.289 Y14.185 E296.86508
G1 X223.173 Y14.979 E296.89178
G1 X222.965 Y15.753 E296.91842
G1 X222.669 Y16.499 E296.94512
G1 X222.288 Y17.205 E296.97180
G1 X221.828 Y17.862 E296.99848
G1 X221.281 Y18.477 E297.02584
G1 X48.474 Y191.283 E305.15414
G1 X47.862 Y191.828 E305.18140
G1 X47.205 Y192.288 E305.20806
G1 X46.499 Y192.669 E305.23474
G1 X45.753 Y192.965 E305.26142
G1 X44.978 Y193.173 E305.28808
G1 X44.185 Y193.289 E305.31476
G1 X43.383 Y193.312 E305.34144
G1 X42.584 Y193.242 E305.36810
G1 X41.798 Y193.080 E305.39478
G1 X41.036 Y192.828 E305.42148
G1 X40.309 Y192.489 E305.44816
G1 X39.627 Y192.068 E305.47482
G1 X38.997 Y191.570 E305.50150
G1 X38.430 Y191.003 E305.52816
G1 X37.932 Y190.373 E305.55484
G1 X37.511 Y189.691 E305.58152
G1 X37.172 Y188.964 E305.60818
G1 X36.920 Y188.202 E305.63488
G1 X36.758 Y187.417 E305.66156
G1 X36.688 Y186.617 E305.68824
G1 X36.711 Y185.815 E305.71490
G1 X36.827 Y185.021 E305.74158
G1 X37.035 Y184.247 E305.76824
G1 X37.331 Y183.501 E305.79492
G1 X37.712 Y182.795 E305.82160
G1 X38.172 Y182.138 E305.84826
G1 X38.717 Y181.526 E305.87552
G1 X211.528 Y8.715 E314.00400
G1 X212.138 Y8.172 E314.03116
G1 X212.795 Y7.712 E314.05786
G1 X213.501 Y7.331 E314.08454
G1 X214.247 Y7.035 E314.11124
G1 X215.021 Y6.827 E314.13788
G1 X215.815 Y6.711 E314.16458
G1 X216.618 Y6.688 E314.19128
G1 X217.416 Y6.758 E314.21792
G1 X218.202 Y6.920 E314.24460
G1 X218.963 Y7.172 E314.27128
G1 X219.691 Y7.511 E314.29798
G1 X220.373 Y7.932 E314.32464
G1 X220.395 Y7.950 E314.32560
G0 F3000 E313.32560
G0 X219.707 Y13.012 F5400
G0 X219.757 Y13.291
G0 X219.757 Y13.875
G0 X219.655 Y14.451
G0 X219.455 Y15.000
G0 X219.432 Y15.041
G0 X219.016 Y18.098
G0 F3000 E314.32560
;segType:InnerHair
G0 X218.724 Y18.322 F5400
G1 X218.492 Y18.479 E314.33536 F2400
G1 X218.401 Y18.537 E314.33956
G1 X218.310 Y18.595 E314.34420
G1 X218.218 Y18.653 E314.34928
G0 X218.177 Y18.680 F5400
G0 X218.256 Y18.630
G0 X218.335 Y18.579
G0 X218.414 Y18.529
G0 X218.493 Y18.479
G0 X218.572 Y18.429
G0 X218.651 Y18.378
G1 X218.724 Y18.322 E314.35168 F2400
G1 X218.797 Y18.266 E314.35392
G1 X218.870 Y18.210 E314.35596
G1 X218.943 Y18.154 E314.35782
G1 X219.016 Y18.098 E314.35950
G0 X216.927 Y19.370 F5400
G1 X217.019 Y19.332 E314.36358 F2400
G1 X217.097 Y19.281 E314.36716
G1 X217.182 Y19.237 E314.37036
G1 X217.267 Y19.193 E314.37310
G1 X217.348 Y19.150 E314.37530
G0 X216.390 Y19.593 F5400
G1 X216.298 Y19.631 E314.37772 F2400
G1 X216.207 Y19.669 E314.38076
G1 X216.115 Y19.706 E314.38442
G1 X216.024 Y19.744 E314.38874
G1 X215.932 Y19.782 E314.39364
G1 X216.024 Y19.760 E314.39756
G1 X216.122 Y19.729 E314.40104
G1 X216.196 Y19.673 E314.40394
G1 X216.287 Y19.635 E314.40644
G1 X216.379 Y19.597 E314.40830
G1 X216.390 Y19.593 E314.40850
G0 X215.475 Y19.932 F5400
G1 X215.384 Y19.961 E314.41108 F2400
G1 X215.292 Y19.990 E314.41434
G1 X215.201 Y20.019 E314.41830
G1 X215.109 Y20.047 E314.42298
G1 X215.139 Y20.038 E314.42440
G1 X215.237 Y20.007 E314.42838
G1 X215.335 Y19.976 E314.43152
G1 X215.434 Y19.945 E314.43384
G1 X215.475 Y19.932 E314.43466
G0 X214.652 Y20.192 F5400
G1 X214.561 Y20.213 E314.43722 F2400
G1 X214.469 Y20.233 E314.44056
G1 X214.378 Y20.253 E314.44468
G1 X214.436 Y20.240 E314.44696
G1 X214.542 Y20.217 E314.45010
G1 X214.647 Y20.193 E314.45220
G1 X214.652 Y20.192 E314.45230
G0 X213.921 Y20.354 F5400
G1 X213.830 Y20.375 E314.45490 F2400
G1 X213.738 Y20.395 E314.45828
G1 X213.647 Y20.415 E314.46244
G1 X213.801 Y20.381 E314.46722
G1 X213.907 Y20.358 E314.46948
G1 X213.921 Y20.354 E314.46976
G0 F3000 E313.46976
G0 X213.620 Y15.420 F5400
G0 F3000 E314.46976
;segType:Loop
G1 X213.378 Y15.000 E314.48588 F2400
G1 X213.178 Y14.451 E314.50532
G1 X213.077 Y13.876 E314.52474
G1 X213.077 Y13.291 E314.54418
G1 X213.178 Y12.716 E314.56362
G1 X213.378 Y12.167 E314.58306
G1 X213.670 Y11.660 E314.60250
G1 X214.046 Y11.213 E314.62194
G1 X214.494 Y10.837 E314.64138
G1 X215.000 Y10.545 E314.66082
G1 X215.549 Y10.345 E314.68026
G1 X216.125 Y10.243 E314.69970
G1 X216.709 Y10.243 E314.71914
G1 X217.284 Y10.345 E314.73858
G1 X217.834 Y10.545 E314.75802
G1 X218.340 Y10.837 E314.77746
G1 X218.787 Y11.213 E314.79690
G1 X219.163 Y11.660 E314.81632
G1 X219.455 Y12.166 E314.83576
G1 X219.655 Y12.716 E314.85520
G1 X219.757 Y13.291 E314.87464
G1 X219.757 Y13.875 E314.89408
G1 X219.655 Y14.451 E314.91352
G1 X219.455 Y15.000 E314.93296
G1 X219.163 Y15.507 E314.95240
G1 X218.787 Y15.954 E314.97184
G1 X218.340 Y16.330 E314.99128
G1 X217.833 Y16.622 E315.01072
G1 X217.284 Y16.822 E315.03016
G1 X216.709 Y16.923 E315.04960
G1 X216.124 Y16.923 E315.06904
G1 X215.549 Y16.822 E315.08848
G1 X215.000 Y16.622 E315.10792
G1 X214.493 Y16.330 E315.12734
G1 X214.046 Y15.954 E315.14678
G1 X213.734 Y15.583 E315.16290
G0 F3000 E314.16290
G0 X46.380 Y184.580 F5400
G0 X46.380 Y184.580
G0 F3000 E315.16290
G1 X46.622 Y185.000 E315.17902 F2400
G1 X46.822 Y185.549 E315.19846
G1 X46.923 Y186.124 E315.21790
G1 X46.923 Y186.709 E315.23734
G1 X46.822 Y187.284 E315.25678
G1 X46.622 Y187.834 E315.27622
G1 X46.330 Y188.340 E315.29566
G1 X45.954 Y188.787 E315.31510
G1 X45.507 Y189.163 E315.33454
G1 X45.000 Y189.455 E315.35398
G1 X44.451 Y189.655 E315.37342
G1 X43.876 Y189.757 E315.39286
G1 X43.291 Y189.757 E315.41230
G1 X42.716 Y189.655 E315.43174
G1 X42.166 Y189.455 E315.45118
G1 X41.660 Y189.163 E315.47062
G1 X41.213 Y188.787 E315.49006
G1 X40.837 Y188.340 E315.50950
G1 X40.545 Y187.834 E315.52894
G1 X40.345 Y187.284 E315.54838
G1 X40.243 Y186.709 E315.56782
G1 X40.243 Y186.125 E315.58724
G1 X40.345 Y185.549 E315.60668
G1 X40.545 Y185.000 E315.62612
G1 X40.837 Y184.493 E315.64556
G1 X41.213 Y184.046 E315.66500
G1 X41.660 Y183.670 E315.68444
G1 X42.166 Y183.378 E315.70388
G1 X42.716 Y183.178 E315.72332
G1 X43.291 Y183.077 E315.74276
G1 X43.876 Y183.077 E315.76220
G1 X44.451 Y183.178 E315.78164
G1 X45.000 Y183.378 E315.80106
G1 X45.506 Y183.670 E315.82050
G1 X45.954 Y184.046 E315.83994
G1 X46.266 Y184.417 E315.85604
; ------------------------------------
; Layer #1
; ------------------------------------
G92 E0 ;reset extr
G0 F3000 E-1.00000
G0 F600 Z0.350
G0 X213.420 Y15.073 F7200
G0 X213.378 Y15.000
G0 X213.178 Y14.451
G0 X213.077 Y13.876
G0 X213.077 Y13.291
G0 X213.178 Y12.716
G0 X213.378 Y12.167
G0 X213.670 Y11.660
G0 X214.046 Y11.213
G0 X214.494 Y10.837
G0 X215.000 Y10.545
G0 X215.549 Y10.345
G0 X216.125 Y10.243
G0 X216.708 Y10.243
G0 X217.284 Y10.345
G0 X217.834 Y10.545
G0 X217.869 Y10.565
G0 X220.426 Y7.974
G0 X220.373 Y7.932
G0 X220.172 Y8.232
G0 F3000 E0.00000
;segType:HShell
G1 X220.166 Y8.228 E0.00015 F3600
G1 X219.520 Y7.829 E0.01530
G1 X218.830 Y7.507 E0.03049
G1 X218.109 Y7.268 E0.04566
G1 X217.364 Y7.114 E0.06083
G1 X216.608 Y7.048 E0.07598
G1 X215.847 Y7.070 E0.09117
G1 X215.094 Y7.180 E0.10635
G1 X214.361 Y7.377 E0.12151
G1 X213.654 Y7.658 E0.13669
G1 X212.984 Y8.019 E0.15186
G1 X212.361 Y8.455 E0.16704
G1 X211.772 Y8.979 E0.18278
G1 X38.979 Y181.773 E5.05938
G1 X38.455 Y182.361 E5.07511
G1 X38.019 Y182.984 E5.09028
G1 X37.658 Y183.654 E5.10546
G1 X37.377 Y184.360 E5.12063
G1 X37.180 Y185.094 E5.13580
G1 X37.070 Y185.847 E5.15097
G1 X37.048 Y186.607 E5.16615
G1 X37.114 Y187.364 E5.18132
G1 X37.268 Y188.109 E5.19649
G1 X37.507 Y188.831 E5.21167
G1 X37.829 Y189.520 E5.22684
G1 X38.228 Y190.167 E5.24201
G1 X38.699 Y190.763 E5.25718
G1 X39.237 Y191.301 E5.27235
G1 X39.833 Y191.772 E5.28753
G1 X40.480 Y192.171 E5.30270
G1 X41.169 Y192.493 E5.31787
G1 X41.891 Y192.732 E5.33304
G1 X42.636 Y192.886 E5.34822
G1 X43.393 Y192.952 E5.36339
G1 X44.153 Y192.930 E5.37856
G1 X44.906 Y192.820 E5.39373
G1 X45.640 Y192.623 E5.40890
G1 X46.347 Y192.342 E5.42408
G1 X47.016 Y191.981 E5.43925
G1 X47.639 Y191.545 E5.45442
G1 X48.227 Y191.021 E5.47015
G1 X221.019 Y18.230 E10.34670
G1 X221.545 Y17.639 E10.36249
G1 X221.981 Y17.016 E10.37767
G1 X222.342 Y16.346 E10.39285
G1 X222.623 Y15.639 E10.40803
G1 X222.820 Y14.906 E10.42318
G1 X222.930 Y14.153 E10.43836
G1 X222.952 Y13.392 E10.45355
G1 X222.886 Y12.636 E10.46871
G1 X222.732 Y11.892 E10.48387
G1 X222.493 Y11.170 E10.49905
G1 X222.171 Y10.480 E10.51422
G1 X221.772 Y9.833 E10.52940
G1 X221.301 Y9.237 E10.54456
G1 X220.763 Y8.699 E10.55974
G1 X220.329 Y8.356 E10.57079
G0 X218.963 Y7.172 F7200
G0 X219.144 Y7.051
;segType:Perimeter
G1 X219.932 Y7.190 E10.59074 F2159
G1 X220.603 Y7.604 E10.61040
G1 X221.269 Y8.131 E10.63159
G1 X221.869 Y8.731 E10.65277
G1 X222.396 Y9.397 E10.67394
G1 X222.842 Y10.119 E10.69512
G1 X223.200 Y10.889 E10.71630
G1 X223.467 Y11.695 E10.73747
G1 X223.639 Y12.525 E10.75862
G1 X223.713 Y13.371 E10.77980
G1 X223.688 Y14.219 E10.80098
G1 X223.565 Y15.060 E10.82216
G1 X223.345 Y15.879 E10.84333
G1 X223.032 Y16.668 E10.86451
G1 X222.629 Y17.415 E10.88568
G1 X222.142 Y18.111 E10.90686
G1 X221.572 Y18.752 E10.92826
G1 X48.749 Y191.574 E17.02504
G1 X48.111 Y192.142 E17.04636
G1 X47.415 Y192.629 E17.06753
G1 X46.668 Y193.032 E17.08871
G1 X45.879 Y193.345 E17.10988
G1 X45.059 Y193.565 E17.13106
G1 X44.220 Y193.688 E17.15223
G1 X43.371 Y193.713 E17.17341
G1 X42.526 Y193.639 E17.19457
G1 X41.694 Y193.467 E17.21575
G1 X40.888 Y193.200 E17.23693
G1 X40.119 Y192.841 E17.25810
G1 X39.397 Y192.396 E17.27928
G1 X38.731 Y191.869 E17.30045
G1 X38.131 Y191.269 E17.32162
G1 X37.604 Y190.603 E17.34280
G1 X37.159 Y189.881 E17.36397
G1 X36.800 Y189.112 E17.38514
G1 X36.533 Y188.306 E17.40632
G1 X36.361 Y187.475 E17.42749
G1 X36.287 Y186.629 E17.44867
G1 X36.312 Y185.780 E17.46984
G1 X36.435 Y184.940 E17.49102
G1 X36.655 Y184.121 E17.51219
G1 X36.968 Y183.332 E17.53336
G1 X37.371 Y182.585 E17.55454
G1 X37.858 Y181.889 E17.57572
G1 X38.426 Y181.251 E17.59703
G1 X211.251 Y8.426 E23.69389
G1 X211.889 Y7.858 E23.71522
G1 X212.585 Y7.371 E23.73639
G1 X213.332 Y6.968 E23.75757
G1 X214.121 Y6.655 E23.77874
G1 X214.940 Y6.435 E23.79991
G1 X215.781 Y6.312 E23.82110
G1 X216.629 Y6.287 E23.84228
G1 X217.475 Y6.361 E23.86344
G1 X218.306 Y6.533 E23.88461
G1 X219.111 Y6.800 E23.90578
G1 X219.827 Y7.133 E23.92546
G0 X219.932 Y7.190 F7200
G0 X220.603 Y7.604
G0 X221.240 Y8.107
G0 F3000 E22.92546
G0 X221.002 Y8.430 F7200
G0 X220.949 Y8.388
G0 X218.380 Y10.871
G0 X218.340 Y10.837
G0 X217.834 Y10.545
G0 X217.284 Y10.345
G0 X216.708 Y10.243
G0 X216.125 Y10.243
G0 X215.549 Y10.345
G0 X215.000 Y10.545
G0 X214.494 Y10.837
G0 X214.046 Y11.213
G0 X213.670 Y11.660
G0 X213.378 Y12.167
G0 X213.178 Y12.716
G0 X213.077 Y13.291
G0 X213.077 Y13.876
G0 X213.178 Y14.451
G0 X213.378 Y15.000
G0 X213.639 Y15.452
G0 X213.372 Y15.710
G0 F3000 E23.92546
;segType:HShell
G1 X213.050 Y15.153 E23.93830 F3600
G1 X212.829 Y14.545 E23.95121
G1 X212.717 Y13.907 E23.96413
G1 X212.717 Y13.260 E23.97705
G1 X212.829 Y12.622 E23.98997
G1 X213.050 Y12.014 E24.00288
G1 X213.374 Y11.453 E24.01581
G1 X213.790 Y10.957 E24.02873
G1 X214.286 Y10.541 E24.04165
G1 X214.847 Y10.217 E24.05457
G1 X215.455 Y9.996 E24.06749
G1 X216.093 Y9.883 E24.08042
G1 X216.740 Y9.883 E24.09332
G1 X217.378 Y9.996 E24.10625
G1 X217.986 Y10.217 E24.11917
G1 X218.547 Y10.541 E24.13209
G1 X219.043 Y10.957 E24.14501
G1 X219.459 Y11.453 E24.15792
G1 X219.783 Y12.013 E24.17084
G1 X220.004 Y12.622 E24.18376
G1 X220.117 Y13.260 E24.19669
G1 X220.117 Y13.907 E24.20960
G1 X220.004 Y14.545 E24.22252
G1 X219.783 Y15.153 E24.23544
G1 X219.459 Y15.714 E24.24836
G1 X219.043 Y16.210 E24.26129
G1 X218.547 Y16.626 E24.27420
G1 X217.986 Y16.950 E24.28713
G1 X217.378 Y17.171 E24.30004
G1 X216.740 Y17.283 E24.31296
G1 X216.093 Y17.283 E24.32588
G1 X215.455 Y17.171 E24.33880
G1 X214.847 Y16.949 E24.35171
G1 X214.286 Y16.626 E24.36463
G1 X213.790 Y16.210 E24.37755
G1 X213.500 Y15.863 E24.38658
G0 X215.244 Y16.528 F7200
;segType:Perimeter
G1 X214.678 Y15.962 E24.40653 F2159
G1 X214.330 Y15.670 E24.41786
G1 X213.999 Y15.276 E24.43070
G1 X213.742 Y14.831 E24.44353
G1 X213.566 Y14.347 E24.45636
G1 X213.477 Y13.841 E24.46920
G1 X213.477 Y13.326 E24.48203
G1 X213.566 Y12.820 E24.49486
G1 X213.742 Y12.336 E24.50769
G1 X213.999 Y11.891 E24.52052
G1 X214.330 Y11.497 E24.53336
G1 X214.724 Y11.166 E24.54619
G1 X215.169 Y10.909 E24.55902
G1 X215.653 Y10.733 E24.57185
G1 X216.159 Y10.643 E24.58469
G1 X216.674 Y10.643 E24.59751
G1 X217.181 Y10.733 E24.61035
G1 X217.664 Y10.909 E24.62319
G1 X218.109 Y11.166 E24.63602
G1 X218.503 Y11.497 E24.64885
G1 X218.834 Y11.891 E24.66168
G1 X219.091 Y12.336 E24.67451
G1 X219.267 Y12.820 E24.68735
G1 X219.357 Y13.326 E24.70018
G1 X219.357 Y13.841 E24.71301
G1 X219.267 Y14.347 E24.72584
G1 X219.091 Y14.831 E24.73867
G1 X218.834 Y15.276 E24.75151
G1 X218.503 Y15.670 E24.76434
G1 X218.109 Y16.001 E24.77717
G1 X217.664 Y16.258 E24.79000
G1 X217.180 Y16.434 E24.80284
G1 X216.674 Y16.523 E24.81567
G1 X216.159 Y16.523 E24.82850
G1 X215.653 Y16.434 E24.84133
G1 X215.169 Y16.258 E24.85417
G1 X214.776 Y16.031 E24.86551
G0 X214.678 Y15.962 F7200
G0 X214.330 Y15.670
G0 X213.999 Y15.276
G0 X213.742 Y14.831
G0 X213.702 Y14.721
G0 F3000 E23.86551
G0 X213.378 Y15.000 F7200
G0 X213.396 Y15.031
G0 X46.246 Y184.394
G0 X46.500 Y184.136
G0 F3000 E24.86551
;segType:HShell
G1 X46.210 Y183.790 E24.87452 F3600
G1 X45.714 Y183.374 E24.88745
G1 X45.153 Y183.051 E24.90037
G1 X44.545 Y182.829 E24.91328
G1 X43.907 Y182.717 E24.92620
G1 X43.260 Y182.717 E24.93912
G1 X42.622 Y182.829 E24.95205
G1 X42.014 Y183.051 E24.96496
G1 X41.453 Y183.374 E24.97788
G1 X40.957 Y183.790 E24.99080
G1 X40.541 Y184.286 E25.00372
G1 X40.217 Y184.847 E25.01664
G1 X39.996 Y185.455 E25.02956
G1 X39.883 Y186.093 E25.04248
G1 X39.883 Y186.740 E25.05540
G1 X39.996 Y187.378 E25.06832
G1 X40.217 Y187.986 E25.08124
G1 X40.541 Y188.547 E25.09416
G1 X40.957 Y189.043 E25.10708
G1 X41.453 Y189.459 E25.12000
G1 X42.014 Y189.783 E25.13291
G1 X42.622 Y190.004 E25.14584
G1 X43.260 Y190.117 E25.15876
G1 X43.907 Y190.117 E25.17168
G1 X44.545 Y190.004 E25.18460
G1 X45.153 Y189.783 E25.19752
G1 X45.714 Y189.459 E25.21044
G1 X46.210 Y189.043 E25.22336
G1 X46.626 Y188.547 E25.23628
G1 X46.950 Y187.986 E25.24920
G1 X47.171 Y187.378 E25.26212
G1 X47.283 Y186.741 E25.27503
G1 X47.283 Y186.093 E25.28796
G1 X47.171 Y185.455 E25.30088
G1 X46.950 Y184.847 E25.31379
G1 X46.628 Y184.290 E25.32663
G0 X44.756 Y183.472 F7200
;segType:Perimeter
G1 X45.322 Y184.038 E25.34658 F2159
G1 X45.670 Y184.330 E25.35792
G1 X46.001 Y184.724 E25.37075
G1 X46.258 Y185.169 E25.38359
G1 X46.434 Y185.653 E25.39642
G1 X46.523 Y186.159 E25.40925
G1 X46.523 Y186.674 E25.42209
G1 X46.434 Y187.180 E25.43492
G1 X46.258 Y187.664 E25.44775
G1 X46.001 Y188.109 E25.46058
G1 X45.670 Y188.503 E25.47341
G1 X45.276 Y188.834 E25.48625
G1 X44.831 Y189.091 E25.49908
G1 X44.347 Y189.267 E25.51191
G1 X43.841 Y189.357 E25.52475
G1 X43.326 Y189.357 E25.53758
G1 X42.820 Y189.267 E25.55041
G1 X42.336 Y189.091 E25.56325
G1 X41.891 Y188.834 E25.57608
G1 X41.497 Y188.503 E25.58891
G1 X41.166 Y188.109 E25.60174
G1 X40.909 Y187.664 E25.61457
G1 X40.733 Y187.180 E25.62741
G1 X40.643 Y186.674 E25.64024
G1 X40.643 Y186.159 E25.65307
G1 X40.733 Y185.653 E25.66590
G1 X40.909 Y185.169 E25.67873
G1 X41.166 Y184.724 E25.69157
G1 X41.497 Y184.330 E25.70440
G1 X41.891 Y183.999 E25.71723
G1 X42.336 Y183.742 E25.73006
G1 X42.820 Y183.566 E25.74290
G1 X43.326 Y183.477 E25.75573
G1 X43.841 Y183.477 E25.76856
G1 X44.347 Y183.566 E25.78140
G1 X44.831 Y183.742 E25.79423
G1 X45.224 Y183.969 E25.80556
G0 X45.322 Y184.038 F7200
G0 X45.670 Y184.330
G0 X46.001 Y184.724
G0 X46.258 Y185.169
G0 X46.298 Y185.279
G0 X46.622 Y185.000
G0 X46.935 Y184.032
;segType:HShell
G1 X46.955 Y184.056 E25.80632 F3600
G1 X47.314 Y184.678 E25.82423
G1 X47.559 Y185.351 E25.84211
G1 X47.683 Y186.058 E25.86001
G1 X47.683 Y186.776 E25.87792
G1 X47.559 Y187.482 E25.89580
G1 X47.314 Y188.156 E25.91369
G1 X46.955 Y188.777 E25.93160
G1 X46.494 Y189.327 E25.94949
G1 X45.944 Y189.788 E25.96738
G1 X45.323 Y190.147 E25.98528
G1 X44.649 Y190.392 E26.00318
G1 X43.942 Y190.517 E26.02108
G1 X43.225 Y190.517 E26.03897
G1 X42.518 Y190.392 E26.05686
G1 X41.844 Y190.147 E26.07477
G1 X41.223 Y189.788 E26.09266
G1 X40.673 Y189.327 E26.11055
G1 X40.212 Y188.777 E26.12844
G1 X39.853 Y188.156 E26.14634
G1 X39.608 Y187.482 E26.16424
G1 X39.483 Y186.775 E26.18214
G1 X39.483 Y186.058 E26.20003
G1 X39.608 Y185.351 E26.21793
G1 X39.853 Y184.677 E26.23582
G1 X40.212 Y184.056 E26.25372
G1 X40.673 Y183.506 E26.27162
G1 X41.223 Y183.045 E26.28952
G1 X41.844 Y182.687 E26.30741
G1 X42.518 Y182.441 E26.32530
G1 X43.225 Y182.317 E26.34320
G1 X43.942 Y182.317 E26.36110
G1 X44.649 Y182.441 E26.37900
G1 X45.322 Y182.687 E26.39688
G1 X45.944 Y183.045 E26.41477
G1 X46.494 Y183.506 E26.43268
G1 X46.807 Y183.879 E26.44482
G0 X47.242 Y183.775 F7200
G1 X47.284 Y183.826 E26.44646 F3600
G1 X47.678 Y184.508 E26.46611
G1 X47.947 Y185.247 E26.48574
G1 X48.083 Y186.023 E26.50538
G1 X48.083 Y186.811 E26.52504
G1 X47.947 Y187.586 E26.54466
G1 X47.678 Y188.325 E26.56430
G1 X47.284 Y189.008 E26.58396
G1 X46.778 Y189.611 E26.60359
G1 X46.174 Y190.117 E26.62323
G1 X45.492 Y190.510 E26.64288
G1 X44.753 Y190.780 E26.66251
G1 X43.977 Y190.917 E26.68216
G1 X43.190 Y190.917 E26.70180
G1 X42.414 Y190.780 E26.72144
G1 X41.674 Y190.510 E26.74109
G1 X40.992 Y190.117 E26.76073
G1 X40.389 Y189.611 E26.78037
G1 X39.883 Y189.008 E26.80000
G1 X39.490 Y188.326 E26.81964
G1 X39.220 Y187.586 E26.83929
G1 X39.083 Y186.810 E26.85893
G1 X39.083 Y186.023 E26.87857
G1 X39.220 Y185.247 E26.89822
G1 X39.490 Y184.508 E26.91786
G1 X39.883 Y183.826 E26.93750
G1 X40.389 Y183.222 E26.95714
G1 X40.993 Y182.716 E26.97679
G1 X41.675 Y182.323 E26.99643
G1 X42.414 Y182.054 E27.01606
G1 X43.190 Y181.917 E27.03570
G1 X43.977 Y181.917 E27.05535
G1 X44.753 Y182.054 E27.07500
G1 X45.492 Y182.323 E27.09462
G1 X46.174 Y182.716 E27.11426
G1 X46.778 Y183.222 E27.13391
G1 X47.113 Y183.622 E27.14693
G0 X47.548 Y183.518 F7200
G1 X47.613 Y183.595 E27.14944 F3600
G1 X48.042 Y184.338 E27.17084
G1 X48.334 Y185.143 E27.19221
G1 X48.483 Y185.988 E27.21360
G1 X48.483 Y186.846 E27.23501
G1 X48.334 Y187.690 E27.25638
G1 X48.042 Y188.495 E27.27776
G1 X47.612 Y189.238 E27.29916
G1 X47.061 Y189.895 E27.32054
G1 X46.405 Y190.446 E27.34193
G1 X45.662 Y190.874 E27.36332
G1 X44.857 Y191.168 E27.38471
G1 X44.012 Y191.317 E27.40610
G1 X43.155 Y191.317 E27.42748
G1 X42.310 Y191.168 E27.44887
G1 X41.504 Y190.874 E27.47027
G1 X40.762 Y190.446 E27.49165
G1 X40.105 Y189.895 E27.51303
G1 X39.554 Y189.238 E27.53441
G1 X39.126 Y188.496 E27.55580
G1 X38.832 Y187.690 E27.57720
G1 X38.683 Y186.845 E27.59858
G1 X38.683 Y185.988 E27.61996
G1 X38.832 Y185.143 E27.64136
G1 X39.126 Y184.338 E27.66275
G1 X39.554 Y183.595 E27.68414
G1 X40.105 Y182.939 E27.70552
G1 X40.762 Y182.387 E27.72691
G1 X41.505 Y181.959 E27.74830
G1 X42.310 Y181.666 E27.76967
G1 X43.155 Y181.517 E27.79107
G1 X44.012 Y181.517 E27.81247
G1 X44.857 Y181.666 E27.83386
G1 X45.662 Y181.959 E27.85522
G1 X46.404 Y182.387 E27.87661
G1 X47.061 Y182.939 E27.89801
G1 X47.419 Y183.365 E27.91190
G0 X47.854 Y183.261 F7200
G1 X47.942 Y183.365 E27.91528 F3600
G1 X48.406 Y184.169 E27.93843
G1 X48.722 Y185.040 E27.96155
G1 X48.883 Y185.953 E27.98468
G1 X48.883 Y186.881 E28.00783
G1 X48.722 Y187.793 E28.03095
G1 X48.627 Y188.056 E28.03793
G1 X48.794 Y188.192 E28.04330
G1 X218.177 Y18.809 E34.01872
G1 X218.127 Y18.601 E34.02406
G1 X217.793 Y18.722 E34.03291
G1 X216.880 Y18.884 E34.05603
G1 X215.953 Y18.884 E34.07917
G1 X215.039 Y18.722 E34.10232
G1 X214.168 Y18.405 E34.12544
G1 X213.365 Y17.942 E34.14856
G1 X212.655 Y17.346 E34.17169
G1 X212.058 Y16.635 E34.19485
G1 X211.595 Y15.831 E34.21798
G1 X211.278 Y14.960 E34.24111
G1 X211.116 Y14.048 E34.26423
G1 X211.116 Y13.120 E34.28738
G1 X211.278 Y12.207 E34.31050
G1 X211.399 Y11.873 E34.31935
G1 X211.191 Y11.824 E34.32469
G1 X41.809 Y181.206 E40.30011
G1 X41.944 Y181.373 E40.30547
G1 X42.206 Y181.278 E40.31244
G1 X43.119 Y181.117 E40.33558
G1 X44.047 Y181.117 E40.35872
G1 X44.961 Y181.278 E40.38187
G1 X45.831 Y181.595 E40.40497
G1 X46.635 Y182.058 E40.42810
G1 X47.345 Y182.655 E40.45125
G1 X47.726 Y183.108 E40.46600
G0 X48.467 Y182.747 F7200
G1 X48.599 Y182.904 E40.47114 F3600
G1 X49.133 Y183.829 E40.49779
G1 X49.498 Y184.832 E40.52439
G1 X49.680 Y185.862 E40.55049
G1 X49.909 Y185.945 E40.55658
G1 X215.995 Y19.860 E46.41569
G1 X215.841 Y19.676 E46.42166
G1 X214.831 Y19.498 E46.44725
G1 X213.829 Y19.133 E46.47385
G1 X212.905 Y18.600 E46.50047
G1 X212.087 Y17.914 E46.52709
G1 X211.400 Y17.095 E46.55375
G1 X210.867 Y16.171 E46.58037
G1 X210.502 Y15.168 E46.60699
G1 X210.324 Y14.159 E46.63254
G1 X210.140 Y14.006 E46.63851
G1 X44.055 Y180.091 E52.49761
G1 X44.138 Y180.320 E52.50370
G1 X45.169 Y180.502 E52.52982
G1 X46.170 Y180.867 E52.55640
G1 X47.095 Y181.400 E52.58303
G1 X47.913 Y182.087 E52.60967
G1 X48.338 Y182.593 E52.62617
G0 X49.080 Y182.232 F7200
G1 X49.257 Y182.444 E52.63306 F3600
G1 X49.861 Y183.490 E52.66320
G1 X50.159 Y184.308 E52.68490
G1 X50.313 Y184.410 E52.68952
G1 X214.395 Y20.328 E58.47793
G1 X214.287 Y20.151 E58.48311
G1 X213.490 Y19.861 E58.50427
G1 X212.444 Y19.258 E58.53437
G1 X211.519 Y18.482 E58.56449
G1 X210.742 Y17.556 E58.59465
G1 X210.139 Y16.510 E58.62477
G1 X209.849 Y15.713 E58.64591
G1 X209.672 Y15.606 E58.65109
G1 X45.591 Y179.687 E64.43949
G1 X45.692 Y179.841 E64.44411
G1 X46.510 Y180.139 E64.46581
G1 X47.556 Y180.742 E64.49593
G1 X48.481 Y181.519 E64.52606
G1 X48.951 Y182.079 E64.54431
G0 X50.372 Y183.844 F7200
;segType:InnerHair
G1 X50.376 Y183.825 E64.54471 F3600
G0 X50.209 Y184.576 F7200
G1 X50.211 Y184.566 E64.54491 F3600
G1 X50.235 Y184.460 E64.54788
G0 X49.956 Y185.401 F7200
G1 X49.969 Y185.358 E64.54884 F3600
G1 X50.000 Y185.260 E64.55167
G1 X50.031 Y185.162 E64.55511
G0 X49.589 Y186.400 F7200
G1 X49.626 Y186.309 E64.55687 F3600
G1 X49.664 Y186.217 E64.55911
G1 X49.702 Y186.126 E64.56181
G1 X49.752 Y186.047 E64.56460
G1 X49.783 Y185.948 E64.56829
G0 X49.353 Y186.959 F7200
G1 X49.305 Y187.051 E64.57144 F3600
G1 X49.257 Y187.142 E64.57421
G1 X49.210 Y187.233 E64.57657
G1 X49.162 Y187.325 E64.57854
G1 X49.114 Y187.416 E64.58011
G0 X49.093 Y187.456 F7200
G0 X49.137 Y187.371
G0 X49.182 Y187.286
G0 X49.226 Y187.201
G0 X49.271 Y187.117
G0 X49.323 Y187.040
G0 X49.361 Y186.949
G1 X49.353 Y186.959 E64.58057 F3600
G0 X48.698 Y188.148 F7200
G1 X48.640 Y188.239 E64.58429 F3600
G1 X48.582 Y188.331 E64.58769
G1 X48.524 Y188.422 E64.59078
G1 X48.466 Y188.513 E64.59355
G0 X48.309 Y188.741 F7200
G0 X48.084 Y189.034
G1 X48.141 Y188.960 E64.59491 F3600
G1 X48.197 Y188.887 E64.59642
G1 X48.253 Y188.814 E64.59806
G1 X48.309 Y188.741 E64.59983
G0 X48.366 Y188.669 F7200
G0 X48.417 Y188.590
G0 X48.467 Y188.511
G0 X48.517 Y188.432
G0 X48.568 Y188.353
G0 X48.618 Y188.274
G0 X48.668 Y188.195
G1 X48.698 Y188.148 E64.60192 F3600
G0 X46.235 Y179.611 F7200
G1 X46.175 Y179.624 E64.60322 F3600
G1 X46.069 Y179.648 E64.60472
G1 X46.058 Y179.650 E64.60486
G1 X46.149 Y179.630 E64.60667
G1 X46.235 Y179.611 E64.60887
G0 X45.327 Y179.812 F7200
G1 X45.418 Y179.792 E64.61064 F3600
G1 X45.509 Y179.772 E64.61302
G1 X45.601 Y179.752 E64.61598
G1 X45.540 Y179.765 E64.61769
G1 X45.434 Y179.789 E64.61988
G1 X45.328 Y179.812 E64.62126
G1 X45.327 Y179.812 E64.62128
G0 X44.504 Y180.074 F7200
G1 X44.595 Y180.046 E64.62307 F3600
G1 X44.687 Y180.017 E64.62539
G1 X44.778 Y179.988 E64.62824
G1 X44.869 Y179.959 E64.63162
G1 X44.838 Y179.969 E64.63272
G1 X44.740 Y180.000 E64.63555
G1 X44.642 Y180.031 E64.63777
G1 X44.543 Y180.062 E64.63937
G1 X44.504 Y180.074 E64.63992
G0 X43.967 Y180.244 F7200
G1 X43.954 Y180.248 E64.64034 F3600
G1 X43.874 Y180.298 E64.64289
G1 X43.783 Y180.336 E64.64512
G1 X43.691 Y180.374 E64.64688
G1 X43.600 Y180.412 E64.64818
G1 X43.589 Y180.416 E64.64833
G1 X43.681 Y180.378 E64.65003
G1 X43.772 Y180.340 E64.65221
G1 X43.864 Y180.302 E64.65486
G1 X43.954 Y180.265 E64.65793
G0 X43.051 Y180.639 F7200
G1 X42.960 Y180.677 E64.66089 F3600
G1 X42.883 Y180.729 E64.66348
G1 X42.799 Y180.774 E64.66580
G1 X42.714 Y180.818 E64.66779
G1 X42.629 Y180.863 E64.66943
G1 X42.544 Y180.907 E64.67073
G0 X42.584 Y180.886 F7200
G0 X42.675 Y180.838
G0 X42.767 Y180.791
G0 X42.858 Y180.743
G0 X42.949 Y180.695
G0 X43.041 Y180.647
G1 X43.051 Y180.639 E64.67119 F3600
G0 X41.259 Y181.691 F7200
G1 X41.186 Y181.747 E64.67283 F3600
G1 X41.113 Y181.803 E64.67433
G1 X41.040 Y181.860 E64.67570
G1 X40.967 Y181.916 E64.67692
G0 X41.259 Y181.691 F7200
G1 X41.487 Y181.535 E64.68397 F3600
G1 X41.578 Y181.476 E64.68706
G1 X41.669 Y181.418 E64.69046
G1 X41.761 Y181.360 E64.69419
G1 X41.768 Y181.355 E64.69448
G0 F3000 E63.69448
G0 X209.093 Y20.712 F7200
G0 F3000 E64.69448
;segType:HShell
G1 X209.090 Y20.713 E64.69456 F3600
G1 X50.698 Y179.105 E70.28227
G1 X50.752 Y179.248 E70.28607
G1 X50.895 Y179.302 E70.28989
G1 X209.352 Y20.846 E75.87987
G1 X209.254 Y20.758 E75.88315
G0 X209.137 Y20.108 F7200
G1 X209.130 Y20.107 E75.88332 F3600
G1 X50.092 Y179.145 E81.49383
G1 X50.117 Y179.237 E81.49619
G1 X50.468 Y179.532 E81.50763
G1 X50.763 Y179.883 E81.51908
G1 X50.855 Y179.908 E81.52145
G1 X209.893 Y20.870 E87.13196
G1 X209.883 Y20.764 E87.13462
G1 X209.532 Y20.469 E87.14604
G1 X209.301 Y20.194 E87.15502
G0 X209.144 Y19.539 F7200
G1 X209.106 Y19.565 E87.15617 F3600
G1 X49.486 Y179.186 E92.78720
G1 X49.552 Y179.284 E92.79017
G1 X50.185 Y179.815 E92.81077
G1 X50.775 Y180.518 E92.83366
G1 X50.879 Y180.450 E92.83678
G1 X210.499 Y20.830 E98.46782
G1 X210.518 Y20.775 E98.46926
G1 X209.816 Y20.185 E98.49213
G1 X209.290 Y19.558 E98.51255
G0 X209.388 Y19.053 F7200
G1 X209.273 Y18.917 E98.51701 F3600
G1 X209.146 Y18.959 E98.52035
G1 X48.880 Y179.226 E104.17419
G1 X48.987 Y179.332 E104.17796
G1 X49.901 Y180.099 E104.20772
G1 X50.727 Y181.084 E104.23977
G1 X50.839 Y181.056 E104.24265
G1 X211.105 Y20.789 E109.89649
G1 X211.083 Y20.727 E109.89814
G1 X210.100 Y19.901 E109.93017
G1 X209.517 Y19.207 E109.95279
G0 X209.223 Y18.318 F7200
G1 X209.187 Y18.353 E109.95405 F3600
G1 X48.246 Y179.294 E115.63165
G1 X48.477 Y179.426 E115.63828
G1 X49.617 Y180.383 E115.67541
G1 X50.573 Y181.522 E115.71251
G1 X50.706 Y181.754 E115.71918
G1 X211.753 Y20.707 E121.40053
G1 X211.522 Y20.573 E121.40720
G1 X210.384 Y19.617 E121.44426
G1 X209.426 Y18.477 E121.48141
G1 X209.345 Y18.335 E121.48549
G0 X209.494 Y17.793 F7200
G1 X209.351 Y17.546 E121.49261 F3600
G1 X209.292 Y17.682 E121.49632
G1 X47.603 Y179.372 E127.20034
G1 X47.464 Y179.304 E127.20420
G1 X48.246 Y179.755 E127.22675
G1 X49.333 Y180.667 E127.26212
G1 X50.244 Y181.753 E127.29748
G1 X50.696 Y182.536 E127.32005
G1 X50.629 Y182.397 E127.32390
G1 X212.403 Y20.623 E133.03093
G1 X211.753 Y20.244 E133.04970
G1 X210.668 Y19.334 E133.08502
G1 X209.755 Y18.246 E133.12042
G1 X209.594 Y17.966 E133.12849
G0 X210.307 Y18.282 F7200
G1 X210.084 Y18.016 E133.13715 F3600
G1 X209.455 Y16.925 E133.16858
G1 X209.397 Y17.012 E133.17117
G1 X46.997 Y179.412 E138.90028
G1 X47.007 Y179.502 E138.90256
G1 X48.016 Y180.084 E138.93163
G1 X49.049 Y180.951 E138.96526
G1 X49.915 Y181.983 E138.99886
G1 X50.498 Y182.993 E139.02795
G1 X50.588 Y183.003 E139.03021
G1 X213.053 Y20.539 E144.76160
G1 X212.911 Y20.451 E144.76576
G1 X211.984 Y19.916 E144.79248
G1 X210.952 Y19.050 E144.82608
G1 X210.436 Y18.435 E144.84608
G0 X210.614 Y18.025 F7200
G1 X210.413 Y17.786 E144.85387 F3600
G1 X209.775 Y16.679 E144.88574
G1 X209.689 Y16.445 E144.89197
G1 X209.567 Y16.276 E144.89717
G1 X46.261 Y179.582 E150.65820
G1 X46.424 Y179.682 E150.66296
G1 X46.679 Y179.775 E150.66975
G1 X47.786 Y180.413 E150.70161
G1 X48.765 Y181.235 E150.73351
G1 X49.586 Y182.213 E150.76537
G1 X50.225 Y183.321 E150.79726
G1 X50.318 Y183.576 E150.80405
G1 X50.418 Y183.739 E150.80881
G1 X213.724 Y20.434 E156.56984
G1 X213.555 Y20.310 E156.57506
G1 X213.320 Y20.224 E156.58130
G1 X212.214 Y19.587 E156.61314
G1 X211.236 Y18.766 E156.64500
G1 X210.742 Y18.178 E156.66414
G0 X211.227 Y17.510 F7200
G1 X211.071 Y17.325 E156.67017 F3600
G1 X210.503 Y16.340 E156.69855
G1 X210.114 Y15.272 E156.72690
G1 X210.063 Y14.982 E156.73424
G1 X209.841 Y14.870 E156.74043
G1 X44.855 Y179.856 E162.56076
G1 X44.961 Y180.059 E162.56647
G1 X45.273 Y180.115 E162.57437
G1 X46.340 Y180.503 E162.60269
G1 X47.325 Y181.071 E162.63106
G1 X48.197 Y181.803 E162.65944
G1 X48.928 Y182.674 E162.68781
G1 X49.497 Y183.660 E162.71620
G1 X49.886 Y184.728 E162.74455
G1 X49.941 Y185.039 E162.75244
G1 X50.144 Y185.145 E162.75815
G1 X215.130 Y20.159 E168.57848
G1 X215.018 Y19.937 E168.58468
G1 X214.727 Y19.885 E168.59204
G1 X213.659 Y19.497 E168.62038
G1 X212.674 Y18.929 E168.64874
G1 X211.803 Y18.198 E168.67710
G1 X211.355 Y17.664 E168.69450
G0 X211.839 Y16.996 F7200
G1 X211.729 Y16.865 E168.69878 F3600
G1 X211.231 Y16.001 E168.72364
G1 X210.890 Y15.064 E168.74852
G1 X210.716 Y14.083 E168.77338
G1 X210.716 Y13.153 E168.79656
G1 X210.504 Y13.076 E168.80218
G1 X43.061 Y180.519 E174.70918
G1 X43.132 Y180.717 E174.71442
G1 X44.083 Y180.717 E174.73812
G1 X45.065 Y180.890 E174.76300
G1 X46.001 Y181.231 E174.78784
G1 X46.865 Y181.729 E174.81272
G1 X47.629 Y182.371 E174.83762
G1 X48.270 Y183.135 E174.86248
G1 X48.769 Y183.999 E174.88740
G1 X49.110 Y184.936 E174.91224
G1 X49.283 Y185.917 E174.93712
G1 X49.283 Y186.868 E174.96082
G1 X49.481 Y186.939 E174.96604
G1 X216.924 Y19.496 E180.87304
G1 X216.847 Y19.284 E180.87870
G1 X215.918 Y19.284 E180.90186
G1 X214.935 Y19.110 E180.92676
G1 X213.999 Y18.769 E180.95162
G1 X213.135 Y18.271 E180.97648
G1 X212.371 Y17.630 E181.00136
G1 X211.968 Y17.149 E181.01700
G0 X212.452 Y16.482 F7200
G1 X212.387 Y16.404 E181.01952 F3600
G1 X211.959 Y15.662 E181.04090
G1 X211.666 Y14.856 E181.06228
G1 X211.516 Y14.013 E181.08364
G1 X211.516 Y13.155 E181.10506
G1 X211.666 Y12.311 E181.12644
G1 X211.958 Y11.505 E181.14782
G1 X212.388 Y10.762 E181.16922
G1 X212.938 Y10.106 E181.19060
G1 X213.595 Y9.554 E181.21200
G1 X214.338 Y9.126 E181.23338
G1 X215.143 Y8.832 E181.25476
G1 X215.989 Y8.683 E181.27616
G1 X216.845 Y8.683 E181.29754
G1 X217.689 Y8.832 E181.31892
G1 X218.496 Y9.126 E181.34034
G1 X219.238 Y9.554 E181.36170
G1 X219.895 Y10.106 E181.38312
G1 X220.445 Y10.761 E181.40446
G1 X220.874 Y11.505 E181.42588
G1 X221.168 Y12.310 E181.44726
G1 X221.317 Y13.155 E181.46866
G1 X221.317 Y14.011 E181.49002
G1 X221.168 Y14.857 E181.51142
G1 X220.874 Y15.662 E181.53280
G1 X220.446 Y16.405 E181.55420
G1 X219.894 Y17.062 E181.57560
G1 X219.238 Y17.612 E181.59696
G1 X218.495 Y18.042 E181.61838
G1 X217.689 Y18.334 E181.63976
G1 X216.845 Y18.484 E181.66114
G1 X215.988 Y18.484 E181.68252
G1 X215.143 Y18.334 E181.70392
G1 X214.338 Y18.041 E181.72530
G1 X213.595 Y17.613 E181.74668
G1 X212.939 Y17.062 E181.76806
G1 X212.581 Y16.635 E181.78196
G0 X212.758 Y16.225 F7200
G1 X212.716 Y16.174 E181.78360 F3600
G1 X212.322 Y15.492 E181.80324
G1 X212.053 Y14.752 E181.82288
G1 X211.917 Y13.978 E181.84250
G1 X211.917 Y13.190 E181.86216
G1 X212.053 Y12.414 E181.88180
G1 X212.322 Y11.675 E181.90142
G1 X212.716 Y10.992 E181.92108
G1 X213.222 Y10.390 E181.94072
G1 X213.826 Y9.883 E181.96038
G1 X214.508 Y9.489 E181.98002
G1 X215.247 Y9.220 E181.99966
G1 X216.023 Y9.083 E182.01932
G1 X216.810 Y9.083 E182.03892
G1 X217.586 Y9.220 E182.05858
G1 X218.326 Y9.490 E182.07824
G1 X219.008 Y9.883 E182.09786
G1 X219.611 Y10.390 E182.11752
G1 X220.116 Y10.992 E182.13714
G1 X220.510 Y11.674 E182.15678
G1 X220.780 Y12.414 E182.17642
G1 X220.917 Y13.190 E182.19608
G1 X220.917 Y13.977 E182.21570
G1 X220.780 Y14.753 E182.23536
G1 X220.511 Y15.492 E182.25498
G1 X220.117 Y16.174 E182.27462
G1 X219.610 Y16.778 E182.29428
G1 X219.008 Y17.284 E182.31392
G1 X218.325 Y17.678 E182.33358
G1 X217.586 Y17.947 E182.35322
G1 X216.810 Y18.084 E182.37284
G1 X216.023 Y18.084 E182.39248
G1 X215.247 Y17.946 E182.41214
G1 X214.508 Y17.677 E182.43178
G1 X213.826 Y17.284 E182.45142
G1 X213.223 Y16.778 E182.47106
G1 X212.887 Y16.378 E182.48408
G0 X213.065 Y15.967 F7200
G1 X213.045 Y15.944 E182.48484 F3600
G1 X212.686 Y15.322 E182.50274
G1 X212.441 Y14.648 E182.52064
G1 X212.317 Y13.942 E182.53852
G1 X212.317 Y13.225 E182.55642
G1 X212.441 Y12.518 E182.57432
G1 X212.686 Y11.844 E182.59220
G1 X213.045 Y11.223 E182.61010
G1 X213.506 Y10.673 E182.62800
G1 X214.056 Y10.212 E182.64588
G1 X214.677 Y9.853 E182.66378
G1 X215.351 Y9.608 E182.68168
G1 X216.058 Y9.483 E182.69958
G1 X216.775 Y9.483 E182.71746
G1 X217.482 Y9.608 E182.73536
G1 X218.156 Y9.854 E182.75326
G1 X218.777 Y10.212 E182.77114
G1 X219.327 Y10.674 E182.78904
G1 X219.788 Y11.222 E182.80692
G1 X220.146 Y11.844 E182.82482
G1 X220.392 Y12.518 E182.84272
G1 X220.517 Y13.225 E182.86062
G1 X220.517 Y13.942 E182.87850
G1 X220.392 Y14.649 E182.89640
G1 X220.147 Y15.323 E182.91430
G1 X219.788 Y15.944 E182.93218
G1 X219.327 Y16.494 E182.95008
G1 X218.777 Y16.955 E182.96798
G1 X218.156 Y17.314 E182.98588
G1 X217.482 Y17.559 E183.00376
G1 X216.775 Y17.684 E183.02166
G1 X216.058 Y17.684 E183.03956
G1 X215.351 Y17.559 E183.05744
G1 X214.677 Y17.313 E183.07534
G1 X214.056 Y16.955 E183.09324
G1 X213.507 Y16.494 E183.11112
G1 X213.193 Y16.121 E183.12328
G0 F3000 E182.12328
G0 X209.786 Y15.445 F7200
G0 F3000 E183.12328
;segType:InnerHair
G1 X209.783 Y15.459 E183.12356 F3600
G1 X209.760 Y15.564 E183.12672
G1 X209.747 Y15.622 E183.12868
G1 X209.767 Y15.531 E183.13118
G1 X209.786 Y15.445 E183.13302
G0 X209.624 Y16.177 F7200
G1 X209.619 Y16.199 E183.13354 F3600
G1 X209.585 Y16.353 E183.13880
G1 X209.605 Y16.262 E183.14134
G1 X209.624 Y16.177 E183.14318
G0 X210.038 Y14.620 F7200
G1 X210.024 Y14.665 E183.14426 F3600
G1 X209.993 Y14.763 E183.14724
G1 X209.962 Y14.861 E183.15082
G1 X209.953 Y14.891 E183.15194
G1 X209.981 Y14.799 E183.15490
G1 X210.010 Y14.708 E183.15734
G1 X210.038 Y14.620 E183.15920
G0 X210.407 Y13.611 F7200
G1 X210.403 Y13.621 E183.15934 F3600
G1 X210.365 Y13.713 E183.16076
G1 X210.327 Y13.804 E183.16262
G1 X210.272 Y13.878 E183.16482
G1 X210.241 Y13.976 E183.16742
G1 X210.218 Y14.068 E183.17034
G1 X210.256 Y13.976 E183.17404
G1 X210.294 Y13.885 E183.17726
G1 X210.332 Y13.793 E183.18000
G0 X210.896 Y12.563 F7200
G0 X210.852 Y12.648 F7200
G0 X210.807 Y12.733
G0 X210.763 Y12.818
G0 X210.719 Y12.903
G0 X210.668 Y12.981
G0 X210.630 Y13.073
G1 X210.636 Y13.062 E183.18046 F3600
G1 X210.684 Y12.971 E183.18368
G1 X210.731 Y12.879 E183.18652
G1 X210.779 Y12.788 E183.18896
G1 X210.827 Y12.696 E183.19100
G1 X210.874 Y12.605 E183.19266
G0 X211.903 Y10.984 F7200
G1 X211.846 Y11.057 E183.19404 F3600
G1 X211.790 Y11.130 E183.19558
G1 X211.734 Y11.203 E183.19724
G1 X211.678 Y11.276 E183.19906
G0 X211.622 Y11.349 F7200
G0 X211.572 Y11.428
G0 X211.521 Y11.507
G0 X211.471 Y11.586
G0 X211.421 Y11.665
G0 X211.370 Y11.744
G0 X211.320 Y11.823
G1 X211.347 Y11.782 E183.20078 F3600
G1 X211.405 Y11.691 E183.20426
G1 X211.463 Y11.599 E183.20742
G1 X211.521 Y11.508 E183.21026
G0 F3000 E182.21026
G0 X219.391 Y9.160 F7200
G0 F3000 E183.21026
;segType:HShell
G1 X218.949 Y8.887 E183.22320 F3600
G1 X218.386 Y8.624 E183.23870
G1 X217.797 Y8.429 E183.25416
G1 X217.190 Y8.304 E183.26964
G1 X216.573 Y8.250 E183.28508
G1 X215.951 Y8.268 E183.30060
G1 X215.337 Y8.358 E183.31608
G1 X214.739 Y8.518 E183.33152
G1 X214.161 Y8.747 E183.34702
G1 X213.615 Y9.042 E183.36248
G1 X213.107 Y9.398 E183.37796
G1 X212.596 Y9.853 E183.39504
G1 X39.852 Y182.597 E189.48904
G1 X39.398 Y183.107 E189.50608
G1 X39.042 Y183.615 E189.52156
G1 X38.747 Y184.162 E189.53704
G1 X38.518 Y184.738 E189.55252
G1 X38.358 Y185.337 E189.56800
G1 X38.268 Y185.951 E189.58348
G1 X38.250 Y186.572 E189.59896
G1 X38.304 Y187.190 E189.61444
G1 X38.429 Y187.798 E189.62992
G1 X38.625 Y188.387 E189.64540
G1 X38.887 Y188.949 E189.66088
G1 X39.212 Y189.477 E189.67634
G1 X39.597 Y189.964 E189.69184
G1 X40.036 Y190.403 E189.70730
G1 X40.523 Y190.788 E189.72280
G1 X41.051 Y191.113 E189.73826
G1 X41.613 Y191.375 E189.75374
G1 X42.202 Y191.571 E189.76922
G1 X42.810 Y191.696 E189.78470
G1 X43.428 Y191.750 E189.80018
G1 X44.049 Y191.732 E189.81564
G1 X44.662 Y191.642 E189.83112
G1 X45.262 Y191.482 E189.84658
G1 X45.839 Y191.253 E189.86208
G1 X46.385 Y190.958 E189.87756
G1 X46.893 Y190.602 E189.89304
G1 X47.403 Y190.148 E189.91008
G1 X220.145 Y17.406 E196.00402
G1 X220.602 Y16.893 E196.02116
G1 X220.958 Y16.385 E196.03666
G1 X221.253 Y15.838 E196.05214
G1 X221.482 Y15.261 E196.06762
G1 X221.642 Y14.663 E196.08308
G1 X221.732 Y14.049 E196.09856
G1 X221.750 Y13.427 E196.11408
G1 X221.696 Y12.810 E196.12952
G1 X221.571 Y12.203 E196.14498
G1 X221.376 Y11.614 E196.16046
G1 X221.113 Y11.051 E196.17594
G1 X220.787 Y10.523 E196.19142
G1 X220.403 Y10.037 E196.20688
G1 X219.963 Y9.597 E196.22240
G1 X219.555 Y9.274 E196.23538
G0 X219.621 Y8.831 F7200
G1 X219.139 Y8.534 E196.24952 F3600
G1 X218.534 Y8.252 E196.26616
G1 X217.901 Y8.042 E196.28280
G1 X217.248 Y7.907 E196.29942
G1 X216.584 Y7.849 E196.31604
G1 X215.916 Y7.869 E196.33272
G1 X215.256 Y7.965 E196.34934
G1 X214.612 Y8.138 E196.36598
G1 X213.992 Y8.384 E196.38262
G1 X213.405 Y8.701 E196.39926
G1 X212.859 Y9.084 E196.41590
G1 X212.322 Y9.561 E196.43384
G1 X39.561 Y182.322 E202.52844
G1 X39.084 Y182.858 E202.54636
G1 X38.701 Y183.405 E202.56300
G1 X38.384 Y183.992 E202.57966
G1 X38.138 Y184.612 E202.59630
G1 X37.965 Y185.256 E202.61294
G1 X37.869 Y185.917 E202.62958
G1 X37.849 Y186.584 E202.64622
G1 X37.907 Y187.248 E202.66288
G1 X38.042 Y187.901 E202.67950
G1 X38.252 Y188.535 E202.69616
G1 X38.534 Y189.139 E202.71278
G1 X38.884 Y189.707 E202.72942
G1 X39.298 Y190.230 E202.74606
G1 X39.770 Y190.702 E202.76272
G1 X40.293 Y191.116 E202.77936
G1 X40.861 Y191.466 E202.79598
G1 X41.465 Y191.748 E202.81262
G1 X42.099 Y191.958 E202.82926
G1 X42.752 Y192.093 E202.84592
G1 X43.417 Y192.151 E202.86256
G1 X44.084 Y192.131 E202.87922
G1 X44.743 Y192.035 E202.89584
G1 X45.388 Y191.862 E202.91248
G1 X46.008 Y191.616 E202.92912
G1 X46.595 Y191.299 E202.94578
G1 X47.142 Y190.917 E202.96240
G1 X47.678 Y190.439 E202.98032
G1 X220.437 Y17.681 E209.07484
G1 X220.916 Y17.142 E209.09284
G1 X221.299 Y16.595 E209.10950
G1 X221.616 Y16.008 E209.12614
G1 X221.862 Y15.388 E209.14280
G1 X222.035 Y14.744 E209.15942
G1 X222.131 Y14.084 E209.17606
G1 X222.151 Y13.416 E209.19274
G1 X222.093 Y12.752 E209.20936
G1 X221.958 Y12.099 E209.22598
G1 X221.748 Y11.466 E209.24264
G1 X221.466 Y10.861 E209.25928
G1 X221.116 Y10.293 E209.27590
G1 X220.702 Y9.770 E209.29252
G1 X220.230 Y9.298 E209.30920
G1 X219.785 Y8.946 E209.32334
G0 X219.923 Y8.547 F7200
G1 X219.330 Y8.181 E209.34074 F3600
G1 X218.682 Y7.880 E209.35856
G1 X218.005 Y7.655 E209.37636
G1 X217.306 Y7.511 E209.39416
G1 X216.596 Y7.449 E209.41194
G1 X215.882 Y7.469 E209.42976
G1 X215.175 Y7.573 E209.44758
G1 X214.486 Y7.758 E209.46536
G1 X213.823 Y8.021 E209.48316
G1 X213.195 Y8.360 E209.50096
G1 X212.610 Y8.769 E209.51876
G1 X212.047 Y9.270 E209.53756
G1 X39.270 Y182.047 E215.63276
G1 X38.769 Y182.610 E215.65154
G1 X38.360 Y183.195 E215.66934
G1 X38.021 Y183.823 E215.68714
G1 X37.758 Y184.486 E215.70496
G1 X37.573 Y185.175 E215.72274
G1 X37.470 Y185.882 E215.74056
G1 X37.449 Y186.595 E215.75836
G1 X37.511 Y187.306 E215.77616
G1 X37.655 Y188.005 E215.79396
G1 X37.880 Y188.683 E215.81176
G1 X38.181 Y189.329 E215.82958
G1 X38.556 Y189.937 E215.84738
G1 X38.999 Y190.497 E215.86518
G1 X39.503 Y191.001 E215.88300
G1 X40.063 Y191.444 E215.90080
G1 X40.671 Y191.819 E215.91860
G1 X41.317 Y192.120 E215.93642
G1 X41.995 Y192.345 E215.95422
G1 X42.694 Y192.489 E215.97204
G1 X43.405 Y192.551 E215.98984
G1 X44.118 Y192.531 E216.00764
G1 X44.824 Y192.427 E216.02546
G1 X45.514 Y192.242 E216.04326
G1 X46.177 Y191.979 E216.06106
G1 X46.806 Y191.640 E216.07888
G1 X47.390 Y191.231 E216.09666
G1 X47.953 Y190.730 E216.11544
G1 X220.728 Y17.955 E222.21056
G1 X221.231 Y17.390 E222.22944
G1 X221.640 Y16.805 E222.24724
G1 X221.979 Y16.177 E222.26504
G1 X222.243 Y15.514 E222.28286
G1 X222.427 Y14.825 E222.30064
G1 X222.531 Y14.118 E222.31846
G1 X222.551 Y13.404 E222.33628
G1 X222.489 Y12.694 E222.35406
G1 X222.345 Y11.995 E222.37186
G1 X222.120 Y11.318 E222.38966
G1 X221.819 Y10.670 E222.40748
G1 X221.444 Y10.063 E222.42530
G1 X221.002 Y9.504 E222.44306
G1 X220.496 Y8.999 E222.46090
G1 X220.081 Y8.670 E222.47410
G0 X220.552 Y8.074 F7200
;segType:Loop
G1 X221.002 Y8.430 E222.48842 F3600
G1 X221.570 Y8.998 E222.50846
G1 X222.068 Y9.627 E222.52846
G1 X222.489 Y10.310 E222.54848
G1 X222.828 Y11.037 E222.56848
G1 X223.080 Y11.798 E222.58850
G1 X223.242 Y12.583 E222.60848
G1 X223.312 Y13.382 E222.62850
G1 X223.289 Y14.185 E222.64852
G1 X223.173 Y14.979 E222.66854
G1 X222.965 Y15.753 E222.68852
G1 X222.669 Y16.499 E222.70854
G1 X222.288 Y17.205 E222.72854
G1 X221.828 Y17.862 E222.74856
G1 X221.281 Y18.477 E222.76908
G1 X48.474 Y191.283 E228.86530
G1 X47.862 Y191.828 E228.88574
G1 X47.205 Y192.288 E228.90574
G1 X46.499 Y192.669 E228.92576
G1 X45.753 Y192.965 E228.94578
G1 X44.978 Y193.173 E228.96578
G1 X44.185 Y193.289 E228.98580
G1 X43.383 Y193.312 E229.00582
G1 X42.584 Y193.242 E229.02582
G1 X41.798 Y193.080 E229.04584
G1 X41.036 Y192.828 E229.06586
G1 X40.309 Y192.489 E229.08586
G1 X39.627 Y192.068 E229.10586
G1 X38.997 Y191.570 E229.12588
G1 X38.430 Y191.003 E229.14588
G1 X37.932 Y190.373 E229.16590
G1 X37.511 Y189.691 E229.18592
G1 X37.172 Y188.964 E229.20592
G1 X36.920 Y188.202 E229.22594
G1 X36.758 Y187.417 E229.24594
G1 X36.688 Y186.617 E229.26596
G1 X36.711 Y185.815 E229.28598
G1 X36.827 Y185.021 E229.30600
G1 X37.035 Y184.247 E229.32600
G1 X37.331 Y183.501 E229.34602
G1 X37.712 Y182.795 E229.36604
G1 X38.172 Y182.138 E229.38606
G1 X38.717 Y181.526 E229.40650
G1 X211.525 Y8.717 E235.50280
G1 X212.138 Y8.172 E235.52326
G1 X212.795 Y7.712 E235.54328
G1 X213.501 Y7.331 E235.56328
G1 X214.247 Y7.035 E235.58330
G1 X215.021 Y6.827 E235.60328
G1 X215.815 Y6.711 E235.62330
G1 X216.618 Y6.688 E235.64332
G1 X217.416 Y6.758 E235.66332
G1 X218.202 Y6.920 E235.68332
G1 X218.963 Y7.172 E235.70332
G1 X219.691 Y7.511 E235.72336
G1 X220.373 Y7.932 E235.74334
G1 X220.395 Y7.950 E235.74404
G0 F3000 E234.74404
G0 X219.707 Y13.012 F7200
G0 X219.757 Y13.291
G0 X219.757 Y13.875
G0 X219.655 Y14.451
G0 X219.455 Y15.000
G0 X219.432 Y15.041
G0 X219.016 Y18.098
G0 F3000 E235.74404
;segType:InnerHair
G0 X218.724 Y18.322 F7200
G1 X218.492 Y18.479 E235.75138 F3600
G1 X218.401 Y18.537 E235.75454
G1 X218.310 Y18.595 E235.75802
G1 X218.218 Y18.653 E235.76182
G0 X218.177 Y18.680 F7200
G0 X218.256 Y18.630
G0 X218.335 Y18.579
G0 X218.414 Y18.529
G0 X218.493 Y18.479
G0 X218.572 Y18.429
G0 X218.651 Y18.378
G1 X218.724 Y18.322 E235.76362 F3600
G1 X218.797 Y18.266 E235.76530
G1 X218.870 Y18.210 E235.76684
G1 X218.943 Y18.154 E235.76822
G1 X219.016 Y18.098 E235.76948
G0 X216.927 Y19.370 F7200
G1 X217.019 Y19.332 E235.77254 F3600
G1 X217.097 Y19.281 E235.77520
G1 X217.182 Y19.237 E235.77760
G1 X217.267 Y19.193 E235.77966
G1 X217.348 Y19.150 E235.78132
G0 X216.390 Y19.593 F7200
G1 X216.298 Y19.631 E235.78312 F3600
G1 X216.207 Y19.669 E235.78542
G1 X216.115 Y19.706 E235.78816
G1 X216.024 Y19.744 E235.79138
G1 X215.932 Y19.782 E235.79508
G1 X216.024 Y19.760 E235.79802
G1 X216.122 Y19.729 E235.80062
G1 X216.196 Y19.673 E235.80282
G1 X216.287 Y19.635 E235.80468
G1 X216.379 Y19.597 E235.80610
G1 X216.390 Y19.593 E235.80624
G0 X215.475 Y19.932 F7200
G1 X215.384 Y19.961 E235.80816 F3600
G1 X215.292 Y19.990 E235.81060
G1 X215.201 Y20.019 E235.81356
G1 X215.109 Y20.047 E235.81708
G1 X215.139 Y20.038 E235.81814
G1 X215.237 Y20.007 E235.82112
G1 X215.335 Y19.976 E235.82348
G1 X215.434 Y19.945 E235.82524
G1 X215.475 Y19.932 E235.82586
G0 X214.652 Y20.192 F7200
G1 X214.561 Y20.213 E235.82778 F3600
G1 X214.469 Y20.233 E235.83030
G1 X214.378 Y20.253 E235.83338
G1 X214.436 Y20.240 E235.83512
G1 X214.542 Y20.217 E235.83748
G1 X214.647 Y20.193 E235.83906
G1 X214.652 Y20.192 E235.83912
G0 X213.921 Y20.354 F7200
G1 X213.830 Y20.375 E235.84108 F3600
G1 X213.738 Y20.395 E235.84362
G1 X213.647 Y20.415 E235.84674
G1 X213.801 Y20.381 E235.85034
G1 X213.907 Y20.358 E235.85202
G1 X213.921 Y20.354 E235.85224
G0 F3000 E234.85224
G0 X213.620 Y15.420 F7200
G0 F3000 E235.85224
;segType:Loop
G1 X213.378 Y15.000 E235.86432 F3600
G1 X213.178 Y14.451 E235.87890
G1 X213.077 Y13.876 E235.89348
G1 X213.077 Y13.291 E235.90806
G1 X213.178 Y12.716 E235.92264
G1 X213.378 Y12.167 E235.93722
G1 X213.670 Y11.660 E235.95180
G1 X214.046 Y11.213 E235.96636
G1 X214.494 Y10.837 E235.98096
G1 X215.000 Y10.545 E235.99554
G1 X215.549 Y10.345 E236.01012
G1 X216.125 Y10.243 E236.02470
G1 X216.708 Y10.243 E236.03926
G1 X217.284 Y10.345 E236.05384
G1 X217.834 Y10.545 E236.06844
G1 X218.340 Y10.837 E236.08300
G1 X218.787 Y11.213 E236.09758
G1 X219.163 Y11.660 E236.11216
G1 X219.455 Y12.166 E236.12672
G1 X219.655 Y12.716 E236.14132
G1 X219.757 Y13.291 E236.15588
G1 X219.757 Y13.875 E236.17046
G1 X219.655 Y14.451 E236.18504
G1 X219.455 Y15.000 E236.19962
G1 X219.163 Y15.507 E236.21420
G1 X218.787 Y15.954 E236.22880
G1 X218.340 Y16.330 E236.24336
G1 X217.833 Y16.622 E236.25794
G1 X217.284 Y16.822 E236.27252
G1 X216.709 Y16.923 E236.28710
G1 X216.124 Y16.923 E236.30168
G1 X215.549 Y16.822 E236.31626
G1 X215.000 Y16.622 E236.33082
G1 X214.493 Y16.330 E236.34542
G1 X214.046 Y15.954 E236.35998
G1 X213.734 Y15.583 E236.37208
G0 F3000 E235.37208
G0 X46.380 Y184.580 F7200
G0 X46.380 Y184.580
G0 F3000 E236.37208
G1 X46.622 Y185.000 E236.38416 F3600
G1 X46.822 Y185.549 E236.39872
G1 X46.923 Y186.124 E236.41332
G1 X46.923 Y186.709 E236.42790
G1 X46.822 Y187.284 E236.44248
G1 X46.622 Y187.834 E236.45704
G1 X46.330 Y188.340 E236.47164
G1 X45.954 Y188.787 E236.48620
G1 X45.507 Y189.163 E236.50078
G1 X45.000 Y189.455 E236.51536
G1 X44.451 Y189.655 E236.52994
G1 X43.876 Y189.757 E236.54452
G1 X43.291 Y189.757 E236.55910
G1 X42.716 Y189.655 E236.57366
G1 X42.166 Y189.455 E236.58826
G1 X41.660 Y189.163 E236.60282
G1 X41.213 Y188.787 E236.61740
G1 X40.837 Y188.340 E236.63198
G1 X40.545 Y187.834 E236.64654
G1 X40.345 Y187.284 E236.66114
G1 X40.243 Y186.709 E236.67570
G1 X40.243 Y186.125 E236.69028
G1 X40.345 Y185.549 E236.70486
G1 X40.545 Y185.000 E236.71944
G1 X40.837 Y184.493 E236.73402
G1 X41.213 Y184.046 E236.74860
G1 X41.660 Y183.670 E236.76316
G1 X42.166 Y183.378 E236.77774
G1 X42.716 Y183.178 E236.79232
G1 X43.291 Y183.077 E236.80690
G1 X43.876 Y183.077 E236.82148
G1 X44.451 Y183.178 E236.83606
G1 X45.000 Y183.378 E236.85064
G1 X45.506 Y183.670 E236.86520
G1 X45.954 Y184.046 E236.87980
G1 X46.266 Y184.417 E236.89188
; ------------------------------------
; Layer #2
; ------------------------------------
G92 E0 ;reset extr
G0 F3000 E-1.00000
G0 F600 Z0.500
G0 X213.420 Y15.073 F7200
G0 X213.378 Y15.000
G0 X213.178 Y14.451
G0 X213.077 Y13.876
G0 X213.077 Y13.291
G0 X213.178 Y12.716
G0 X213.378 Y12.167
G0 X213.670 Y11.660
G0 X214.046 Y11.213
G0 X214.494 Y10.837
G0 X215.000 Y10.545
G0 X215.549 Y10.345
G0 X216.125 Y10.243
G0 X216.709 Y10.243
G0 X217.284 Y10.345
G0 X217.834 Y10.545
G0 X217.869 Y10.565
G0 X220.426 Y7.974
G0 X220.373 Y7.932
G0 X220.172 Y8.232
G0 F3000 E0.00000
;segType:HShell
G1 X220.166 Y8.228 E0.00015 F3600
G1 X219.520 Y7.829 E0.01530
G1 X218.830 Y7.507 E0.03049
G1 X218.109 Y7.268 E0.04566
G1 X217.364 Y7.114 E0.06083
G1 X216.608 Y7.048 E0.07598
G1 X215.847 Y7.070 E0.09117
G1 X215.094 Y7.180 E0.10635
G1 X214.361 Y7.377 E0.12151
G1 X213.654 Y7.658 E0.13669
G1 X212.984 Y8.019 E0.15186
G1 X212.361 Y8.455 E0.16704
G1 X211.772 Y8.979 E0.18278
G1 X38.979 Y181.773 E5.05938
G1 X38.455 Y182.361 E5.07511
G1 X38.019 Y182.984 E5.09028
G1 X37.658 Y183.654 E5.10545
G1 X37.377 Y184.360 E5.12063
G1 X37.180 Y185.094 E5.13580
G1 X37.070 Y185.847 E5.15097
G1 X37.048 Y186.607 E5.16615
G1 X37.114 Y187.364 E5.18132
G1 X37.268 Y188.109 E5.19649
G1 X37.507 Y188.831 E5.21166
G1 X37.829 Y189.520 E5.22683
G1 X38.228 Y190.167 E5.24201
G1 X38.699 Y190.763 E5.25718
G1 X39.237 Y191.301 E5.27235
G1 X39.833 Y191.772 E5.28752
G1 X40.480 Y192.171 E5.30270
G1 X41.169 Y192.493 E5.31787
G1 X41.891 Y192.732 E5.33304
G1 X42.636 Y192.886 E5.34822
G1 X43.393 Y192.952 E5.36339
G1 X44.153 Y192.930 E5.37856
G1 X44.906 Y192.820 E5.39373
G1 X45.640 Y192.623 E5.40890
G1 X46.347 Y192.342 E5.42408
G1 X47.016 Y191.981 E5.43925
G1 X47.639 Y191.545 E5.45442
G1 X48.227 Y191.021 E5.47015
G1 X221.019 Y18.230 E10.34670
G1 X221.545 Y17.639 E10.36249
G1 X221.981 Y17.016 E10.37767
G1 X222.342 Y16.346 E10.39284
G1 X222.623 Y15.639 E10.40802
G1 X222.820 Y14.906 E10.42318
G1 X222.930 Y14.153 E10.43836
G1 X222.952 Y13.392 E10.45355
G1 X222.886 Y12.636 E10.46871
G1 X222.732 Y11.892 E10.48387
G1 X222.493 Y11.170 E10.49905
G1 X222.171 Y10.480 E10.51422
G1 X221.772 Y9.833 E10.52939
G1 X221.301 Y9.237 E10.54456
G1 X220.763 Y8.699 E10.55974
G1 X220.329 Y8.356 E10.57078
G0 X218.963 Y7.172 F7200
G0 X219.144 Y7.051
;segType:Perimeter
G1 X219.932 Y7.190 E10.59074 F2159
G1 X220.603 Y7.604 E10.61040
G1 X221.269 Y8.131 E10.63158
G1 X221.869 Y8.731 E10.65276
G1 X222.396 Y9.397 E10.67394
G1 X222.842 Y10.119 E10.69512
G1 X223.200 Y10.889 E10.71630
G1 X223.467 Y11.695 E10.73747
G1 X223.639 Y12.525 E10.75862
G1 X223.713 Y13.371 E10.77979
G1 X223.688 Y14.219 E10.80098
G1 X223.565 Y15.060 E10.82216
G1 X223.345 Y15.879 E10.84333
G1 X223.032 Y16.668 E10.86451
G1 X222.629 Y17.415 E10.88568
G1 X222.142 Y18.111 E10.90685
G1 X221.572 Y18.752 E10.92826
G1 X48.749 Y191.574 E17.02504
G1 X48.111 Y192.142 E17.04636
G1 X47.415 Y192.629 E17.06753
G1 X46.668 Y193.032 E17.08870
G1 X45.879 Y193.345 E17.10988
G1 X45.059 Y193.565 E17.13105
G1 X44.220 Y193.688 E17.15223
G1 X43.371 Y193.713 E17.17340
G1 X42.526 Y193.639 E17.19457
G1 X41.694 Y193.467 E17.21575
G1 X40.888 Y193.200 E17.23693
G1 X40.119 Y192.841 E17.25810
G1 X39.397 Y192.396 E17.27927
G1 X38.731 Y191.869 E17.30045
G1 X38.131 Y191.269 E17.32162
G1 X37.604 Y190.603 E17.34279
G1 X37.159 Y189.881 E17.36397
G1 X36.800 Y189.112 E17.38514
G1 X36.533 Y188.306 E17.40632
G1 X36.361 Y187.475 E17.42749
G1 X36.287 Y186.629 E17.44866
G1 X36.312 Y185.780 E17.46984
G1 X36.435 Y184.940 E17.49101
G1 X36.655 Y184.121 E17.51219
G1 X36.968 Y183.332 E17.53336
G1 X37.371 Y182.585 E17.55454
G1 X37.858 Y181.889 E17.57571
G1 X38.426 Y181.251 E17.59703
G1 X211.251 Y8.426 E23.69389
G1 X211.889 Y7.858 E23.71521
G1 X212.585 Y7.371 E23.73639
G1 X213.332 Y6.968 E23.75756
G1 X214.121 Y6.655 E23.77874
G1 X214.940 Y6.435 E23.79991
G1 X215.781 Y6.312 E23.82109
G1 X216.629 Y6.287 E23.84227
G1 X217.475 Y6.361 E23.86343
G1 X218.306 Y6.533 E23.88461
G1 X219.111 Y6.800 E23.90577
G1 X219.827 Y7.133 E23.92546
G0 X219.932 Y7.190 F7200
G0 X220.603 Y7.604
G0 X221.240 Y8.107
G0 F3000 E22.92546
G0 X221.002 Y8.430 F7200
G0 X220.949 Y8.388
G0 X218.380 Y10.871
G0 X218.340 Y10.837
G0 X217.834 Y10.545
G0 X217.284 Y10.345
G0 X216.709 Y10.243
G0 X216.125 Y10.243
G0 X215.549 Y10.345
G0 X215.000 Y10.545
G0 X214.494 Y10.837
G0 X214.046 Y11.213
G0 X213.670 Y11.660
G0 X213.378 Y12.167
G0 X213.178 Y12.716
G0 X213.077 Y13.291
G0 X213.077 Y13.876
G0 X213.178 Y14.451
G0 X213.378 Y15.000
G0 X213.639 Y15.452
G0 X213.372 Y15.710
G0 F3000 E23.92546
;segType:HShell
G1 X213.050 Y15.153 E23.93829 F3600
G1 X212.829 Y14.545 E23.95121
G1 X212.717 Y13.907 E23.96412
G1 X212.717 Y13.260 E23.97705
G1 X212.829 Y12.622 E23.98996
G1 X213.050 Y12.014 E24.00288
G1 X213.374 Y11.453 E24.01581
G1 X213.790 Y10.957 E24.02872
G1 X214.286 Y10.541 E24.04164
G1 X214.847 Y10.217 E24.05457
G1 X215.455 Y9.996 E24.06748
G1 X216.093 Y9.883 E24.08041
G1 X216.740 Y9.883 E24.09332
G1 X217.378 Y9.996 E24.10624
G1 X217.986 Y10.217 E24.11916
G1 X218.547 Y10.541 E24.13209
G1 X219.043 Y10.957 E24.14501
G1 X219.459 Y11.453 E24.15791
G1 X219.783 Y12.013 E24.17083
G1 X220.004 Y12.622 E24.18376
G1 X220.117 Y13.260 E24.19668
G1 X220.117 Y13.907 E24.20959
G1 X220.004 Y14.545 E24.22251
G1 X219.783 Y15.153 E24.23543
G1 X219.459 Y15.714 E24.24835
G1 X219.043 Y16.210 E24.26128
G1 X218.547 Y16.626 E24.27419
G1 X217.986 Y16.950 E24.28712
G1 X217.378 Y17.171 E24.30004
G1 X216.740 Y17.283 E24.31295
G1 X216.093 Y17.283 E24.32587
G1 X215.455 Y17.171 E24.33879
G1 X214.847 Y16.949 E24.35171
G1 X214.286 Y16.626 E24.36463
G1 X213.790 Y16.210 E24.37755
G1 X213.500 Y15.863 E24.38657
G0 X215.244 Y16.528 F7200
;segType:Perimeter
G1 X214.678 Y15.962 E24.40653 F2159
G1 X214.330 Y15.670 E24.41786
G1 X213.999 Y15.276 E24.43069
G1 X213.742 Y14.831 E24.44352
G1 X213.566 Y14.347 E24.45635
G1 X213.477 Y13.841 E24.46919
G1 X213.477 Y13.326 E24.48202
G1 X213.566 Y12.820 E24.49485
G1 X213.742 Y12.336 E24.50769
G1 X213.999 Y11.891 E24.52052
G1 X214.330 Y11.497 E24.53335
G1 X214.724 Y11.166 E24.54618
G1 X215.169 Y10.909 E24.55901
G1 X215.653 Y10.733 E24.57185
G1 X216.159 Y10.643 E24.58468
G1 X216.674 Y10.643 E24.59751
G1 X217.180 Y10.733 E24.61034
G1 X217.664 Y10.909 E24.62318
G1 X218.109 Y11.166 E24.63601
G1 X218.503 Y11.497 E24.64884
G1 X218.834 Y11.891 E24.66167
G1 X219.091 Y12.336 E24.67450
G1 X219.267 Y12.820 E24.68734
G1 X219.357 Y13.326 E24.70017
G1 X219.357 Y13.841 E24.71300
G1 X219.267 Y14.347 E24.72583
G1 X219.091 Y14.831 E24.73866
G1 X218.834 Y15.276 E24.75150
G1 X218.503 Y15.670 E24.76433
G1 X218.109 Y16.001 E24.77716
G1 X217.664 Y16.258 E24.78999
G1 X217.180 Y16.434 E24.80283
G1 X216.674 Y16.523 E24.81566
G1 X216.159 Y16.523 E24.82849
G1 X215.653 Y16.434 E24.84133
G1 X215.169 Y16.258 E24.85416
G1 X214.776 Y16.031 E24.86550
G0 X214.678 Y15.962 F7200
G0 X214.330 Y15.670
G0 X213.999 Y15.276
G0 X213.742 Y14.831
G0 X213.702 Y14.721
G0 F3000 E23.86550
G0 X213.378 Y15.000 F7200
G0 X213.396 Y15.031
G0 X46.246 Y184.394
G0 X46.500 Y184.136
G0 F3000 E24.86550
;segType:HShell
G1 X46.210 Y183.790 E24.87451 F3600
G1 X45.714 Y183.374 E24.88744
G1 X45.153 Y183.051 E24.90036
G1 X44.545 Y182.829 E24.91327
G1 X43.907 Y182.717 E24.92619
G1 X43.259 Y182.717 E24.93912
G1 X42.622 Y182.829 E24.95204
G1 X42.014 Y183.051 E24.96496
G1 X41.453 Y183.374 E24.97787
G1 X40.957 Y183.790 E24.99079
G1 X40.541 Y184.286 E25.00371
G1 X40.217 Y184.847 E25.01663
G1 X39.996 Y185.455 E25.02955
G1 X39.883 Y186.093 E25.04248
G1 X39.883 Y186.740 E25.05539
G1 X39.996 Y187.378 E25.06831
G1 X40.217 Y187.986 E25.08124
G1 X40.541 Y188.547 E25.09416
G1 X40.957 Y189.043 E25.10707
G1 X41.453 Y189.459 E25.11999
G1 X42.014 Y189.783 E25.13291
G1 X42.622 Y190.004 E25.14583
G1 X43.260 Y190.117 E25.15875
G1 X43.907 Y190.117 E25.17167
G1 X44.545 Y190.004 E25.18459
G1 X45.153 Y189.783 E25.19751
G1 X45.714 Y189.459 E25.21043
G1 X46.210 Y189.043 E25.22335
G1 X46.626 Y188.547 E25.23627
G1 X46.950 Y187.986 E25.24919
G1 X47.171 Y187.378 E25.26211
G1 X47.283 Y186.741 E25.27502
G1 X47.283 Y186.093 E25.28795
G1 X47.171 Y185.455 E25.30087
G1 X46.950 Y184.847 E25.31378
G1 X46.628 Y184.290 E25.32662
G0 X44.756 Y183.472 F7200
;segType:Perimeter
G1 X45.322 Y184.038 E25.34658 F2159
G1 X45.670 Y184.330 E25.35791
G1 X46.001 Y184.724 E25.37075
G1 X46.258 Y185.169 E25.38358
G1 X46.434 Y185.653 E25.39641
G1 X46.523 Y186.159 E25.40924
G1 X46.523 Y186.674 E25.42208
G1 X46.434 Y187.180 E25.43491
G1 X46.258 Y187.664 E25.44774
G1 X46.001 Y188.109 E25.46057
G1 X45.670 Y188.503 E25.47341
G1 X45.276 Y188.834 E25.48624
G1 X44.831 Y189.091 E25.49907
G1 X44.347 Y189.267 E25.51190
G1 X43.841 Y189.357 E25.52474
G1 X43.326 Y189.357 E25.53757
G1 X42.820 Y189.267 E25.55040
G1 X42.336 Y189.091 E25.56324
G1 X41.891 Y188.834 E25.57607
G1 X41.497 Y188.503 E25.58890
G1 X41.166 Y188.109 E25.60173
G1 X40.909 Y187.664 E25.61456
G1 X40.733 Y187.180 E25.62740
G1 X40.643 Y186.674 E25.64023
G1 X40.643 Y186.159 E25.65306
G1 X40.733 Y185.653 E25.66590
G1 X40.909 Y185.169 E25.67873
G1 X41.166 Y184.724 E25.69156
G1 X41.497 Y184.330 E25.70439
G1 X41.891 Y183.999 E25.71723
G1 X42.336 Y183.742 E25.73005
G1 X42.820 Y183.566 E25.74289
G1 X43.326 Y183.477 E25.75572
G1 X43.841 Y183.477 E25.76855
G1 X44.347 Y183.566 E25.78139
G1 X44.831 Y183.742 E25.79422
G1 X45.224 Y183.969 E25.80555
G0 X45.322 Y184.038 F7200
G0 X45.670 Y184.330
G0 X46.001 Y184.724
G0 X46.258 Y185.169
G0 X46.298 Y185.279
G0 X46.622 Y185.000
G0 X46.935 Y184.032
;segType:HShell
G1 X46.955 Y184.056 E25.80632 F3600
G1 X47.314 Y184.678 E25.82422
G1 X47.559 Y185.351 E25.84211
G1 X47.683 Y186.058 E25.86000
G1 X47.683 Y186.776 E25.87791
G1 X47.559 Y187.482 E25.89580
G1 X47.314 Y188.156 E25.91369
G1 X46.955 Y188.777 E25.93159
G1 X46.494 Y189.327 E25.94948
G1 X45.944 Y189.788 E25.96738
G1 X45.323 Y190.147 E25.98527
G1 X44.649 Y190.392 E26.00317
G1 X43.942 Y190.517 E26.02107
G1 X43.225 Y190.517 E26.03896
G1 X42.518 Y190.392 E26.05686
G1 X41.844 Y190.147 E26.07476
G1 X41.223 Y189.788 E26.09266
G1 X40.673 Y189.327 E26.11055
G1 X40.212 Y188.777 E26.12844
G1 X39.853 Y188.156 E26.14633
G1 X39.608 Y187.482 E26.16424
G1 X39.483 Y186.775 E26.18213
G1 X39.483 Y186.058 E26.20002
G1 X39.608 Y185.351 E26.21792
G1 X39.853 Y184.677 E26.23582
G1 X40.212 Y184.056 E26.25371
G1 X40.673 Y183.506 E26.27161
G1 X41.223 Y183.045 E26.28951
G1 X41.844 Y182.687 E26.30740
G1 X42.518 Y182.441 E26.32529
G1 X43.224 Y182.317 E26.34318
G1 X43.942 Y182.317 E26.36109
G1 X44.649 Y182.441 E26.37899
G1 X45.322 Y182.687 E26.39687
G1 X45.944 Y183.045 E26.41477
G1 X46.494 Y183.506 E26.43267
G1 X46.807 Y183.879 E26.44481
G0 X47.242 Y183.775 F7200
G1 X47.284 Y183.826 E26.44645 F3600
G1 X47.678 Y184.508 E26.46610
G1 X47.947 Y185.247 E26.48573
G1 X48.083 Y186.023 E26.50537
G1 X48.083 Y186.811 E26.52503
G1 X47.947 Y187.586 E26.54466
G1 X47.678 Y188.325 E26.56429
G1 X47.284 Y189.008 E26.58395
G1 X46.778 Y189.611 E26.60358
G1 X46.174 Y190.117 E26.62322
G1 X45.492 Y190.510 E26.64287
G1 X44.753 Y190.780 E26.66251
G1 X43.977 Y190.917 E26.68216
G1 X43.190 Y190.917 E26.70179
G1 X42.414 Y190.780 E26.72143
G1 X41.674 Y190.510 E26.74108
G1 X40.992 Y190.117 E26.76072
G1 X40.389 Y189.611 E26.78036
G1 X39.883 Y189.008 E26.79999
G1 X39.490 Y188.326 E26.81963
G1 X39.220 Y187.586 E26.83929
G1 X39.083 Y186.810 E26.85892
G1 X39.083 Y186.023 E26.87856
G1 X39.220 Y185.247 E26.89821
G1 X39.490 Y184.508 E26.91785
G1 X39.883 Y183.826 E26.93750
G1 X40.389 Y183.222 E26.95714
G1 X40.993 Y182.716 E26.97678
G1 X41.675 Y182.323 E26.99642
G1 X42.414 Y182.054 E27.01605
G1 X43.189 Y181.917 E27.03569
G1 X43.977 Y181.917 E27.05535
G1 X44.753 Y182.054 E27.07500
G1 X45.492 Y182.323 E27.09461
G1 X46.174 Y182.716 E27.11426
G1 X46.778 Y183.222 E27.13390
G1 X47.113 Y183.622 E27.14692
G0 X47.548 Y183.518 F7200
G1 X47.613 Y183.595 E27.14943 F3600
G1 X48.042 Y184.338 E27.17083
G1 X48.334 Y185.143 E27.19220
G1 X48.483 Y185.988 E27.21359
G1 X48.483 Y186.846 E27.23500
G1 X48.334 Y187.690 E27.25637
G1 X48.042 Y188.495 E27.27775
G1 X47.612 Y189.238 E27.29916
G1 X47.061 Y189.895 E27.32054
G1 X46.405 Y190.446 E27.34192
G1 X45.662 Y190.874 E27.36331
G1 X44.857 Y191.168 E27.38470
G1 X44.012 Y191.317 E27.40609
G1 X43.155 Y191.317 E27.42747
G1 X42.310 Y191.168 E27.44886
G1 X41.504 Y190.874 E27.47026
G1 X40.762 Y190.446 E27.49165
G1 X40.105 Y189.895 E27.51303
G1 X39.554 Y189.238 E27.53440
G1 X39.126 Y188.496 E27.55579
G1 X38.832 Y187.690 E27.57719
G1 X38.683 Y186.845 E27.59858
G1 X38.683 Y185.988 E27.61996
G1 X38.832 Y185.143 E27.64135
G1 X39.126 Y184.338 E27.66274
G1 X39.554 Y183.595 E27.68413
G1 X40.105 Y182.939 E27.70551
G1 X40.762 Y182.387 E27.72691
G1 X41.505 Y181.959 E27.74829
G1 X42.310 Y181.666 E27.76966
G1 X43.154 Y181.517 E27.79105
G1 X44.012 Y181.517 E27.81246
G1 X44.857 Y181.666 E27.83385
G1 X45.662 Y181.959 E27.85521
G1 X46.404 Y182.387 E27.87660
G1 X47.061 Y182.939 E27.89800
G1 X47.419 Y183.365 E27.91189
G0 X47.854 Y183.261 F7200
G1 X47.942 Y183.365 E27.91527 F3600
G1 X48.406 Y184.169 E27.93842
G1 X48.722 Y185.040 E27.96154
G1 X48.883 Y185.953 E27.98467
G1 X48.883 Y186.881 E28.00783
G1 X48.722 Y187.793 E28.03094
G1 X48.627 Y188.056 E28.03792
G1 X48.794 Y188.192 E28.04329
G1 X218.177 Y18.809 E34.01871
G1 X218.127 Y18.601 E34.02405
G1 X217.793 Y18.722 E34.03290
G1 X216.880 Y18.884 E34.05602
G1 X215.953 Y18.884 E34.07916
G1 X215.039 Y18.722 E34.10230
G1 X214.168 Y18.405 E34.12542
G1 X213.365 Y17.942 E34.14855
G1 X212.655 Y17.346 E34.17168
G1 X212.058 Y16.635 E34.19484
G1 X211.595 Y15.831 E34.21797
G1 X211.278 Y14.960 E34.24110
G1 X211.116 Y14.048 E34.26421
G1 X211.116 Y13.120 E34.28737
G1 X211.278 Y12.207 E34.31049
G1 X211.399 Y11.873 E34.31934
G1 X211.191 Y11.824 E34.32467
G1 X41.809 Y181.206 E40.30010
G1 X41.944 Y181.373 E40.30546
G1 X42.206 Y181.278 E40.31242
G1 X43.119 Y181.117 E40.33555
G1 X44.047 Y181.117 E40.35871
G1 X44.961 Y181.278 E40.38186
G1 X45.831 Y181.595 E40.40496
G1 X46.635 Y182.058 E40.42809
G1 X47.345 Y182.655 E40.45124
G1 X47.726 Y183.108 E40.46599
G0 X48.467 Y182.747 F7200
G1 X48.599 Y182.904 E40.47113 F3600
G1 X49.133 Y183.829 E40.49778
G1 X49.498 Y184.832 E40.52438
G1 X49.680 Y185.862 E40.55048
G1 X49.909 Y185.945 E40.55657
G1 X215.995 Y19.860 E46.41567
G1 X215.841 Y19.676 E46.42165
G1 X214.831 Y19.498 E46.44723
G1 X213.829 Y19.133 E46.47383
G1 X212.905 Y18.600 E46.50045
G1 X212.087 Y17.914 E46.52707
G1 X211.400 Y17.095 E46.55373
G1 X210.867 Y16.171 E46.58036
G1 X210.502 Y15.168 E46.60697
G1 X210.324 Y14.159 E46.63253
G1 X210.140 Y14.006 E46.63849
G1 X44.055 Y180.091 E52.49760
G1 X44.138 Y180.320 E52.50368
G1 X45.169 Y180.502 E52.52980
G1 X46.170 Y180.867 E52.55638
G1 X47.095 Y181.400 E52.58301
G1 X47.913 Y182.087 E52.60965
G1 X48.338 Y182.593 E52.62615
G0 X49.080 Y182.232 F7200
G1 X49.257 Y182.444 E52.63304 F3600
G1 X49.861 Y183.490 E52.66318
G1 X50.159 Y184.308 E52.68488
G1 X50.313 Y184.410 E52.68950
G1 X214.395 Y20.328 E58.47790
G1 X214.287 Y20.151 E58.48309
G1 X213.490 Y19.861 E58.50424
G1 X212.444 Y19.258 E58.53435
G1 X211.519 Y18.482 E58.56447
G1 X210.742 Y17.556 E58.59462
G1 X210.139 Y16.510 E58.62475
G1 X209.849 Y15.713 E58.64588
G1 X209.672 Y15.606 E58.65106
G1 X45.591 Y179.687 E64.43947
G1 X45.692 Y179.841 E64.44409
G1 X46.510 Y180.139 E64.46579
G1 X47.556 Y180.742 E64.49591
G1 X48.481 Y181.519 E64.52605
G1 X48.951 Y182.079 E64.54429
G0 X50.372 Y183.844 F7200
;segType:InnerHair
G1 X50.376 Y183.825 E64.54470 F3600
G0 X50.209 Y184.576 F7200
G1 X50.211 Y184.566 E64.54489 F3600
G1 X50.235 Y184.460 E64.54786
G0 X49.956 Y185.401 F7200
G1 X49.969 Y185.358 E64.54882 F3600
G1 X50.000 Y185.260 E64.55165
G1 X50.031 Y185.162 E64.55509
G0 X49.589 Y186.400 F7200
G1 X49.626 Y186.309 E64.55686 F3600
G1 X49.664 Y186.217 E64.55909
G1 X49.702 Y186.126 E64.56179
G1 X49.752 Y186.047 E64.56459
G1 X49.783 Y185.948 E64.56827
G0 X49.353 Y186.959 F7200
G1 X49.305 Y187.051 E64.57143 F3600
G1 X49.257 Y187.142 E64.57419
G1 X49.210 Y187.233 E64.57656
G1 X49.162 Y187.325 E64.57852
G1 X49.114 Y187.416 E64.58010
G0 X49.093 Y187.456 F7200
G0 X49.137 Y187.371
G0 X49.182 Y187.286
G0 X49.226 Y187.201
G0 X49.271 Y187.117
G0 X49.323 Y187.040
G0 X49.361 Y186.949
G1 X49.353 Y186.959 E64.58055 F3600
G0 X48.698 Y188.148 F7200
G1 X48.640 Y188.239 E64.58428 F3600
G1 X48.582 Y188.331 E64.58768
G1 X48.524 Y188.422 E64.59076
G1 X48.466 Y188.513 E64.59353
G0 X48.309 Y188.741 F7200
G0 X48.084 Y189.034
G1 X48.141 Y188.960 E64.59490 F3600
G1 X48.197 Y188.887 E64.59640
G1 X48.253 Y188.814 E64.59804
G1 X48.309 Y188.741 E64.59982
G0 X48.366 Y188.669 F7200
G0 X48.417 Y188.590
G0 X48.467 Y188.511
G0 X48.517 Y188.432
G0 X48.568 Y188.353
G0 X48.618 Y188.274
