; #disp params :
; Printmode:0
; Layer:26
; Xmin:30.143 mm
; Xmax:296.753 mm
; XDimension:266.61 mm
; Ymin:9.027 mm
; Ymax:188.898 mm
; YDimension:179.871 mm
; Zmax:3.95 mm
; E0diam:0.4 mm
; E0len:6.83552 m
; E0temp:215 C
; Bedtemp:215 C
; Time:123.144 min
; #params end
; GCode generated by CraftWare

G28 X Y ; home horizontally
G28 Z ; home vertically


M104 S215 ;set head temp (no wait)
M190 S60 ;set bed temp (wait)
M109 S215 ;set head temp (wait)
; ------------------------------------
; Layer #0
; ------------------------------------
M106 S0 ;turn off fan
G21 ; mm
G90 ; abs
G92 E0 ;reset extr
G0 F600 Z0.200
;segType:HShell
G0 F3000 E-1.00000
G0 X295.131 Y178.336 F5400
G0 F3000 E0.00000
G1 X295.128 Y178.329 E0.00019 F2400
G1 X294.710 Y177.694 E0.02043
G1 X294.221 Y177.111 E0.04066
G1 X293.669 Y176.590 E0.06087
G1 X293.059 Y176.136 E0.08111
G1 X292.400 Y175.756 E0.10133
G1 X291.702 Y175.455 E0.12157
G1 X290.974 Y175.237 E0.14179
G1 X290.225 Y175.105 E0.16202
G1 X289.438 Y175.059 E0.18300
G1 X41.524 Y175.059 E6.77953
G1 X40.737 Y175.104 E6.80050
G1 X39.988 Y175.237 E6.82073
G1 X39.260 Y175.455 E6.84096
G1 X38.562 Y175.756 E6.86119
G1 X37.903 Y176.136 E6.88142
G1 X37.294 Y176.590 E6.90165
G1 X36.740 Y177.112 E6.92188
G1 X36.252 Y177.694 E6.94211
G1 X35.834 Y178.329 E6.96235
G1 X35.493 Y179.009 E6.98257
G1 X35.233 Y179.723 E7.00280
G1 X35.057 Y180.463 E7.02303
G1 X34.969 Y181.218 E7.04326
G1 X34.969 Y181.979 E7.06350
G1 X35.057 Y182.734 E7.08373
G1 X35.233 Y183.473 E7.10395
G1 X35.493 Y184.188 E7.12418
G1 X35.834 Y184.867 E7.14441
G1 X36.252 Y185.502 E7.16464
G1 X36.740 Y186.085 E7.18487
G1 X37.294 Y186.607 E7.20511
G1 X37.903 Y187.061 E7.22533
G1 X38.562 Y187.441 E7.24556
G1 X39.260 Y187.742 E7.26580
G1 X39.988 Y187.960 E7.28602
G1 X40.737 Y188.092 E7.30626
G1 X41.524 Y188.138 E7.32723
G1 X289.438 Y188.138 E13.92375
G1 X290.225 Y188.092 E13.94473
G1 X290.974 Y187.960 E13.96496
G1 X291.702 Y187.742 E13.98519
G1 X292.401 Y187.441 E14.00544
G1 X293.058 Y187.061 E14.02564
G1 X293.669 Y186.607 E14.04589
G1 X294.221 Y186.085 E14.06609
G1 X294.711 Y185.502 E14.08636
G1 X295.128 Y184.867 E14.10657
G1 X295.469 Y184.188 E14.12681
G1 X295.729 Y183.473 E14.14703
G1 X295.905 Y182.733 E14.16728
G1 X295.993 Y181.979 E14.18749
G1 X295.993 Y181.218 E14.20773
G1 X295.905 Y180.463 E14.22795
G1 X295.729 Y179.724 E14.24817
G1 X295.469 Y179.009 E14.26840
G1 X295.221 Y178.514 E14.28313
G0 X294.483 Y176.864 F5400
G0 X294.698 Y176.831
;segType:Perimeter
G1 X295.354 Y177.290 E14.30974 F1439
G1 X295.787 Y177.949 E14.33600
G1 X296.168 Y178.707 E14.36420
G1 X296.459 Y179.505 E14.39245
G1 X296.654 Y180.331 E14.42068
G1 X296.753 Y181.174 E14.44890
G1 X296.753 Y182.023 E14.47714
G1 X296.654 Y182.866 E14.50537
G1 X296.458 Y183.692 E14.53362
G1 X296.168 Y184.489 E14.56184
G1 X295.787 Y185.247 E14.59006
G1 X295.321 Y185.957 E14.61830
G1 X294.775 Y186.608 E14.64654
G1 X294.158 Y187.190 E14.67475
G1 X293.476 Y187.697 E14.70302
G1 X292.742 Y188.121 E14.73122
G1 X291.962 Y188.457 E14.75947
G1 X291.149 Y188.701 E14.78769
G1 X290.313 Y188.848 E14.81593
G1 X289.460 Y188.898 E14.84436
G1 X41.502 Y188.898 E23.09149
G1 X40.649 Y188.848 E23.11991
G1 X39.813 Y188.701 E23.14814
G1 X39.000 Y188.457 E23.17637
G1 X38.220 Y188.121 E23.20461
G1 X37.485 Y187.697 E23.23284
G1 X36.804 Y187.190 E23.26107
G1 X36.187 Y186.607 E23.28930
G1 X35.641 Y185.957 E23.31753
G1 X35.174 Y185.248 E23.34577
G1 X34.794 Y184.489 E23.37400
G1 X34.503 Y183.692 E23.40223
G1 X34.308 Y182.866 E23.43046
G1 X34.209 Y182.023 E23.45869
G1 X34.209 Y181.174 E23.48693
G1 X34.308 Y180.331 E23.51516
G1 X34.503 Y179.505 E23.54339
G1 X34.794 Y178.707 E23.57162
G1 X35.174 Y177.949 E23.59985
G1 X35.641 Y177.239 E23.62809
G1 X36.187 Y176.589 E23.65632
G1 X36.804 Y176.007 E23.68456
G1 X37.485 Y175.500 E23.71279
G1 X38.220 Y175.076 E23.74102
G1 X39.000 Y174.739 E23.76926
G1 X39.813 Y174.496 E23.79748
G1 X40.649 Y174.348 E23.82572
G1 X41.502 Y174.299 E23.85414
G1 X289.460 Y174.299 E32.10127
G1 X290.313 Y174.348 E32.12970
G1 X291.149 Y174.496 E32.15793
G1 X291.962 Y174.739 E32.18616
G1 X292.742 Y175.076 E32.21441
G1 X293.477 Y175.500 E32.24264
G1 X294.158 Y176.007 E32.27086
G1 X294.775 Y176.589 E32.29907
G1 X295.282 Y177.193 E32.32532
G0 X295.354 Y177.290 F5400
G0 X295.787 Y177.949
G0 X296.151 Y178.674
G0 F3000 E31.32532
G0 X295.800 Y178.866 F5400
G0 X295.706 Y178.677
G0 X291.172 Y178.716
G0 X291.142 Y178.695
G0 X290.613 Y178.448
G0 X290.048 Y178.296
G0 X289.466 Y178.246
G0 X288.884 Y178.296
G0 X288.319 Y178.448
G0 X287.790 Y178.695
G0 X287.718 Y178.745
G0 X287.083 Y178.751
G0 F3000 E32.32532
;segType:HShell
G1 X287.609 Y178.382 E32.34242 F2400
G1 X288.196 Y178.108 E32.35964
G1 X288.821 Y177.941 E32.37687
G1 X289.466 Y177.884 E32.39409
G1 X290.111 Y177.941 E32.41132
G1 X290.736 Y178.108 E32.42855
G1 X291.323 Y178.382 E32.44576
G1 X291.853 Y178.753 E32.46301
G1 X292.311 Y179.211 E32.48023
G1 X292.682 Y179.741 E32.49745
G1 X292.956 Y180.328 E32.51468
G1 X293.124 Y180.953 E32.53191
G1 X293.180 Y181.598 E32.54913
G1 X293.123 Y182.244 E32.56637
G1 X292.956 Y182.868 E32.58358
G1 X292.683 Y183.455 E32.60082
G1 X292.311 Y183.986 E32.61805
G1 X291.854 Y184.443 E32.63526
G1 X291.323 Y184.815 E32.65250
G1 X290.736 Y185.088 E32.66972
G1 X290.111 Y185.256 E32.68695
G1 X289.466 Y185.312 E32.70418
G1 X288.821 Y185.256 E32.72140
G1 X288.195 Y185.088 E32.73864
G1 X287.609 Y184.815 E32.75585
G1 X287.078 Y184.443 E32.77309
G1 X286.621 Y183.986 E32.79031
G1 X286.249 Y183.455 E32.80753
G1 X285.976 Y182.868 E32.82477
G1 X285.808 Y182.244 E32.84197
G1 X285.752 Y181.598 E32.85922
G1 X285.808 Y180.953 E32.87644
G1 X285.976 Y180.328 E32.89366
G1 X286.249 Y179.741 E32.91088
G1 X286.621 Y179.211 E32.92811
G1 X286.941 Y178.891 E32.94014
G0 X286.430 Y180.686 F5400
;segType:Perimeter
G1 X286.945 Y180.073 E32.96675 F1439
G1 X287.205 Y179.702 E32.98185
G1 X287.569 Y179.338 E32.99897
G1 X287.990 Y179.043 E33.01608
G1 X288.457 Y178.825 E33.03319
G1 X288.954 Y178.692 E33.05030
G1 X289.466 Y178.647 E33.06741
G1 X289.978 Y178.692 E33.08452
G1 X290.475 Y178.825 E33.10163
G1 X290.941 Y179.043 E33.11874
G1 X291.363 Y179.338 E33.13585
G1 X291.727 Y179.701 E33.15296
G1 X292.022 Y180.123 E33.17007
G1 X292.239 Y180.589 E33.18718
G1 X292.372 Y181.086 E33.20429
G1 X292.417 Y181.598 E33.22139
G1 X292.372 Y182.111 E33.23852
G1 X292.239 Y182.608 E33.25562
G1 X292.022 Y183.074 E33.27273
G1 X291.727 Y183.495 E33.28984
G1 X291.363 Y183.859 E33.30695
G1 X290.941 Y184.154 E33.32406
G1 X290.475 Y184.371 E33.34117
G1 X289.978 Y184.505 E33.35828
G1 X289.466 Y184.549 E33.37539
G1 X288.954 Y184.505 E33.39250
G1 X288.457 Y184.371 E33.40960
G1 X287.990 Y184.154 E33.42671
G1 X287.569 Y183.859 E33.44383
G1 X287.205 Y183.495 E33.46094
G1 X286.910 Y183.074 E33.47804
G1 X286.693 Y182.608 E33.49516
G1 X286.560 Y182.111 E33.51226
G1 X286.515 Y181.598 E33.52938
G1 X286.560 Y181.086 E33.54648
G1 X286.693 Y180.589 E33.56359
G1 X286.885 Y180.177 E33.57871
G0 X286.945 Y180.073 F5400
G0 X287.205 Y179.702
G0 X287.569 Y179.338
G0 X287.990 Y179.043
G0 X288.096 Y178.993
G0 F3000 E32.57871
G0 X287.790 Y178.695 F5400
G0 X287.355 Y178.999
G0 X44.783 Y180.961
G0 X44.798 Y181.016
G0 X45.154 Y180.958
G0 F3000 E33.57871
;segType:HShell
G1 X45.210 Y181.598 E33.59582 F2400
G1 X45.154 Y182.243 E33.61305
G1 X44.986 Y182.868 E33.63027
G1 X44.713 Y183.456 E33.64750
G1 X44.341 Y183.986 E33.66473
G1 X43.883 Y184.443 E33.68195
G1 X43.353 Y184.815 E33.69918
G1 X42.766 Y185.088 E33.71640
G1 X42.141 Y185.256 E33.73364
G1 X41.496 Y185.312 E33.75086
G1 X40.851 Y185.256 E33.76808
G1 X40.226 Y185.088 E33.78531
G1 X39.639 Y184.815 E33.80254
G1 X39.109 Y184.443 E33.81976
G1 X38.651 Y183.986 E33.83698
G1 X38.279 Y183.456 E33.85421
G1 X38.006 Y182.868 E33.87145
G1 X37.838 Y182.243 E33.88867
G1 X37.782 Y181.598 E33.90590
G1 X37.838 Y180.953 E33.92313
G1 X38.006 Y180.328 E33.94034
G1 X38.279 Y179.741 E33.95758
G1 X38.651 Y179.211 E33.97481
G1 X39.109 Y178.753 E33.99203
G1 X39.639 Y178.382 E34.00926
G1 X40.226 Y178.108 E34.02648
G1 X40.851 Y177.941 E34.04371
G1 X41.496 Y177.884 E34.06093
G1 X42.141 Y177.941 E34.07816
G1 X42.766 Y178.108 E34.09539
G1 X43.353 Y178.382 E34.11261
G1 X43.883 Y178.753 E34.12984
G1 X44.341 Y179.211 E34.14706
G1 X44.713 Y179.741 E34.16429
G1 X44.986 Y180.328 E34.18152
G1 X45.103 Y180.764 E34.19354
G0 X43.803 Y179.425 F5400
;segType:Perimeter
G1 X44.077 Y180.177 E34.22015 F1439
G1 X44.269 Y180.589 E34.23527
G1 X44.402 Y181.086 E34.25237
G1 X44.447 Y181.598 E34.26948
G1 X44.402 Y182.111 E34.28659
G1 X44.269 Y182.608 E34.30369
G1 X44.052 Y183.074 E34.32081
G1 X43.757 Y183.495 E34.33791
G1 X43.393 Y183.859 E34.35502
G1 X42.972 Y184.154 E34.37214
G1 X42.505 Y184.371 E34.38925
G1 X42.008 Y184.505 E34.40636
G1 X41.496 Y184.549 E34.42347
G1 X40.984 Y184.505 E34.44058
G1 X40.487 Y184.371 E34.45769
G1 X40.020 Y184.154 E34.47480
G1 X39.599 Y183.859 E34.49191
G1 X39.235 Y183.495 E34.50902
G1 X38.940 Y183.074 E34.52612
G1 X38.723 Y182.608 E34.54324
G1 X38.590 Y182.111 E34.56034
G1 X38.545 Y181.598 E34.57745
G1 X38.590 Y181.086 E34.59457
G1 X38.723 Y180.589 E34.61167
G1 X38.940 Y180.123 E34.62879
G1 X39.235 Y179.701 E34.64589
G1 X39.599 Y179.338 E34.66300
G1 X40.020 Y179.043 E34.68011
G1 X40.487 Y178.825 E34.69722
G1 X40.984 Y178.692 E34.71433
G1 X41.496 Y178.647 E34.73144
G1 X42.008 Y178.692 E34.74855
G1 X42.505 Y178.825 E34.76566
G1 X42.972 Y179.043 E34.78277
G1 X43.393 Y179.338 E34.79988
G1 X43.757 Y179.701 E34.81699
G1 X44.017 Y180.074 E34.83210
G0 X44.077 Y180.177 F5400
G0 X44.269 Y180.589
G0 X44.402 Y181.086
G0 X44.447 Y181.598
G0 X44.437 Y181.715
G0 X44.849 Y181.598
G0 X45.541 Y180.854
;segType:HShell
G1 X45.549 Y180.883 E34.83311 F2400
G1 X45.612 Y181.598 E34.85699
G1 X45.549 Y182.313 E34.88085
G1 X45.364 Y183.006 E34.90469
G1 X45.060 Y183.656 E34.92857
G1 X44.649 Y184.244 E34.95244
G1 X44.141 Y184.751 E34.97629
G1 X43.554 Y185.162 E35.00015
G1 X42.904 Y185.466 E35.02400
G1 X42.211 Y185.651 E35.04787
G1 X41.496 Y185.714 E35.07173
G1 X40.781 Y185.651 E35.09559
G1 X40.088 Y185.466 E35.11945
G1 X39.438 Y185.162 E35.14331
G1 X38.850 Y184.751 E35.16718
G1 X38.343 Y184.244 E35.19103
G1 X37.932 Y183.656 E35.21489
G1 X37.628 Y183.006 E35.23877
G1 X37.443 Y182.313 E35.26261
G1 X37.380 Y181.598 E35.28647
G1 X37.443 Y180.884 E35.31034
G1 X37.628 Y180.191 E35.33418
G1 X37.932 Y179.540 E35.35806
G1 X38.343 Y178.953 E35.38192
G1 X38.850 Y178.446 E35.40577
G1 X39.438 Y178.034 E35.42964
G1 X40.088 Y177.731 E35.45349
G1 X40.781 Y177.545 E35.47736
G1 X41.496 Y177.483 E35.50122
G1 X42.211 Y177.545 E35.52508
G1 X42.904 Y177.731 E35.54895
G1 X43.554 Y178.034 E35.57281
G1 X44.141 Y178.446 E35.59667
G1 X44.649 Y178.953 E35.62053
G1 X45.060 Y179.541 E35.64440
G1 X45.363 Y180.191 E35.66826
G1 X45.489 Y180.661 E35.68444
G0 X45.927 Y180.750 F5400
G1 X45.944 Y180.813 E35.68661 F2400
G1 X46.013 Y181.598 E35.71282
G1 X45.944 Y182.383 E35.73901
G1 X45.741 Y183.143 E35.76518
G1 X45.408 Y183.857 E35.79139
G1 X44.956 Y184.502 E35.81759
G1 X44.400 Y185.059 E35.84376
G1 X43.755 Y185.510 E35.86995
G1 X43.041 Y185.843 E35.89613
G1 X42.280 Y186.047 E35.92234
G1 X41.496 Y186.115 E35.94853
G1 X40.712 Y186.047 E35.97471
G1 X39.951 Y185.843 E36.00091
G1 X39.237 Y185.510 E36.02709
G1 X38.592 Y185.058 E36.05328
G1 X38.036 Y184.502 E36.07945
G1 X37.584 Y183.857 E36.10564
G1 X37.251 Y183.143 E36.13185
G1 X37.048 Y182.383 E36.15802
G1 X36.979 Y181.598 E36.18422
G1 X37.048 Y180.814 E36.21041
G1 X37.251 Y180.054 E36.23658
G1 X37.584 Y179.340 E36.26279
G1 X38.036 Y178.695 E36.28898
G1 X38.592 Y178.138 E36.31516
G1 X39.237 Y177.686 E36.34135
G1 X39.951 Y177.354 E36.36753
G1 X40.712 Y177.150 E36.39373
G1 X41.496 Y177.081 E36.41991
G1 X42.280 Y177.150 E36.44610
G1 X43.041 Y177.354 E36.47230
G1 X43.755 Y177.686 E36.49848
G1 X44.400 Y178.138 E36.52467
G1 X44.956 Y178.695 E36.55085
G1 X45.408 Y179.340 E36.57706
G1 X45.741 Y180.054 E36.60325
G1 X45.876 Y180.557 E36.62058
G0 X46.314 Y180.647 F5400
G1 X46.340 Y180.744 E36.62392 F2400
G1 X46.415 Y181.598 E36.65246
G1 X46.340 Y182.453 E36.68098
G1 X46.118 Y183.280 E36.70947
G1 X45.756 Y184.058 E36.73802
G1 X45.264 Y184.760 E36.76653
G1 X44.658 Y185.366 E36.79504
G1 X43.955 Y185.858 E36.82356
G1 X43.179 Y186.220 E36.85206
G1 X42.350 Y186.442 E36.88060
G1 X41.496 Y186.517 E36.90912
G1 X40.642 Y186.442 E36.93762
G1 X39.813 Y186.220 E36.96615
G1 X39.037 Y185.858 E36.99466
G1 X38.334 Y185.366 E37.02318
G1 X37.728 Y184.760 E37.05168
G1 X37.236 Y184.058 E37.08020
G1 X36.874 Y183.280 E37.10874
G1 X36.652 Y182.453 E37.13723
G1 X36.577 Y181.598 E37.16576
G1 X36.652 Y180.744 E37.19428
G1 X36.874 Y179.916 E37.22277
G1 X37.236 Y179.139 E37.25131
G1 X37.728 Y178.436 E37.27983
G1 X38.334 Y177.831 E37.30834
G1 X39.037 Y177.339 E37.33685
G1 X39.813 Y176.976 E37.36536
G1 X40.642 Y176.754 E37.39389
G1 X41.496 Y176.680 E37.42240
G1 X42.350 Y176.754 E37.45091
G1 X43.178 Y176.976 E37.47944
G1 X43.955 Y177.339 E37.50795
G1 X44.658 Y177.831 E37.53647
G1 X45.264 Y178.437 E37.56498
G1 X45.756 Y179.139 E37.59351
G1 X46.118 Y179.917 E37.62203
G1 X46.262 Y180.453 E37.64052
G0 X46.700 Y180.543 F5400
G1 X46.735 Y180.674 E37.64502 F2400
G1 X46.816 Y181.598 E37.67590
G1 X46.735 Y182.522 E37.70675
G1 X46.496 Y183.417 E37.73757
G1 X46.103 Y184.259 E37.76844
G1 X45.571 Y185.018 E37.79929
G1 X44.916 Y185.674 E37.83012
G1 X44.156 Y186.206 E37.86096
G1 X43.841 Y186.353 E37.87254
G1 X43.895 Y186.538 E37.87896
G1 X287.004 Y186.538 E45.96479
G1 X287.069 Y186.329 E45.97209
G1 X286.806 Y186.206 E45.98174
G1 X286.046 Y185.673 E46.01262
G1 X285.391 Y185.018 E46.04343
G1 X284.858 Y184.259 E46.07429
G1 X284.466 Y183.418 E46.10514
G1 X284.227 Y182.522 E46.13597
G1 X284.146 Y181.598 E46.16683
G1 X284.227 Y180.675 E46.19766
G1 X284.466 Y179.779 E46.22850
G1 X284.858 Y178.938 E46.25936
G1 X285.390 Y178.178 E46.29021
G1 X286.046 Y177.523 E46.32103
G1 X286.806 Y176.991 E46.35189
G1 X287.115 Y176.847 E46.36324
G1 X287.004 Y176.659 E46.37051
G1 X43.895 Y176.659 E54.45634
G1 X43.883 Y176.864 E54.46317
G1 X44.156 Y176.991 E54.47320
G1 X44.916 Y177.523 E54.50404
G1 X45.571 Y178.178 E54.53487
G1 X46.104 Y178.938 E54.56574
G1 X46.495 Y179.779 E54.59659
G1 X46.648 Y180.350 E54.61623
G0 X47.086 Y180.439 F5400
G1 X47.131 Y180.604 E54.62190 F2400
G1 X47.218 Y181.598 E54.65510
G1 X47.131 Y182.592 E54.68828
G1 X46.873 Y183.555 E54.72142
G1 X46.451 Y184.460 E54.75463
G1 X45.879 Y185.276 E54.78780
G1 X45.227 Y185.928 E54.81847
G1 X45.266 Y186.138 E54.82556
G1 X285.632 Y186.138 E62.82016
G1 X285.762 Y185.955 E62.82761
G1 X285.083 Y185.277 E62.85953
G1 X284.510 Y184.459 E62.89273
G1 X284.089 Y183.555 E62.92591
G1 X283.831 Y182.592 E62.95906
G1 X283.744 Y181.598 E62.99225
G1 X283.831 Y180.605 E63.02542
G1 X284.089 Y179.642 E63.05858
G1 X284.511 Y178.737 E63.09177
G1 X285.083 Y177.920 E63.12495
G1 X285.731 Y177.272 E63.15542
G1 X285.632 Y177.059 E63.16324
G1 X45.266 Y177.059 E71.15784
G1 X45.193 Y177.234 E71.16418
G1 X45.879 Y177.920 E71.19644
G1 X46.452 Y178.738 E71.22963
G1 X46.872 Y179.642 E71.26281
G1 X47.035 Y180.246 E71.28362
G0 X47.859 Y180.232 F5400
G1 X47.921 Y180.464 E71.29161 F2400
G1 X48.021 Y181.598 E71.32948
G1 X47.921 Y182.732 E71.36731
G1 X47.628 Y183.829 E71.40510
G1 X47.147 Y184.861 E71.44297
G1 X46.981 Y185.097 E71.45256
G1 X47.004 Y185.338 E71.46060
G1 X283.895 Y185.338 E79.33965
G1 X284.002 Y185.128 E79.34748
G1 X283.815 Y184.861 E79.35836
G1 X283.335 Y183.830 E79.39619
G1 X283.040 Y182.731 E79.43401
G1 X282.941 Y181.598 E79.47184
G1 X283.040 Y180.465 E79.50967
G1 X283.335 Y179.367 E79.54749
G1 X283.815 Y178.335 E79.58534
G1 X284.030 Y178.028 E79.59781
G1 X283.895 Y177.859 E79.60503
G1 X47.004 Y177.859 E87.48407
G1 X46.953 Y178.060 E87.49097
G1 X47.147 Y178.336 E87.50219
G1 X47.627 Y179.368 E87.54002
G1 X47.807 Y180.039 E87.56314
G0 X48.142 Y178.810 F5400
;segType:InnerHair
G1 X48.221 Y178.861 E87.56552 F2400
G1 X48.300 Y178.911 E87.56869
G1 X48.379 Y178.961 E87.57263
G1 X48.284 Y178.871 E87.57620
G1 X48.192 Y178.842 E87.57834
G1 X48.142 Y178.810 E87.57934
G0 X47.460 Y178.200 F5400
G1 X47.539 Y178.250 E87.58232 F2400
G1 X47.618 Y178.301 E87.58609
G1 X47.697 Y178.351 E87.59064
G1 X47.552 Y178.259 E87.59635
G1 X47.461 Y178.200 E87.59891
G1 X47.460 Y178.200 E87.59893
G0 X46.727 Y177.814 F5400
G1 X46.782 Y177.843 E87.60086 F2400
G1 X46.867 Y177.887 E87.60451
G1 X46.953 Y177.932 E87.60886
G1 X46.912 Y177.911 E87.61076
G1 X46.821 Y177.863 E87.61427
G1 X46.729 Y177.815 E87.61695
G1 X46.727 Y177.814 E87.61703
G0 X46.181 Y177.530 F5400
G1 X46.089 Y177.482 E87.62086 F2400
G1 X45.998 Y177.465 E87.62405
G1 X45.906 Y177.427 E87.62682
G1 X45.815 Y177.389 E87.62897
G0 X45.088 Y177.088 F5400
G1 X45.084 Y177.086 E87.62917 F2400
G1 X44.992 Y177.072 E87.63245
G1 X44.901 Y177.044 E87.63540
G1 X44.809 Y177.015 E87.63789
G1 X44.718 Y176.986 E87.63992
G0 X43.164 Y176.609 F5400
G1 X43.072 Y176.597 E87.64204 F2400
G1 X42.981 Y176.585 E87.64398
G1 X42.889 Y176.573 E87.64574
G1 X42.798 Y176.561 E87.64731
G0 X43.164 Y176.609 F5400
G1 X43.442 Y176.658 E87.65668 F2400
G1 X43.548 Y176.682 E87.66071
G1 X43.653 Y176.705 E87.66515
G1 X43.759 Y176.729 E87.67002
G1 X43.767 Y176.730 E87.67040
G0 X48.207 Y184.521 F5400
G1 X48.133 Y184.568 E87.67287 F2400
G1 X48.054 Y184.618 E87.67474
G1 X48.101 Y184.588 E87.67612
G1 X48.192 Y184.530 E87.67987
G1 X48.207 Y184.521 E87.68049
G0 X47.507 Y184.967 F5400
G1 X47.552 Y184.938 E87.68229 F2400
G1 X47.659 Y184.870 E87.68795
G1 X47.580 Y184.920 E87.69135
G1 X47.507 Y184.967 E87.69382
G0 X46.708 Y185.392 F5400
G1 X46.729 Y185.381 E87.69446 F2400
G1 X46.821 Y185.334 E87.69796
G1 X46.912 Y185.286 E87.70228
G1 X46.997 Y185.242 E87.70699
G1 X46.912 Y185.286 E87.71100
G1 X46.827 Y185.330 E87.71431
G1 X46.745 Y185.373 E87.71683
G0 X46.136 Y185.674 F5400
G1 X46.045 Y185.712 E87.72054 F2400
G1 X45.953 Y185.750 E87.72363
G1 X45.862 Y185.788 E87.72610
G1 X45.771 Y185.826 E87.72794
G1 X45.815 Y185.807 E87.72899
G1 X45.906 Y185.770 E87.73176
G1 X45.998 Y185.732 E87.73515
G1 X46.089 Y185.714 E87.73862
G1 X46.181 Y185.667 E87.74326
G1 X46.136 Y185.674 E87.74524
G0 X45.221 Y186.052 F5400
G1 X45.123 Y186.083 E87.74960 F2400
G1 X45.025 Y186.114 E87.75343
G1 X44.926 Y186.145 E87.75674
G1 X44.828 Y186.176 E87.75951
G1 X44.730 Y186.207 E87.76174
G0 X44.718 Y186.211 F5400
G0 X44.809 Y186.182
G0 X44.901 Y186.154
G0 X44.992 Y186.125
G0 X45.084 Y186.110
G0 X45.175 Y186.073
G1 X45.221 Y186.052 E87.76414 F2400
G0 X43.814 Y186.456 F5400
G1 X43.709 Y186.479 E87.76881 F2400
G1 X43.603 Y186.503 E87.77306
G1 X43.497 Y186.526 E87.77688
G1 X43.391 Y186.550 E87.78027
G0 X43.164 Y186.587 F5400
G0 X42.798 Y186.635
G1 X42.889 Y186.623 E87.78203 F2400
G1 X42.981 Y186.611 E87.78397
G1 X43.072 Y186.599 E87.78609
G1 X43.164 Y186.587 E87.78841
G0 X43.255 Y186.580 F5400
G0 X43.346 Y186.559
G0 X43.438 Y186.539
G0 X43.529 Y186.519
G0 X43.621 Y186.499
G0 X43.712 Y186.478
G0 X43.804 Y186.458
G1 X43.814 Y186.456 E87.78893 F2400
G0 X208.375 Y181.638 F5400
G1 X208.284 Y181.638 E87.79350 F2400
G1 X208.192 Y181.638 E87.79806
G1 X208.101 Y181.638 E87.80261
G1 X208.009 Y181.638 E87.80717
G1 X207.918 Y181.638 E87.81172
G1 X207.826 Y181.638 E87.81628
G1 X207.735 Y181.638 E87.82083
G1 X207.644 Y181.638 E87.82539
G1 X207.552 Y181.638 E87.82994
G1 X207.461 Y181.638 E87.83450
G1 X207.369 Y181.639 E87.83905
G1 X207.278 Y181.639 E87.84361
G1 X207.186 Y181.639 E87.84816
G1 X207.095 Y181.639 E87.85271
G1 X207.004 Y181.639 E87.85725
G1 X206.912 Y181.639 E87.86180
G1 X206.821 Y181.639 E87.86635
G1 X206.729 Y181.639 E87.87090
G1 X206.638 Y181.639 E87.87544
G1 X206.546 Y181.639 E87.87999
G1 X206.455 Y181.639 E87.88454
G1 X206.364 Y181.639 E87.88908
G1 X206.272 Y181.639 E87.89363
G1 X206.181 Y181.639 E87.89817
G1 X206.089 Y181.639 E87.90271
G1 X205.998 Y181.639 E87.90725
G1 X205.906 Y181.639 E87.91179
G1 X205.815 Y181.639 E87.91633
G1 X205.724 Y181.639 E87.92087
G1 X205.632 Y181.639 E87.92541
G1 X205.541 Y181.640 E87.92995
G1 X205.449 Y181.640 E87.93449
G1 X205.358 Y181.640 E87.93903
G1 X205.266 Y181.640 E87.94357
G1 X205.175 Y181.640 E87.94810
G1 X205.084 Y181.640 E87.95263
G1 X204.992 Y181.640 E87.95716
G1 X204.901 Y181.640 E87.96169
G1 X204.809 Y181.640 E87.96622
G1 X204.718 Y181.640 E87.97076
G1 X204.626 Y181.640 E87.97529
G1 X204.535 Y181.640 E87.97982
G1 X204.444 Y181.640 E87.98435
G1 X204.352 Y181.640 E87.98888
G1 X204.261 Y181.640 E87.99341
G1 X204.169 Y181.640 E87.99793
G1 X204.078 Y181.640 E88.00246
G1 X203.986 Y181.640 E88.00698
G1 X203.895 Y181.640 E88.01151
G1 X203.804 Y181.640 E88.01603
G1 X203.712 Y181.640 E88.02055
G1 X203.621 Y181.641 E88.02508
G1 X203.529 Y181.641 E88.02960
G1 X203.438 Y181.641 E88.03413
G1 X203.346 Y181.641 E88.03865
G1 X203.255 Y181.641 E88.04317
G1 X203.164 Y181.641 E88.04768
G1 X203.072 Y181.641 E88.05220
G1 X202.981 Y181.641 E88.05672
G1 X202.889 Y181.641 E88.06123
G1 X202.798 Y181.641 E88.06575
G1 X202.706 Y181.641 E88.07027
G1 X202.615 Y181.641 E88.07478
G1 X202.524 Y181.641 E88.07930
G1 X202.432 Y181.641 E88.08382
G1 X202.341 Y181.641 E88.08833
G1 X202.249 Y181.641 E88.09283
G1 X202.158 Y181.641 E88.09734
G1 X202.066 Y181.641 E88.10185
G1 X201.975 Y181.641 E88.10636
G1 X201.884 Y181.641 E88.11087
G1 X201.792 Y181.641 E88.11538
G1 X201.701 Y181.642 E88.11989
G1 X201.609 Y181.642 E88.12440
G1 X201.518 Y181.642 E88.12890
G1 X201.426 Y181.642 E88.13340
G1 X201.335 Y181.642 E88.13790
G1 X201.244 Y181.642 E88.14240
G1 X201.152 Y181.642 E88.14690
G1 X201.061 Y181.642 E88.15141
G1 X200.969 Y181.642 E88.15591
G1 X200.878 Y181.642 E88.16041
G1 X200.786 Y181.642 E88.16491
G1 X200.695 Y181.642 E88.16941
G1 X200.604 Y181.642 E88.17391
G1 X200.512 Y181.642 E88.17841
G1 X200.421 Y181.642 E88.18291
G1 X200.329 Y181.642 E88.18740
G1 X200.238 Y181.642 E88.19189
G1 X200.146 Y181.642 E88.19639
G1 X200.055 Y181.642 E88.20088
G1 X199.964 Y181.642 E88.20538
G1 X199.872 Y181.643 E88.20987
G1 X199.781 Y181.643 E88.21436
G1 X199.689 Y181.643 E88.21886
G1 X199.598 Y181.643 E88.22334
G1 X199.506 Y181.643 E88.22784
G1 X199.415 Y181.643 E88.23232
G1 X199.324 Y181.643 E88.23681
G1 X199.232 Y181.643 E88.24129
G1 X199.141 Y181.643 E88.24578
G1 X199.049 Y181.643 E88.25027
G1 X198.958 Y181.643 E88.25475
G1 X198.866 Y181.643 E88.25924
G1 X198.775 Y181.643 E88.26373
G1 X198.684 Y181.643 E88.26821
G1 X198.592 Y181.643 E88.27270
G1 X198.501 Y181.643 E88.27718
G1 X198.409 Y181.643 E88.28165
G1 X198.318 Y181.643 E88.28613
G1 X198.226 Y181.643 E88.29061
G1 X198.135 Y181.643 E88.29509
G1 X198.044 Y181.643 E88.29957
G1 X197.952 Y181.644 E88.30405
G1 X197.861 Y181.644 E88.30853
G1 X197.769 Y181.644 E88.31300
G1 X197.678 Y181.644 E88.31747
G1 X197.586 Y181.644 E88.32195
G1 X197.495 Y181.644 E88.32642
G1 X197.404 Y181.644 E88.33089
G1 X197.312 Y181.644 E88.33537
G1 X197.221 Y181.644 E88.33984
G1 X197.129 Y181.644 E88.34431
G1 X197.038 Y181.644 E88.34878
G1 X196.946 Y181.644 E88.35325
G1 X196.855 Y181.644 E88.35772
G1 X196.764 Y181.644 E88.36219
G1 X196.672 Y181.644 E88.36666
G1 X196.581 Y181.644 E88.37112
G1 X196.489 Y181.644 E88.37559
G1 X196.398 Y181.644 E88.38005
G1 X196.306 Y181.644 E88.38451
G1 X196.215 Y181.644 E88.38898
G1 X196.124 Y181.644 E88.39344
G1 X196.032 Y181.645 E88.39790
G1 X195.941 Y181.645 E88.40237
G1 X195.849 Y181.645 E88.40683
G1 X195.758 Y181.645 E88.41129
G1 X195.666 Y181.645 E88.41574
G1 X195.575 Y181.645 E88.42020
G1 X195.484 Y181.645 E88.42465
G1 X195.392 Y181.645 E88.42911
G1 X195.301 Y181.645 E88.43356
G1 X195.209 Y181.645 E88.43802
G1 X195.118 Y181.645 E88.44247
G1 X195.026 Y181.645 E88.44693
G1 X194.935 Y181.645 E88.45139
G1 X194.844 Y181.645 E88.45584
G1 X194.752 Y181.645 E88.46029
G1 X194.661 Y181.645 E88.46474
G1 X194.569 Y181.645 E88.46918
G1 X194.478 Y181.645 E88.47363
G1 X194.386 Y181.645 E88.47808
G1 X194.295 Y181.645 E88.48253
G1 X194.204 Y181.646 E88.48698
G1 X194.112 Y181.646 E88.49142
G1 X194.021 Y181.646 E88.49587
G1 X193.929 Y181.646 E88.50032
G1 X193.838 Y181.646 E88.50476
G1 X193.746 Y181.646 E88.50920
G1 X193.655 Y181.646 E88.51364
G1 X193.564 Y181.646 E88.51808
G1 X193.472 Y181.646 E88.52252
G1 X193.381 Y181.646 E88.52696
G1 X193.289 Y181.646 E88.53140
G1 X193.198 Y181.646 E88.53584
G1 X193.106 Y181.646 E88.54028
G1 X193.015 Y181.646 E88.54472
G1 X192.924 Y181.646 E88.54916
G1 X192.832 Y181.646 E88.55359
G1 X192.741 Y181.646 E88.55802
G1 X192.649 Y181.646 E88.56245
G1 X192.558 Y181.646 E88.56689
G1 X192.466 Y181.646 E88.57132
G1 X192.375 Y181.646 E88.57575
G1 X192.284 Y181.647 E88.58018
G1 X192.192 Y181.647 E88.58462
G1 X192.101 Y181.647 E88.58905
G1 X192.009 Y181.647 E88.59348
G1 X191.918 Y181.647 E88.59791
G1 X191.826 Y181.647 E88.60233
G1 X191.735 Y181.647 E88.60676
G1 X191.644 Y181.647 E88.61118
G1 X191.552 Y181.647 E88.61561
G1 X191.461 Y181.647 E88.62003
G1 X191.369 Y181.647 E88.62446
G1 X191.278 Y181.647 E88.62888
G1 X191.186 Y181.647 E88.63331
G1 X191.095 Y181.647 E88.63773
G1 X191.004 Y181.647 E88.64215
G1 X190.912 Y181.647 E88.64657
G1 X190.821 Y181.647 E88.65099
G1 X190.729 Y181.647 E88.65540
G1 X190.638 Y181.647 E88.65982
G1 X190.546 Y181.647 E88.66424
G1 X190.455 Y181.647 E88.66866
G1 X190.364 Y181.648 E88.67307
G1 X190.272 Y181.648 E88.67749
G1 X190.181 Y181.648 E88.68191
G1 X190.089 Y181.648 E88.68632
G1 X189.998 Y181.648 E88.69073
G1 X189.906 Y181.648 E88.69514
G1 X189.815 Y181.648 E88.69955
G1 X189.724 Y181.648 E88.70396
G1 X189.632 Y181.648 E88.70837
G1 X189.541 Y181.648 E88.71278
G1 X189.449 Y181.648 E88.71719
G1 X189.358 Y181.648 E88.72160
G1 X189.266 Y181.648 E88.72601
G1 X189.175 Y181.648 E88.73041
G1 X189.084 Y181.648 E88.73481
G1 X188.992 Y181.648 E88.73921
G1 X188.901 Y181.648 E88.74361
G1 X188.809 Y181.648 E88.74802
G1 X188.718 Y181.648 E88.75242
G1 X188.626 Y181.648 E88.75682
G1 X188.535 Y181.649 E88.76122
G1 X188.444 Y181.649 E88.76562
G1 X188.352 Y181.649 E88.77003
G1 X188.261 Y181.649 E88.77443
G1 X188.169 Y181.649 E88.77882
G1 X188.078 Y181.649 E88.78322
G1 X187.986 Y181.649 E88.78761
G1 X187.895 Y181.649 E88.79201
G1 X187.804 Y181.649 E88.79640
G1 X187.712 Y181.649 E88.80080
G1 X187.621 Y181.649 E88.80519
G1 X187.529 Y181.649 E88.80959
G1 X187.438 Y181.649 E88.81398
G1 X187.346 Y181.649 E88.81837
G1 X187.255 Y181.649 E88.82276
G1 X187.164 Y181.649 E88.82715
G1 X187.072 Y181.649 E88.83154
G1 X186.981 Y181.649 E88.83592
G1 X186.889 Y181.649 E88.84031
G1 X186.798 Y181.649 E88.84470
G1 X186.706 Y181.649 E88.84908
G1 X186.615 Y181.650 E88.85347
G1 X186.524 Y181.650 E88.85786
G1 X186.432 Y181.650 E88.86224
G1 X186.341 Y181.650 E88.86663
G1 X186.249 Y181.650 E88.87101
G1 X186.158 Y181.650 E88.87539
G1 X186.066 Y181.650 E88.87977
G1 X185.975 Y181.650 E88.88415
G1 X185.884 Y181.650 E88.88853
G1 X185.792 Y181.650 E88.89291
G1 X185.701 Y181.650 E88.89729
G1 X185.609 Y181.650 E88.90166
G1 X185.518 Y181.650 E88.90604
G1 X185.426 Y181.650 E88.91042
G1 X185.335 Y181.650 E88.91479
G1 X185.244 Y181.650 E88.91916
G1 X185.152 Y181.650 E88.92353
G1 X185.061 Y181.650 E88.92790
G1 X184.969 Y181.650 E88.93227
G1 X184.878 Y181.650 E88.93665
G1 X184.786 Y181.651 E88.94102
G1 X184.695 Y181.651 E88.94539
G1 X184.604 Y181.651 E88.94976
G1 X184.512 Y181.651 E88.95412
G1 X184.421 Y181.651 E88.95849
G1 X184.329 Y181.651 E88.96285
G1 X184.238 Y181.651 E88.96722
G1 X184.146 Y181.651 E88.97158
G1 X184.055 Y181.651 E88.97594
G1 X183.964 Y181.651 E88.98031
G1 X183.872 Y181.651 E88.98467
G1 X183.781 Y181.651 E88.98904
G1 X183.689 Y181.651 E88.99340
G1 X183.598 Y181.651 E88.99776
G1 X183.506 Y181.651 E89.00212
G1 X183.415 Y181.651 E89.00648
G1 X183.324 Y181.651 E89.01083
G1 X183.232 Y181.651 E89.01519
G1 X183.141 Y181.651 E89.01955
G1 X183.049 Y181.651 E89.02390
G1 X182.958 Y181.651 E89.02826
G1 X182.866 Y181.652 E89.03262
G1 X182.775 Y181.652 E89.03697
G1 X182.684 Y181.652 E89.04133
G1 X182.592 Y181.652 E89.04568
G1 X182.501 Y181.652 E89.05003
G1 X182.409 Y181.652 E89.05438
G1 X182.318 Y181.652 E89.05873
G1 X182.226 Y181.652 E89.06308
G1 X182.135 Y181.652 E89.06743
G1 X182.044 Y181.652 E89.07178
G1 X181.952 Y181.652 E89.07613
G1 X181.861 Y181.652 E89.08047
G1 X181.769 Y181.652 E89.08482
G1 X181.678 Y181.652 E89.08917
G1 X181.586 Y181.652 E89.09351
G1 X181.495 Y181.652 E89.09785
G1 X181.404 Y181.652 E89.10220
G1 X181.312 Y181.652 E89.10654
G1 X181.221 Y181.652 E89.11088
G1 X181.129 Y181.652 E89.11522
G1 X181.038 Y181.653 E89.11956
G1 X180.946 Y181.653 E89.12390
G1 X180.855 Y181.653 E89.12824
G1 X180.764 Y181.653 E89.13258
G1 X180.672 Y181.653 E89.13692
G1 X180.581 Y181.653 E89.14126
G1 X180.489 Y181.653 E89.14559
G1 X180.398 Y181.653 E89.14993
G1 X180.306 Y181.653 E89.15426
G1 X180.215 Y181.653 E89.15859
G1 X180.124 Y181.653 E89.16293
G1 X180.032 Y181.653 E89.16726
G1 X179.941 Y181.653 E89.17159
G1 X179.849 Y181.653 E89.17593
G1 X179.758 Y181.653 E89.18026
G1 X179.666 Y181.653 E89.18459
G1 X179.575 Y181.653 E89.18891
G1 X179.484 Y181.653 E89.19324
G1 X179.392 Y181.653 E89.19756
G1 X179.301 Y181.653 E89.20189
G1 X179.209 Y181.653 E89.20621
G1 X179.118 Y181.654 E89.21054
G1 X179.026 Y181.654 E89.21487
G1 X178.935 Y181.654 E89.21919
G1 X178.844 Y181.654 E89.22352
G1 X178.752 Y181.654 E89.22784
G1 X178.661 Y181.654 E89.23217
G1 X178.569 Y181.654 E89.23649
G1 X178.478 Y181.654 E89.24081
G1 X178.386 Y181.654 E89.24512
G1 X178.295 Y181.654 E89.24944
G1 X178.204 Y181.654 E89.25376
G1 X178.112 Y181.654 E89.25808
G1 X178.021 Y181.654 E89.26240
G1 X177.929 Y181.654 E89.26672
G1 X177.838 Y181.654 E89.27103
G1 X177.746 Y181.654 E89.27534
G1 X177.655 Y181.654 E89.27966
G1 X177.564 Y181.654 E89.28397
G1 X177.472 Y181.654 E89.28828
G1 X177.381 Y181.654 E89.29259
G1 X177.289 Y181.654 E89.29690
G1 X177.198 Y181.655 E89.30121
G1 X177.106 Y181.655 E89.30552
G1 X177.015 Y181.655 E89.30983
G1 X176.924 Y181.655 E89.31413
G1 X176.832 Y181.655 E89.31844
G1 X176.741 Y181.655 E89.32274
G1 X176.649 Y181.655 E89.32704
G1 X176.558 Y181.655 E89.33134
G1 X176.466 Y181.655 E89.33565
G1 X176.375 Y181.655 E89.33995
G1 X176.284 Y181.655 E89.34425
G1 X176.192 Y181.655 E89.34856
G1 X176.101 Y181.655 E89.35286
G1 X176.009 Y181.655 E89.35716
G1 X175.918 Y181.655 E89.36147
G1 X175.826 Y181.655 E89.36576
G1 X175.735 Y181.655 E89.37006
G1 X175.644 Y181.655 E89.37435
G1 X175.552 Y181.655 E89.37865
G1 X175.461 Y181.655 E89.38294
G1 X175.369 Y181.656 E89.38724
G1 X175.278 Y181.656 E89.39153
G1 X175.186 Y181.656 E89.39583
G1 X175.095 Y181.656 E89.40012
G1 X175.004 Y181.656 E89.40441
G1 X174.912 Y181.656 E89.40871
G1 X174.821 Y181.656 E89.41299
G1 X174.729 Y181.656 E89.41728
G1 X174.638 Y181.656 E89.42157
G1 X174.546 Y181.656 E89.42586
G1 X174.455 Y181.656 E89.43015
G1 X174.364 Y181.656 E89.43443
G1 X174.272 Y181.656 E89.43872
G1 X174.181 Y181.656 E89.44301
G1 X174.089 Y181.656 E89.44730
G1 X173.998 Y181.656 E89.45158
G1 X173.906 Y181.656 E89.45586
G1 X173.815 Y181.656 E89.46014
G1 X173.724 Y181.656 E89.46442
G1 X173.632 Y181.656 E89.46870
G1 X173.541 Y181.656 E89.47298
G1 X173.449 Y181.657 E89.47726
G1 X173.358 Y181.657 E89.48154
G1 X173.266 Y181.657 E89.48582
G1 X173.175 Y181.657 E89.49010
G1 X173.084 Y181.657 E89.49438
G1 X172.992 Y181.657 E89.49866
G1 X172.901 Y181.657 E89.50293
G1 X172.809 Y181.657 E89.50720
G1 X172.718 Y181.657 E89.51147
G1 X172.626 Y181.657 E89.51575
G1 X172.535 Y181.657 E89.52002
G1 X172.444 Y181.657 E89.52429
G1 X172.352 Y181.657 E89.52856
G1 X172.261 Y181.657 E89.53284
G1 X172.169 Y181.657 E89.53711
G1 X172.078 Y181.657 E89.54137
G1 X171.986 Y181.657 E89.54564
G1 X171.895 Y181.657 E89.54990
G1 X171.804 Y181.657 E89.55417
G1 X171.712 Y181.657 E89.55843
G1 X171.621 Y181.657 E89.56270
G1 X171.529 Y181.658 E89.56696
G1 X171.438 Y181.658 E89.57123
G1 X171.346 Y181.658 E89.57549
G1 X171.255 Y181.658 E89.57976
G1 X171.164 Y181.658 E89.58401
G1 X171.072 Y181.658 E89.58827
G1 X170.981 Y181.658 E89.59253
G1 X170.889 Y181.658 E89.59679
G1 X170.798 Y181.658 E89.60104
G1 X170.706 Y181.658 E89.60530
G1 X170.615 Y181.658 E89.60956
G1 X170.524 Y181.658 E89.61382
G1 X170.432 Y181.658 E89.61807
G1 X170.341 Y181.658 E89.62233
G1 X170.249 Y181.658 E89.62659
G1 X170.158 Y181.658 E89.63084
G1 X170.066 Y181.658 E89.63509
G1 X169.975 Y181.658 E89.63934
G1 X169.884 Y181.658 E89.64359
G1 X169.792 Y181.658 E89.64783
G1 X169.701 Y181.659 E89.65208
G1 X169.609 Y181.659 E89.65633
G1 X169.518 Y181.659 E89.66058
G1 X169.426 Y181.659 E89.66483
G1 X169.335 Y181.659 E89.66908
G1 X169.244 Y181.659 E89.67332
G1 X169.152 Y181.659 E89.67757
G1 X169.061 Y181.659 E89.68181
G1 X168.969 Y181.659 E89.68605
G1 X168.878 Y181.659 E89.69029
G1 X168.786 Y181.659 E89.69453
G1 X168.695 Y181.659 E89.69878
G1 X168.604 Y181.659 E89.70302
G1 X168.512 Y181.659 E89.70726
G1 X168.421 Y181.659 E89.71150
G1 X168.329 Y181.659 E89.71574
G1 X168.238 Y181.659 E89.71997
G1 X168.146 Y181.659 E89.72421
G1 X168.055 Y181.659 E89.72844
G1 X167.964 Y181.659 E89.73267
G1 X167.872 Y181.659 E89.73691
G1 X167.781 Y181.660 E89.74114
G1 X167.689 Y181.660 E89.74538
G1 X167.598 Y181.660 E89.74961
G1 X167.506 Y181.660 E89.75385
G1 X167.415 Y181.660 E89.75808
G1 X167.324 Y181.660 E89.76231
G1 X167.232 Y181.660 E89.76653
G1 X167.141 Y181.660 E89.77076
G1 X167.049 Y181.660 E89.77499
G1 X166.958 Y181.660 E89.77921
G1 X166.866 Y181.660 E89.78344
G1 X166.775 Y181.660 E89.78767
G1 X166.684 Y181.660 E89.79189
G1 X166.592 Y181.660 E89.79612
G1 X166.501 Y181.660 E89.80034
G1 X166.409 Y181.660 E89.80456
G1 X166.318 Y181.660 E89.80878
G1 X166.226 Y181.660 E89.81300
G1 X166.135 Y181.660 E89.81721
G1 X166.044 Y181.660 E89.82143
G1 X165.952 Y181.660 E89.82565
G1 X165.861 Y181.661 E89.82987
G1 X165.769 Y181.661 E89.83409
G1 X165.678 Y181.661 E89.83831
G1 X165.586 Y181.661 E89.84253
G1 X165.495 Y181.661 E89.84674
G1 X165.404 Y181.661 E89.85095
G1 X165.312 Y181.661 E89.85516
G1 X165.221 Y181.661 E89.85938
G1 X165.129 Y181.661 E89.86359
G1 X165.038 Y181.661 E89.86780
G1 X164.946 Y181.661 E89.87201
G1 X164.855 Y181.661 E89.87622
G1 X164.764 Y181.661 E89.88043
G1 X164.672 Y181.661 E89.88464
G1 X164.581 Y181.661 E89.88885
G1 X164.489 Y181.661 E89.89305
G1 X164.398 Y181.661 E89.89725
G1 X164.306 Y181.661 E89.90146
G1 X164.215 Y181.661 E89.90566
G1 X164.124 Y181.661 E89.90987
G1 X164.032 Y181.662 E89.91407
G1 X163.941 Y181.662 E89.91827
G1 X163.849 Y181.662 E89.92248
G1 X163.758 Y181.662 E89.92668
G1 X163.666 Y181.662 E89.93089
G1 X163.575 Y181.662 E89.93508
G1 X163.484 Y181.662 E89.93928
G1 X163.392 Y181.662 E89.94347
G1 X163.301 Y181.662 E89.94767
G1 X163.209 Y181.662 E89.95187
G1 X163.118 Y181.662 E89.95606
G1 X163.026 Y181.662 E89.96026
G1 X162.935 Y181.662 E89.96445
G1 X162.844 Y181.662 E89.96865
G1 X162.752 Y181.662 E89.97285
G1 X162.661 Y181.662 E89.97704
G1 X162.569 Y181.662 E89.98122
G1 X162.478 Y181.662 E89.98541
G1 X162.386 Y181.662 E89.98960
G1 X162.295 Y181.662 E89.99379
G1 X162.204 Y181.662 E89.99798
G1 X162.112 Y181.663 E90.00217
G1 X162.021 Y181.663 E90.00636
G1 X161.929 Y181.663 E90.01054
G1 X161.838 Y181.663 E90.01473
G1 X161.746 Y181.663 E90.01892
G1 X161.655 Y181.663 E90.02310
G1 X161.564 Y181.663 E90.02728
G1 X161.472 Y181.663 E90.03146
G1 X161.381 Y181.663 E90.03564
G1 X161.289 Y181.663 E90.03983
G1 X161.198 Y181.663 E90.04401
G1 X161.106 Y181.663 E90.04819
G1 X161.015 Y181.663 E90.05237
G1 X160.924 Y181.663 E90.05655
G1 X160.832 Y181.663 E90.06073
G1 X160.741 Y181.663 E90.06490
G1 X160.649 Y181.663 E90.06908
G1 X160.558 Y181.663 E90.07325
G1 X160.466 Y181.663 E90.07742
G1 X160.375 Y181.663 E90.08160
G1 X160.284 Y181.664 E90.08577
G1 X160.192 Y181.664 E90.08994
G1 X160.101 Y181.664 E90.09412
G1 X160.009 Y181.664 E90.09829
G1 X159.918 Y181.664 E90.10246
G1 X159.826 Y181.664 E90.10662
G1 X159.735 Y181.664 E90.11079
G1 X159.644 Y181.664 E90.11495
G1 X159.552 Y181.664 E90.11912
G1 X159.461 Y181.664 E90.12328
G1 X159.369 Y181.664 E90.12745
G1 X159.278 Y181.664 E90.13161
G1 X159.186 Y181.664 E90.13578
G1 X159.095 Y181.664 E90.13995
G1 X159.004 Y181.664 E90.14411
G1 X158.912 Y181.664 E90.14828
G1 X158.821 Y181.664 E90.15244
G1 X158.729 Y181.664 E90.15659
G1 X158.638 Y181.664 E90.16075
G1 X158.546 Y181.664 E90.16491
G1 X158.455 Y181.664 E90.16907
G1 X158.364 Y181.665 E90.17323
G1 X158.272 Y181.665 E90.17738
G1 X158.181 Y181.665 E90.18154
G1 X158.089 Y181.665 E90.18570
G1 X157.998 Y181.665 E90.18985
G1 X157.906 Y181.665 E90.19401
G1 X157.815 Y181.665 E90.19816
G1 X157.724 Y181.665 E90.20231
G1 X157.632 Y181.665 E90.20646
G1 X157.541 Y181.665 E90.21061
G1 X157.449 Y181.665 E90.21476
G1 X157.358 Y181.665 E90.21891
G1 X157.266 Y181.665 E90.22306
G1 X157.175 Y181.665 E90.22721
G1 X157.084 Y181.665 E90.23136
G1 X156.992 Y181.665 E90.23550
G1 X156.901 Y181.665 E90.23965
G1 X156.809 Y181.665 E90.24379
G1 X156.718 Y181.665 E90.24793
G1 X156.626 Y181.665 E90.25208
G1 X156.535 Y181.666 E90.25622
G1 X156.444 Y181.666 E90.26036
G1 X156.352 Y181.666 E90.26450
G1 X156.261 Y181.666 E90.26865
G1 X156.169 Y181.666 E90.27279
G1 X156.078 Y181.666 E90.27692
G1 X155.986 Y181.666 E90.28107
G1 X155.895 Y181.666 E90.28520
G1 X155.804 Y181.666 E90.28934
G1 X155.712 Y181.666 E90.29347
G1 X155.621 Y181.666 E90.29761
G1 X155.529 Y181.666 E90.30174
G1 X155.438 Y181.666 E90.30588
G1 X155.346 Y181.666 E90.31001
G1 X155.255 Y181.666 E90.31415
G1 X155.164 Y181.666 E90.31828
G1 X155.072 Y181.666 E90.32241
G1 X154.981 Y181.666 E90.32654
G1 X154.889 Y181.666 E90.33067
G1 X154.798 Y181.666 E90.33479
G1 X154.706 Y181.666 E90.33892
G1 X154.615 Y181.667 E90.34305
G1 X154.524 Y181.667 E90.34718
G1 X154.432 Y181.667 E90.35130
G1 X154.341 Y181.667 E90.35543
G1 X154.249 Y181.667 E90.35956
G1 X154.158 Y181.667 E90.36369
G1 X154.066 Y181.667 E90.36781
G1 X153.975 Y181.667 E90.37193
G1 X153.884 Y181.667 E90.37605
G1 X153.792 Y181.667 E90.38017
G1 X153.701 Y181.667 E90.38428
G1 X153.609 Y181.667 E90.38840
G1 X153.518 Y181.667 E90.39252
G1 X153.426 Y181.667 E90.39664
G1 X153.335 Y181.667 E90.40076
G1 X153.244 Y181.667 E90.40488
G1 X153.152 Y181.667 E90.40900
G1 X153.061 Y181.667 E90.41311
G1 X152.969 Y181.667 E90.41722
G1 X152.878 Y181.667 E90.42133
G1 X152.786 Y181.667 E90.42545
G1 X152.695 Y181.668 E90.42956
G1 X152.604 Y181.668 E90.43367
G1 X152.512 Y181.668 E90.43778
G1 X152.421 Y181.668 E90.44189
G1 X152.329 Y181.668 E90.44601
G1 X152.238 Y181.668 E90.45011
G1 X152.146 Y181.668 E90.45422
G1 X152.055 Y181.668 E90.45832
G1 X151.964 Y181.668 E90.46243
G1 X151.872 Y181.668 E90.46653
G1 X151.781 Y181.668 E90.47063
G1 X151.689 Y181.668 E90.47474
G1 X151.598 Y181.668 E90.47884
G1 X151.506 Y181.668 E90.48295
G1 X151.415 Y181.668 E90.48705
G1 X151.324 Y181.668 E90.49115
G1 X151.232 Y181.668 E90.49525
G1 X151.141 Y181.668 E90.49934
G1 X151.049 Y181.668 E90.50344
G1 X150.958 Y181.668 E90.50754
G1 X150.866 Y181.669 E90.51163
G1 X150.775 Y181.669 E90.51573
G1 X150.684 Y181.669 E90.51983
G1 X150.592 Y181.669 E90.52393
G1 X150.501 Y181.669 E90.52802
G1 X150.409 Y181.669 E90.53211
G1 X150.318 Y181.669 E90.53620
G1 X150.226 Y181.669 E90.54029
G1 X150.135 Y181.669 E90.54438
G1 X150.044 Y181.669 E90.54847
G1 X149.952 Y181.669 E90.55256
G1 X149.861 Y181.669 E90.55665
G1 X149.769 Y181.669 E90.56074
G1 X149.678 Y181.669 E90.56483
G1 X149.586 Y181.669 E90.56892
G1 X149.495 Y181.669 E90.57301
G1 X149.404 Y181.669 E90.57709
G1 X149.312 Y181.669 E90.58117
G1 X149.221 Y181.669 E90.58525
G1 X149.129 Y181.669 E90.58933
G1 X149.038 Y181.669 E90.59341
G1 X148.946 Y181.670 E90.59750
G1 X148.855 Y181.670 E90.60158
G1 X148.764 Y181.670 E90.60566
G1 X148.672 Y181.670 E90.60974
G1 X148.581 Y181.670 E90.61382
G1 X148.489 Y181.670 E90.61790
G1 X148.398 Y181.670 E90.62198
G1 X148.306 Y181.670 E90.62605
G1 X148.215 Y181.670 E90.63013
G1 X148.124 Y181.670 E90.63420
G1 X148.032 Y181.670 E90.63828
G1 X147.941 Y181.670 E90.64235
G1 X147.849 Y181.670 E90.64642
G1 X147.758 Y181.670 E90.65050
G1 X147.666 Y181.670 E90.65457
G1 X147.575 Y181.670 E90.65865
G1 X147.484 Y181.670 E90.66271
G1 X147.392 Y181.670 E90.66678
G1 X147.301 Y181.670 E90.67085
G1 X147.209 Y181.670 E90.67491
G1 X147.118 Y181.670 E90.67898
G1 X147.026 Y181.671 E90.68304
G1 X146.935 Y181.671 E90.68711
G1 X146.844 Y181.671 E90.69118
G1 X146.752 Y181.671 E90.69524
G1 X146.661 Y181.671 E90.69931
G1 X146.569 Y181.671 E90.70337
G1 X146.478 Y181.671 E90.70743
G1 X146.386 Y181.671 E90.71149
G1 X146.295 Y181.671 E90.71555
G1 X146.204 Y181.671 E90.71960
G1 X146.112 Y181.671 E90.72366
G1 X146.021 Y181.671 E90.72772
G1 X145.929 Y181.671 E90.73178
G1 X145.838 Y181.671 E90.73584
G1 X145.746 Y181.671 E90.73990
G1 X145.655 Y181.671 E90.74396
G1 X145.564 Y181.671 E90.74801
G1 X145.472 Y181.671 E90.75206
G1 X145.381 Y181.671 E90.75611
G1 X145.289 Y181.671 E90.76016
G1 X145.198 Y181.672 E90.76421
G1 X145.106 Y181.672 E90.76826
G1 X145.015 Y181.672 E90.77232
G1 X144.924 Y181.672 E90.77637
G1 X144.832 Y181.672 E90.78042
G1 X144.741 Y181.672 E90.78446
G1 X144.649 Y181.672 E90.78851
G1 X144.558 Y181.672 E90.79255
G1 X144.466 Y181.672 E90.79659
G1 X144.375 Y181.672 E90.80064
G1 X144.284 Y181.672 E90.80468
G1 X144.192 Y181.672 E90.80872
G1 X144.101 Y181.672 E90.81277
G1 X144.009 Y181.672 E90.81681
G1 X143.918 Y181.672 E90.82085
G1 X143.826 Y181.672 E90.82489
G1 X143.735 Y181.672 E90.82893
G1 X143.644 Y181.672 E90.83297
G1 X143.552 Y181.672 E90.83701
G1 X143.461 Y181.672 E90.84104
G1 X143.369 Y181.672 E90.84508
G1 X143.278 Y181.673 E90.84911
G1 X143.186 Y181.673 E90.85315
G1 X143.095 Y181.673 E90.85719
G1 X143.004 Y181.673 E90.86122
G1 X142.912 Y181.673 E90.86526
G1 X142.821 Y181.673 E90.86929
G1 X142.729 Y181.673 E90.87332
G1 X142.638 Y181.673 E90.87735
G1 X142.546 Y181.673 E90.88138
G1 X142.455 Y181.673 E90.88541
G1 X142.364 Y181.673 E90.88943
G1 X142.272 Y181.673 E90.89346
G1 X142.181 Y181.673 E90.89749
G1 X142.089 Y181.673 E90.90152
G1 X141.998 Y181.673 E90.90555
G1 X141.906 Y181.673 E90.90958
G1 X141.815 Y181.673 E90.91360
G1 X141.724 Y181.673 E90.91762
G1 X141.632 Y181.673 E90.92164
G1 X141.541 Y181.673 E90.92566
G1 X141.449 Y181.674 E90.92968
G1 X141.358 Y181.674 E90.93370
G1 X141.266 Y181.674 E90.93772
G1 X141.175 Y181.674 E90.94174
G1 X141.084 Y181.674 E90.94576
G1 X140.992 Y181.674 E90.94978
G1 X140.901 Y181.674 E90.95380
G1 X140.809 Y181.674 E90.95781
G1 X140.718 Y181.674 E90.96182
G1 X140.626 Y181.674 E90.96584
G1 X140.535 Y181.674 E90.96985
G1 X140.444 Y181.674 E90.97386
G1 X140.352 Y181.674 E90.97787
G1 X140.261 Y181.674 E90.98189
G1 X140.169 Y181.674 E90.98590
G1 X140.078 Y181.674 E90.98991
G1 X139.986 Y181.674 E90.99393
G1 X139.895 Y181.674 E90.99793
G1 X139.804 Y181.674 E91.00194
G1 X139.712 Y181.674 E91.00594
G1 X139.621 Y181.674 E91.00995
G1 X139.529 Y181.675 E91.01395
G1 X139.438 Y181.675 E91.01796
G1 X139.346 Y181.675 E91.02197
G1 X139.255 Y181.675 E91.02597
G1 X139.164 Y181.675 E91.02998
G1 X139.072 Y181.675 E91.03398
G1 X138.981 Y181.675 E91.03798
G1 X138.889 Y181.675 E91.04198
G1 X138.798 Y181.675 E91.04597
G1 X138.706 Y181.675 E91.04997
G1 X138.615 Y181.675 E91.05397
G1 X138.524 Y181.675 E91.05797
G1 X138.432 Y181.675 E91.06197
G1 X138.341 Y181.675 E91.06596
G1 X138.249 Y181.675 E91.06996
G1 X138.158 Y181.675 E91.07396
G1 X138.066 Y181.675 E91.07795
G1 X137.975 Y181.675 E91.08194
G1 X137.884 Y181.675 E91.08593
G1 X137.792 Y181.675 E91.08992
G1 X137.701 Y181.675 E91.09391
G1 X137.609 Y181.676 E91.09790
G1 X137.518 Y181.676 E91.10189
G1 X137.426 Y181.676 E91.10588
G1 X137.335 Y181.676 E91.10987
G1 X137.244 Y181.676 E91.11386
G1 X137.152 Y181.676 E91.11784
G1 X137.061 Y181.676 E91.12183
G1 X136.969 Y181.676 E91.12582
G1 X136.878 Y181.676 E91.12980
G1 X136.786 Y181.676 E91.13378
G1 X136.695 Y181.676 E91.13776
G1 X136.604 Y181.676 E91.14175
G1 X136.512 Y181.676 E91.14573
G1 X136.421 Y181.676 E91.14971
G1 X136.329 Y181.676 E91.15369
G1 X136.238 Y181.676 E91.15768
G1 X136.146 Y181.676 E91.16165
G1 X136.055 Y181.676 E91.16563
G1 X135.964 Y181.676 E91.16960
G1 X135.872 Y181.676 E91.17358
G1 X135.781 Y181.677 E91.17755
G1 X135.689 Y181.677 E91.18153
G1 X135.598 Y181.677 E91.18550
G1 X135.506 Y181.677 E91.18948
G1 X135.415 Y181.677 E91.19345
G1 X135.324 Y181.677 E91.19742
G1 X135.232 Y181.677 E91.20139
G1 X135.141 Y181.677 E91.20535
G1 X135.049 Y181.677 E91.20932
G1 X134.958 Y181.677 E91.21329
G1 X134.866 Y181.677 E91.21725
G1 X134.775 Y181.677 E91.22122
G1 X134.684 Y181.677 E91.22519
G1 X134.592 Y181.677 E91.22916
G1 X134.501 Y181.677 E91.23312
G1 X134.409 Y181.677 E91.23709
G1 X134.318 Y181.677 E91.24106
G1 X134.226 Y181.677 E91.24502
G1 X134.135 Y181.677 E91.24898
G1 X134.044 Y181.677 E91.25294
G1 X133.952 Y181.677 E91.25690
G1 X133.861 Y181.678 E91.26086
G1 X133.769 Y181.678 E91.26482
G1 X133.678 Y181.678 E91.26878
G1 X133.586 Y181.678 E91.27274
G1 X133.495 Y181.678 E91.27670
G1 X133.404 Y181.678 E91.28065
G1 X133.312 Y181.678 E91.28461
G1 X133.221 Y181.678 E91.28856
G1 X133.129 Y181.678 E91.29251
G1 X133.038 Y181.678 E91.29646
G1 X132.946 Y181.678 E91.30042
G1 X132.855 Y181.678 E91.30437
G1 X132.764 Y181.678 E91.30832
G1 X132.672 Y181.678 E91.31227
G1 X132.581 Y181.678 E91.31622
G1 X132.489 Y181.678 E91.32018
G1 X132.398 Y181.678 E91.32412
G1 X132.306 Y181.678 E91.32806
G1 X132.215 Y181.678 E91.33201
G1 X132.124 Y181.678 E91.33595
G1 X132.032 Y181.679 E91.33990
G1 X131.941 Y181.679 E91.34384
G1 X131.849 Y181.679 E91.34779
G1 X131.758 Y181.679 E91.35173
G1 X131.666 Y181.679 E91.35567
G1 X131.575 Y181.679 E91.35962
G1 X131.484 Y181.679 E91.36356
G1 X131.392 Y181.679 E91.36750
G1 X131.301 Y181.679 E91.37144
G1 X131.209 Y181.679 E91.37537
G1 X131.118 Y181.679 E91.37931
G1 X131.026 Y181.679 E91.38325
G1 X130.935 Y181.679 E91.38718
G1 X130.844 Y181.679 E91.39112
G1 X130.752 Y181.679 E91.39506
G1 X130.661 Y181.679 E91.39899
G1 X130.569 Y181.679 E91.40293
G1 X130.478 Y181.679 E91.40686
G1 X130.386 Y181.679 E91.41079
G1 X130.295 Y181.679 E91.41472
G1 X130.204 Y181.679 E91.41865
G1 X130.112 Y181.680 E91.42258
G1 X130.021 Y181.680 E91.42651
G1 X129.929 Y181.680 E91.43044
G1 X129.838 Y181.680 E91.43436
G1 X129.746 Y181.680 E91.43829
G1 X129.655 Y181.680 E91.44222
G1 X129.564 Y181.680 E91.44614
G1 X129.472 Y181.680 E91.45007
G1 X129.381 Y181.680 E91.45399
G1 X129.289 Y181.680 E91.45791
G1 X129.198 Y181.680 E91.46183
G1 X129.106 Y181.680 E91.46575
G1 X129.015 Y181.680 E91.46967
G1 X128.924 Y181.680 E91.47359
G1 X128.832 Y181.680 E91.47752
G1 X128.741 Y181.680 E91.48144
G1 X128.649 Y181.680 E91.48536
G1 X128.558 Y181.680 E91.48927
G1 X128.466 Y181.680 E91.49319
G1 X128.375 Y181.680 E91.49710
G1 X128.284 Y181.680 E91.50101
G1 X128.192 Y181.681 E91.50493
G1 X128.101 Y181.681 E91.50884
G1 X128.009 Y181.681 E91.51276
G1 X127.918 Y181.681 E91.51667
G1 X127.826 Y181.681 E91.52058
G1 X127.735 Y181.681 E91.52450
G1 X127.644 Y181.681 E91.52840
G1 X127.552 Y181.681 E91.53231
G1 X127.461 Y181.681 E91.53622
G1 X127.369 Y181.681 E91.54012
G1 X127.278 Y181.681 E91.54403
G1 X127.186 Y181.681 E91.54794
G1 X127.095 Y181.681 E91.55184
G1 X127.004 Y181.681 E91.55575
G1 X126.912 Y181.681 E91.55965
G1 X126.821 Y181.681 E91.56356
G1 X126.729 Y181.681 E91.56746
G1 X126.638 Y181.681 E91.57136
G1 X126.546 Y181.681 E91.57526
G1 X126.455 Y181.681 E91.57915
G1 X126.364 Y181.682 E91.58305
G1 X126.272 Y181.682 E91.58695
G1 X126.181 Y181.682 E91.59085
G1 X126.089 Y181.682 E91.59475
G1 X125.998 Y181.682 E91.59865
G1 X125.906 Y181.682 E91.60255
G1 X125.815 Y181.682 E91.60645
G1 X125.724 Y181.682 E91.61034
G1 X125.632 Y181.682 E91.61423
G1 X125.541 Y181.682 E91.61812
G1 X125.449 Y181.682 E91.62201
G1 X125.358 Y181.682 E91.62590
G1 X125.266 Y181.682 E91.62979
G1 X125.175 Y181.682 E91.63368
G1 X125.084 Y181.682 E91.63757
G1 X124.992 Y181.682 E91.64146
G1 X124.901 Y181.682 E91.64536
G1 X124.809 Y181.682 E91.64924
G1 X124.718 Y181.682 E91.65312
G1 X124.626 Y181.682 E91.65701
G1 X124.535 Y181.682 E91.66089
G1 X124.444 Y181.683 E91.66477
G1 X124.352 Y181.683 E91.66866
G1 X124.261 Y181.683 E91.67254
G1 X124.169 Y181.683 E91.67642
G1 X124.078 Y181.683 E91.68031
G1 X123.986 Y181.683 E91.68419
G1 X123.895 Y181.683 E91.68806
G1 X123.804 Y181.683 E91.69194
G1 X123.712 Y181.683 E91.69582
G1 X123.621 Y181.683 E91.69969
G1 X123.529 Y181.683 E91.70357
G1 X123.438 Y181.683 E91.70744
G1 X123.346 Y181.683 E91.71132
G1 X123.255 Y181.683 E91.71519
G1 X123.164 Y181.683 E91.71907
G1 X123.072 Y181.683 E91.72295
G1 X122.981 Y181.683 E91.72681
G1 X122.889 Y181.683 E91.73068
G1 X122.798 Y181.683 E91.73455
G1 X122.706 Y181.683 E91.73842
G1 X122.615 Y181.683 E91.74229
G1 X122.524 Y181.684 E91.74615
G1 X122.432 Y181.684 E91.75002
G1 X122.341 Y181.684 E91.75389
G1 X122.249 Y181.684 E91.75776
G1 X122.158 Y181.684 E91.76163
G1 X122.066 Y181.684 E91.76550
G1 X121.975 Y181.684 E91.76936
G1 X121.884 Y181.684 E91.77322
G1 X121.792 Y181.684 E91.77708
G1 X121.701 Y181.684 E91.78094
G1 X121.609 Y181.684 E91.78481
G1 X121.518 Y181.684 E91.78867
G1 X121.426 Y181.684 E91.79253
G1 X121.335 Y181.684 E91.79639
G1 X121.244 Y181.684 E91.80025
G1 X121.152 Y181.684 E91.80411
G1 X121.061 Y181.684 E91.80797
G1 X120.969 Y181.684 E91.81182
G1 X120.878 Y181.684 E91.81567
G1 X120.786 Y181.684 E91.81953
G1 X120.695 Y181.685 E91.82338
G1 X120.604 Y181.685 E91.82723
G1 X120.512 Y181.685 E91.83109
G1 X120.421 Y181.685 E91.83494
G1 X120.329 Y181.685 E91.83879
G1 X120.238 Y181.685 E91.84264
G1 X120.146 Y181.685 E91.84650
G1 X120.055 Y181.685 E91.85034
G1 X119.964 Y181.685 E91.85419
G1 X119.872 Y181.685 E91.85803
G1 X119.781 Y181.685 E91.86188
G1 X119.689 Y181.685 E91.86572
G1 X119.598 Y181.685 E91.86957
G1 X119.506 Y181.685 E91.87341
G1 X119.415 Y181.685 E91.87726
G1 X119.324 Y181.685 E91.88110
G1 X119.232 Y181.685 E91.88495
G1 X119.141 Y181.685 E91.88879
G1 X119.049 Y181.685 E91.89262
G1 X118.958 Y181.685 E91.89646
G1 X118.866 Y181.685 E91.90030
G1 X118.775 Y181.686 E91.90414
G1 X118.684 Y181.686 E91.90797
G1 X118.592 Y181.686 E91.91181
G1 X118.501 Y181.686 E91.91565
G1 X118.409 Y181.686 E91.91949
G1 X118.318 Y181.686 E91.92332
G1 X118.226 Y181.686 E91.92716
G1 X118.135 Y181.686 E91.93099
G1 X118.044 Y181.686 E91.93482
G1 X117.952 Y181.686 E91.93865
G1 X117.861 Y181.686 E91.94248
G1 X117.769 Y181.686 E91.94631
G1 X117.678 Y181.686 E91.95014
G1 X117.586 Y181.686 E91.95397
G1 X117.495 Y181.686 E91.95780
G1 X117.404 Y181.686 E91.96163
G1 X117.312 Y181.686 E91.96546
G1 X117.221 Y181.686 E91.96928
G1 X117.129 Y181.686 E91.97311
G1 X117.038 Y181.686 E91.97693
G1 X116.946 Y181.687 E91.98075
G1 X116.855 Y181.687 E91.98457
G1 X116.764 Y181.687 E91.98840
G1 X116.672 Y181.687 E91.99222
G1 X116.581 Y181.687 E91.99604
G1 X116.489 Y181.687 E91.99986
G1 X116.398 Y181.687 E92.00368
G1 X116.306 Y181.687 E92.00750
G1 X116.215 Y181.687 E92.01131
G1 X116.124 Y181.687 E92.01513
G1 X116.032 Y181.687 E92.01894
G1 X115.941 Y181.687 E92.02276
G1 X115.849 Y181.687 E92.02657
G1 X115.758 Y181.687 E92.03039
G1 X115.666 Y181.687 E92.03420
G1 X115.575 Y181.687 E92.03802
G1 X115.484 Y181.687 E92.04183
G1 X115.392 Y181.687 E92.04565
G1 X115.301 Y181.687 E92.04945
G1 X115.209 Y181.687 E92.05326
G1 X115.118 Y181.687 E92.05707
G1 X115.026 Y181.688 E92.06087
G1 X114.935 Y181.688 E92.06468
G1 X114.844 Y181.688 E92.06849
G1 X114.752 Y181.688 E92.07230
G1 X114.661 Y181.688 E92.07610
G1 X114.569 Y181.688 E92.07991
G1 X114.478 Y181.688 E92.08371
G1 X114.386 Y181.688 E92.08751
G1 X114.295 Y181.688 E92.09131
G1 X114.204 Y181.688 E92.09511
G1 X114.112 Y181.688 E92.09891
G1 X114.021 Y181.688 E92.10271
G1 X113.929 Y181.688 E92.10651
G1 X113.838 Y181.688 E92.11031
G1 X113.746 Y181.688 E92.11411
G1 X113.655 Y181.688 E92.11790
G1 X113.564 Y181.688 E92.12170
G1 X113.472 Y181.688 E92.12550
G1 X113.381 Y181.688 E92.12929
G1 X113.289 Y181.688 E92.13308
G1 X113.198 Y181.688 E92.13687
G1 X113.106 Y181.689 E92.14066
G1 X113.015 Y181.689 E92.14445
G1 X112.924 Y181.689 E92.14825
G1 X112.832 Y181.689 E92.15204
G1 X112.741 Y181.689 E92.15583
G1 X112.649 Y181.689 E92.15962
G1 X112.558 Y181.689 E92.16341
G1 X112.466 Y181.689 E92.16719
G1 X112.375 Y181.689 E92.17097
G1 X112.284 Y181.689 E92.17476
G1 X112.192 Y181.689 E92.17854
G1 X112.101 Y181.689 E92.18233
G1 X112.009 Y181.689 E92.18611
G1 X111.918 Y181.689 E92.18990
G1 X111.826 Y181.689 E92.19368
G1 X111.735 Y181.689 E92.19746
G1 X111.644 Y181.689 E92.20125
G1 X111.552 Y181.689 E92.20502
G1 X111.461 Y181.689 E92.20880
G1 X111.369 Y181.689 E92.21258
G1 X111.278 Y181.690 E92.21635
G1 X111.186 Y181.690 E92.22013
G1 X111.095 Y181.690 E92.22391
G1 X111.004 Y181.690 E92.22768
G1 X110.912 Y181.690 E92.23146
G1 X110.821 Y181.690 E92.23524
G1 X110.729 Y181.690 E92.23901
G1 X110.638 Y181.690 E92.24278
G1 X110.546 Y181.690 E92.24655
G1 X110.455 Y181.690 E92.25032
G1 X110.364 Y181.690 E92.25409
G1 X110.272 Y181.690 E92.25786
G1 X110.181 Y181.690 E92.26163
G1 X110.089 Y181.690 E92.26540
G1 X109.998 Y181.690 E92.26917
G1 X109.906 Y181.690 E92.27293
G1 X109.815 Y181.690 E92.27670
G1 X109.724 Y181.690 E92.28046
G1 X109.632 Y181.690 E92.28423
G1 X109.541 Y181.690 E92.28799
G1 X109.449 Y181.690 E92.29175
G1 X109.358 Y181.691 E92.29551
G1 X109.266 Y181.691 E92.29927
G1 X109.175 Y181.691 E92.30303
G1 X109.084 Y181.691 E92.30679
G1 X108.992 Y181.691 E92.31055
G1 X108.901 Y181.691 E92.31432
G1 X108.809 Y181.691 E92.31808
G1 X108.718 Y181.691 E92.32183
G1 X108.626 Y181.691 E92.32558
G1 X108.535 Y181.691 E92.32934
G1 X108.444 Y181.691 E92.33309
G1 X108.352 Y181.691 E92.33685
G1 X108.261 Y181.691 E92.34060
G1 X108.169 Y181.691 E92.34435
G1 X108.078 Y181.691 E92.34811
G1 X107.986 Y181.691 E92.35186
G1 X107.895 Y181.691 E92.35561
G1 X107.804 Y181.691 E92.35936
G1 X107.712 Y181.691 E92.36311
G1 X107.621 Y181.691 E92.36685
G1 X107.529 Y181.692 E92.37060
G1 X107.438 Y181.692 E92.37434
G1 X107.346 Y181.692 E92.37809
G1 X107.255 Y181.692 E92.38184
G1 X107.164 Y181.692 E92.38558
G1 X107.072 Y181.692 E92.38933
G1 X106.981 Y181.692 E92.39307
G1 X106.889 Y181.692 E92.39682
G1 X106.798 Y181.692 E92.40056
G1 X106.706 Y181.692 E92.40430
G1 X106.615 Y181.692 E92.40804
G1 X106.524 Y181.692 E92.41177
G1 X106.432 Y181.692 E92.41551
G1 X106.341 Y181.692 E92.41925
G1 X106.249 Y181.692 E92.42299
G1 X106.158 Y181.692 E92.42673
G1 X106.066 Y181.692 E92.43047
G1 X105.975 Y181.692 E92.43420
G1 X105.884 Y181.692 E92.43793
G1 X105.792 Y181.692 E92.44167
G1 X105.701 Y181.692 E92.44540
G1 X105.609 Y181.693 E92.44913
G1 X105.518 Y181.693 E92.45286
G1 X105.426 Y181.693 E92.45659
G1 X105.335 Y181.693 E92.46032
G1 X105.244 Y181.693 E92.46405
G1 X105.152 Y181.693 E92.46778
G1 X105.061 Y181.693 E92.47151
G1 X104.969 Y181.693 E92.47523
G1 X104.878 Y181.693 E92.47896
G1 X104.786 Y181.693 E92.48268
G1 X104.695 Y181.693 E92.48640
G1 X104.604 Y181.693 E92.49013
G1 X104.512 Y181.693 E92.49385
G1 X104.421 Y181.693 E92.49757
G1 X104.329 Y181.693 E92.50130
G1 X104.238 Y181.693 E92.50502
G1 X104.146 Y181.693 E92.50874
G1 X104.055 Y181.693 E92.51247
G1 X103.964 Y181.693 E92.51618
G1 X103.872 Y181.693 E92.51990
G1 X103.781 Y181.693 E92.52361
G1 X103.689 Y181.694 E92.52733
G1 X103.598 Y181.694 E92.53104
G1 X103.506 Y181.694 E92.53476
G1 X103.415 Y181.694 E92.53848
G1 X103.324 Y181.694 E92.54219
G1 X103.232 Y181.694 E92.54591
G1 X103.141 Y181.694 E92.54962
G1 X103.049 Y181.694 E92.55333
G1 X102.958 Y181.694 E92.55704
G1 X102.866 Y181.694 E92.56075
G1 X102.775 Y181.694 E92.56445
G1 X102.684 Y181.694 E92.56816
G1 X102.592 Y181.694 E92.57187
G1 X102.501 Y181.694 E92.57558
G1 X102.409 Y181.694 E92.57928
G1 X102.318 Y181.694 E92.58299
G1 X102.226 Y181.694 E92.58670
G1 X102.135 Y181.694 E92.59040
G1 X102.044 Y181.694 E92.59410
G1 X101.952 Y181.694 E92.59780
G1 X101.861 Y181.695 E92.60150
G1 X101.769 Y181.695 E92.60520
G1 X101.678 Y181.695 E92.60890
G1 X101.586 Y181.695 E92.61260
G1 X101.495 Y181.695 E92.61630
G1 X101.404 Y181.695 E92.62000
G1 X101.312 Y181.695 E92.62370
G1 X101.221 Y181.695 E92.62740
G1 X101.129 Y181.695 E92.63109
G1 X101.038 Y181.695 E92.63478
G1 X100.946 Y181.695 E92.63847
G1 X100.855 Y181.695 E92.64217
G1 X100.764 Y181.695 E92.64586
G1 X100.672 Y181.695 E92.64955
G1 X100.581 Y181.695 E92.65324
G1 X100.489 Y181.695 E92.65694
G1 X100.398 Y181.695 E92.66063
G1 X100.306 Y181.695 E92.66432
G1 X100.215 Y181.695 E92.66801
G1 X100.124 Y181.695 E92.67169
G1 X100.032 Y181.695 E92.67538
G1 X99.941 Y181.696 E92.67906
G1 X99.849 Y181.696 E92.68275
G1 X99.758 Y181.696 E92.68643
G1 X99.666 Y181.696 E92.69012
G1 X99.575 Y181.696 E92.69380
G1 X99.484 Y181.696 E92.69749
G1 X99.392 Y181.696 E92.70117
G1 X99.301 Y181.696 E92.70485
G1 X99.209 Y181.696 E92.70853
G1 X99.118 Y181.696 E92.71220
G1 X99.026 Y181.696 E92.71588
G1 X98.935 Y181.696 E92.71956
G1 X98.844 Y181.696 E92.72324
G1 X98.752 Y181.696 E92.72691
G1 X98.661 Y181.696 E92.73059
G1 X98.569 Y181.696 E92.73427
G1 X98.478 Y181.696 E92.73795
G1 X98.386 Y181.696 E92.74162
G1 X98.295 Y181.696 E92.74529
G1 X98.204 Y181.696 E92.74895
G1 X98.112 Y181.696 E92.75262
G1 X98.021 Y181.697 E92.75629
G1 X97.929 Y181.697 E92.75996
G1 X97.838 Y181.697 E92.76363
G1 X97.746 Y181.697 E92.76730
G1 X97.655 Y181.697 E92.77097
G1 X97.564 Y181.697 E92.77464
G1 X97.472 Y181.697 E92.77831
G1 X97.381 Y181.697 E92.78197
G1 X97.289 Y181.697 E92.78564
G1 X97.198 Y181.697 E92.78930
G1 X97.106 Y181.697 E92.79296
G1 X97.015 Y181.697 E92.79662
G1 X96.924 Y181.697 E92.80029
G1 X96.832 Y181.697 E92.80395
G1 X96.741 Y181.697 E92.80761
G1 X96.649 Y181.697 E92.81127
G1 X96.558 Y181.697 E92.81493
G1 X96.466 Y181.697 E92.81859
G1 X96.375 Y181.697 E92.82224
G1 X96.284 Y181.697 E92.82590
G1 X96.192 Y181.698 E92.82955
G1 X96.101 Y181.698 E92.83321
G1 X96.009 Y181.698 E92.83686
G1 X95.918 Y181.698 E92.84052
G1 X95.826 Y181.698 E92.84417
G1 X95.735 Y181.698 E92.84782
G1 X95.644 Y181.698 E92.85148
G1 X95.552 Y181.698 E92.85513
G1 X95.461 Y181.698 E92.85878
G1 X95.369 Y181.698 E92.86243
G1 X95.278 Y181.698 E92.86607
G1 X95.186 Y181.698 E92.86972
G1 X95.095 Y181.698 E92.87337
G1 X95.004 Y181.698 E92.87701
G1 X94.912 Y181.698 E92.88066
G1 X94.821 Y181.698 E92.88431
G1 X94.729 Y181.698 E92.88795
G1 X94.638 Y181.698 E92.89160
G1 X94.546 Y181.698 E92.89524
G1 X94.455 Y181.698 E92.89888
G1 X94.364 Y181.698 E92.90252
G1 X94.272 Y181.699 E92.90616
G1 X94.181 Y181.699 E92.90980
G1 X94.089 Y181.699 E92.91344
G1 X93.998 Y181.699 E92.91708
G1 X93.906 Y181.699 E92.92072
G1 X93.815 Y181.699 E92.92435
G1 X93.724 Y181.699 E92.92799
G1 X93.632 Y181.699 E92.93163
G1 X93.541 Y181.699 E92.93526
G1 X93.449 Y181.699 E92.93889
G1 X93.358 Y181.699 E92.94252
G1 X93.266 Y181.699 E92.94615
G1 X93.175 Y181.699 E92.94978
G1 X93.084 Y181.699 E92.95341
G1 X92.992 Y181.699 E92.95705
G1 X92.901 Y181.699 E92.96068
G1 X92.809 Y181.699 E92.96431
G1 X92.718 Y181.699 E92.96794
G1 X92.626 Y181.699 E92.97157
G1 X92.535 Y181.699 E92.97519
G1 X92.444 Y181.700 E92.97881
G1 X92.352 Y181.700 E92.98244
G1 X92.261 Y181.700 E92.98606
G1 X92.169 Y181.700 E92.98969
G1 X92.078 Y181.700 E92.99331
G1 X91.986 Y181.700 E92.99693
G1 X91.895 Y181.700 E93.00056
G1 X91.804 Y181.700 E93.00418
G1 X91.712 Y181.700 E93.00780
G1 X91.621 Y181.700 E93.01141
G1 X91.529 Y181.700 E93.01503
G1 X91.438 Y181.700 E93.01865
G1 X91.346 Y181.700 E93.02226
G1 X91.255 Y181.700 E93.02588
G1 X91.164 Y181.700 E93.02950
G1 X91.072 Y181.700 E93.03311
G1 X90.981 Y181.700 E93.03673
G1 X90.889 Y181.700 E93.04034
G1 X90.798 Y181.700 E93.04396
G1 X90.706 Y181.700 E93.04757
G1 X90.615 Y181.700 E93.05118
G1 X90.524 Y181.701 E93.05479
G1 X90.432 Y181.701 E93.05840
G1 X90.341 Y181.701 E93.06200
G1 X90.249 Y181.701 E93.06561
G1 X90.158 Y181.701 E93.06922
G1 X90.066 Y181.701 E93.07283
G1 X89.975 Y181.701 E93.07644
G1 X89.884 Y181.701 E93.08005
G1 X89.792 Y181.701 E93.08365
G1 X89.701 Y181.701 E93.08725
G1 X89.609 Y181.701 E93.09085
G1 X89.518 Y181.701 E93.09445
G1 X89.426 Y181.701 E93.09805
G1 X89.335 Y181.701 E93.10165
G1 X89.244 Y181.701 E93.10526
G1 X89.152 Y181.701 E93.10886
G1 X89.061 Y181.701 E93.11246
G1 X88.969 Y181.701 E93.11606
G1 X88.878 Y181.701 E93.11965
G1 X88.786 Y181.701 E93.12325
G1 X88.695 Y181.701 E93.12684
G1 X88.604 Y181.702 E93.13043
G1 X88.512 Y181.702 E93.13403
G1 X88.421 Y181.702 E93.13762
G1 X88.329 Y181.702 E93.14121
G1 X88.238 Y181.702 E93.14481
G1 X88.146 Y181.702 E93.14840
G1 X88.055 Y181.702 E93.15199
G1 X87.964 Y181.702 E93.15559
G1 X87.872 Y181.702 E93.15917
G1 X87.781 Y181.702 E93.16276
G1 X87.689 Y181.702 E93.16634
G1 X87.598 Y181.702 E93.16993
G1 X87.506 Y181.702 E93.17352
G1 X87.415 Y181.702 E93.17710
G1 X87.324 Y181.702 E93.18069
G1 X87.232 Y181.702 E93.18427
G1 X87.141 Y181.702 E93.18786
G1 X87.049 Y181.702 E93.19144
G1 X86.958 Y181.702 E93.19501
G1 X86.866 Y181.702 E93.19859
G1 X86.775 Y181.703 E93.20217
G1 X86.684 Y181.703 E93.20575
G1 X86.592 Y181.703 E93.20933
G1 X86.501 Y181.703 E93.21291
G1 X86.409 Y181.703 E93.21648
G1 X86.318 Y181.703 E93.22006
G1 X86.226 Y181.703 E93.22364
G1 X86.135 Y181.703 E93.22722
G1 X86.044 Y181.703 E93.23079
G1 X85.952 Y181.703 E93.23436
G1 X85.861 Y181.703 E93.23793
G1 X85.769 Y181.703 E93.24150
G1 X85.678 Y181.703 E93.24507
G1 X85.586 Y181.703 E93.24864
G1 X85.495 Y181.703 E93.25221
G1 X85.404 Y181.703 E93.25578
G1 X85.312 Y181.703 E93.25935
G1 X85.221 Y181.703 E93.26292
G1 X85.129 Y181.703 E93.26649
G1 X85.038 Y181.703 E93.27005
G1 X84.946 Y181.703 E93.27361
G1 X84.855 Y181.704 E93.27718
G1 X84.764 Y181.704 E93.28074
G1 X84.672 Y181.704 E93.28430
G1 X84.581 Y181.704 E93.28786
G1 X84.489 Y181.704 E93.29143
G1 X84.398 Y181.704 E93.29499
G1 X84.306 Y181.704 E93.29855
G1 X84.215 Y181.704 E93.30212
G1 X84.124 Y181.704 E93.30567
G1 X84.032 Y181.704 E93.30923
G1 X83.941 Y181.704 E93.31278
G1 X83.849 Y181.704 E93.31634
G1 X83.758 Y181.704 E93.31989
G1 X83.666 Y181.704 E93.32345
G1 X83.575 Y181.704 E93.32700
G1 X83.484 Y181.704 E93.33056
G1 X83.392 Y181.704 E93.33411
G1 X83.301 Y181.704 E93.33767
G1 X83.209 Y181.704 E93.34122
G1 X83.118 Y181.704 E93.34476
G1 X83.026 Y181.705 E93.34831
G1 X82.935 Y181.705 E93.35186
G1 X82.844 Y181.705 E93.35541
G1 X82.752 Y181.705 E93.35896
G1 X82.661 Y181.705 E93.36250
G1 X82.569 Y181.705 E93.36605
G1 X82.478 Y181.705 E93.36960
G1 X82.386 Y181.705 E93.37315
G1 X82.295 Y181.705 E93.37669
G1 X82.204 Y181.705 E93.38023
G1 X82.112 Y181.705 E93.38377
G1 X82.021 Y181.705 E93.38731
G1 X81.929 Y181.705 E93.39085
G1 X81.838 Y181.705 E93.39439
G1 X81.746 Y181.705 E93.39793
G1 X81.655 Y181.705 E93.40147
G1 X81.564 Y181.705 E93.40501
G1 X81.472 Y181.705 E93.40855
G1 X81.381 Y181.705 E93.41209
G1 X81.289 Y181.705 E93.41563
G1 X81.198 Y181.705 E93.41916
G1 X81.106 Y181.706 E93.42269
G1 X81.015 Y181.706 E93.42622
G1 X80.924 Y181.706 E93.42976
G1 X80.832 Y181.706 E93.43329
G1 X80.741 Y181.706 E93.43682
G1 X80.649 Y181.706 E93.44035
G1 X80.558 Y181.706 E93.44389
G1 X80.466 Y181.706 E93.44742
G1 X80.375 Y181.706 E93.45094
G1 X80.284 Y181.706 E93.45447
G1 X80.192 Y181.706 E93.45799
G1 X80.101 Y181.706 E93.46152
G1 X80.009 Y181.706 E93.46504
G1 X79.918 Y181.706 E93.46857
G1 X79.826 Y181.706 E93.47209
G1 X79.735 Y181.706 E93.47562
G1 X79.644 Y181.706 E93.47914
G1 X79.552 Y181.706 E93.48267
G1 X79.461 Y181.706 E93.48619
G1 X79.369 Y181.706 E93.48971
G1 X79.278 Y181.706 E93.49323
G1 X79.186 Y181.707 E93.49674
G1 X79.095 Y181.707 E93.50026
G1 X79.004 Y181.707 E93.50378
G1 X78.912 Y181.707 E93.50729
G1 X78.821 Y181.707 E93.51081
G1 X78.729 Y181.707 E93.51433
G1 X78.638 Y181.707 E93.51785
G1 X78.546 Y181.707 E93.52136
G1 X78.455 Y181.707 E93.52487
G1 X78.364 Y181.707 E93.52838
G1 X78.272 Y181.707 E93.53189
G1 X78.181 Y181.707 E93.53540
G1 X78.089 Y181.707 E93.53891
G1 X77.998 Y181.707 E93.54242
G1 X77.906 Y181.707 E93.54593
G1 X77.815 Y181.707 E93.54944
G1 X77.724 Y181.707 E93.55295
G1 X77.632 Y181.707 E93.55646
G1 X77.541 Y181.707 E93.55996
G1 X77.449 Y181.707 E93.56346
G1 X77.358 Y181.708 E93.56696
G1 X77.266 Y181.708 E93.57047
G1 X77.175 Y181.708 E93.57397
G1 X77.084 Y181.708 E93.57747
G1 X76.992 Y181.708 E93.58097
G1 X76.901 Y181.708 E93.58447
G1 X76.809 Y181.708 E93.58797
G1 X76.718 Y181.708 E93.59148
G1 X76.626 Y181.708 E93.59498
G1 X76.535 Y181.708 E93.59847
G1 X76.444 Y181.708 E93.60197
G1 X76.352 Y181.708 E93.60546
G1 X76.261 Y181.708 E93.60896
G1 X76.169 Y181.708 E93.61245
G1 X76.078 Y181.708 E93.61594
G1 X75.986 Y181.708 E93.61944
G1 X75.895 Y181.708 E93.62293
G1 X75.804 Y181.708 E93.62643
G1 X75.712 Y181.708 E93.62992
G1 X75.621 Y181.708 E93.63341
G1 X75.529 Y181.708 E93.63689
G1 X75.438 Y181.709 E93.64038
G1 X75.346 Y181.709 E93.64387
G1 X75.255 Y181.709 E93.64735
G1 X75.164 Y181.709 E93.65084
G1 X75.072 Y181.709 E93.65433
G1 X74.981 Y181.709 E93.65781
G1 X74.889 Y181.709 E93.66130
G1 X74.798 Y181.709 E93.66479
G1 X74.706 Y181.709 E93.66827
G1 X74.615 Y181.709 E93.67175
G1 X74.524 Y181.709 E93.67522
G1 X74.432 Y181.709 E93.67870
G1 X74.341 Y181.709 E93.68218
G1 X74.249 Y181.709 E93.68566
G1 X74.158 Y181.709 E93.68914
G1 X74.066 Y181.709 E93.69262
G1 X73.975 Y181.709 E93.69610
G1 X73.884 Y181.709 E93.69958
G1 X73.792 Y181.709 E93.70306
G1 X73.701 Y181.709 E93.70653
G1 X73.609 Y181.709 E93.71000
G1 X73.518 Y181.710 E93.71347
G1 X73.426 Y181.710 E93.71694
G1 X73.335 Y181.710 E93.72041
G1 X73.244 Y181.710 E93.72388
G1 X73.152 Y181.710 E93.72736
G1 X73.061 Y181.710 E93.73083
G1 X72.969 Y181.710 E93.73430
G1 X72.878 Y181.710 E93.73777
G1 X72.786 Y181.710 E93.74123
G1 X72.695 Y181.710 E93.74470
G1 X72.604 Y181.710 E93.74816
G1 X72.512 Y181.710 E93.75163
G1 X72.421 Y181.710 E93.75509
G1 X72.329 Y181.710 E93.75855
G1 X72.238 Y181.710 E93.76202
G1 X72.146 Y181.710 E93.76548
G1 X72.055 Y181.710 E93.76894
G1 X71.964 Y181.710 E93.77241
G1 X71.872 Y181.710 E93.77586
G1 X71.781 Y181.710 E93.77932
G1 X71.689 Y181.711 E93.78278
G1 X71.598 Y181.711 E93.78623
G1 X71.506 Y181.711 E93.78969
G1 X71.415 Y181.711 E93.79314
G1 X71.324 Y181.711 E93.79660
G1 X71.232 Y181.711 E93.80006
G1 X71.141 Y181.711 E93.80351
G1 X71.049 Y181.711 E93.80697
G1 X70.958 Y181.711 E93.81042
G1 X70.866 Y181.711 E93.81387
G1 X70.775 Y181.711 E93.81731
G1 X70.684 Y181.711 E93.82076
G1 X70.592 Y181.711 E93.82421
G1 X70.501 Y181.711 E93.82766
G1 X70.409 Y181.711 E93.83111
G1 X70.318 Y181.711 E93.83456
G1 X70.226 Y181.711 E93.83801
G1 X70.135 Y181.711 E93.84145
G1 X70.044 Y181.711 E93.84490
G1 X69.952 Y181.711 E93.84834
G1 X69.861 Y181.711 E93.85178
G1 X69.769 Y181.712 E93.85522
G1 X69.678 Y181.712 E93.85867
G1 X69.586 Y181.712 E93.86211
G1 X69.495 Y181.712 E93.86555
G1 X69.404 Y181.712 E93.86899
G1 X69.312 Y181.712 E93.87243
G1 X69.221 Y181.712 E93.87587
G1 X69.129 Y181.712 E93.87931
G1 X69.038 Y181.712 E93.88274
G1 X68.946 Y181.712 E93.88618
G1 X68.855 Y181.712 E93.88961
G1 X68.764 Y181.712 E93.89304
G1 X68.672 Y181.712 E93.89648
G1 X68.581 Y181.712 E93.89991
G1 X68.489 Y181.712 E93.90334
G1 X68.398 Y181.712 E93.90678
G1 X68.306 Y181.712 E93.91021
G1 X68.215 Y181.712 E93.91364
G1 X68.124 Y181.712 E93.91708
G1 X68.032 Y181.712 E93.92050
G1 X67.941 Y181.713 E93.92393
G1 X67.849 Y181.713 E93.92735
G1 X67.758 Y181.713 E93.93078
G1 X67.666 Y181.713 E93.93420
G1 X67.575 Y181.713 E93.93763
G1 X67.484 Y181.713 E93.94106
G1 X67.392 Y181.713 E93.94448
G1 X67.301 Y181.713 E93.94791
G1 X67.209 Y181.713 E93.95133
G1 X67.118 Y181.713 E93.95475
G1 X67.026 Y181.713 E93.95817
G1 X66.935 Y181.713 E93.96159
G1 X66.844 Y181.713 E93.96500
G1 X66.752 Y181.713 E93.96842
G1 X66.661 Y181.713 E93.97184
G1 X66.569 Y181.713 E93.97526
G1 X66.478 Y181.713 E93.97868
G1 X66.386 Y181.713 E93.98209
G1 X66.295 Y181.713 E93.98551
G1 X66.204 Y181.713 E93.98892
G1 X66.112 Y181.713 E93.99233
G1 X66.021 Y181.714 E93.99574
G1 X65.929 Y181.714 E93.99915
G1 X65.838 Y181.714 E94.00256
G1 X65.746 Y181.714 E94.00597
G1 X65.655 Y181.714 E94.00938
G1 X65.564 Y181.714 E94.01279
G1 X65.472 Y181.714 E94.01620
G1 X65.381 Y181.714 E94.01962
G1 X65.289 Y181.714 E94.02303
G1 X65.198 Y181.714 E94.02643
G1 X65.106 Y181.714 E94.02983
G1 X65.015 Y181.714 E94.03323
G1 X64.924 Y181.714 E94.03664
G1 X64.832 Y181.714 E94.04004
G1 X64.741 Y181.714 E94.04344
G1 X64.649 Y181.714 E94.04684
G1 X64.558 Y181.714 E94.05025
G1 X64.466 Y181.714 E94.05365
G1 X64.375 Y181.714 E94.05705
G1 X64.284 Y181.714 E94.06045
G1 X64.192 Y181.714 E94.06384
G1 X64.101 Y181.715 E94.06724
G1 X64.009 Y181.715 E94.07063
G1 X63.918 Y181.715 E94.07403
G1 X63.826 Y181.715 E94.07742
G1 X63.735 Y181.715 E94.08082
G1 X63.644 Y181.715 E94.08421
G1 X63.552 Y181.715 E94.08761
G1 X63.461 Y181.715 E94.09100
G1 X63.369 Y181.715 E94.09439
G1 X63.278 Y181.715 E94.09778
G1 X63.186 Y181.715 E94.10117
G1 X63.095 Y181.715 E94.10455
G1 X63.004 Y181.715 E94.10794
G1 X62.912 Y181.715 E94.11133
G1 X62.821 Y181.715 E94.11472
G1 X62.729 Y181.715 E94.11810
G1 X62.638 Y181.715 E94.12149
G1 X62.546 Y181.715 E94.12488
G1 X62.455 Y181.715 E94.12827
G1 X62.364 Y181.715 E94.13165
G1 X62.272 Y181.716 E94.13503
G1 X62.181 Y181.716 E94.13840
G1 X62.089 Y181.716 E94.14178
G1 X61.998 Y181.716 E94.14516
G1 X61.906 Y181.716 E94.14854
G1 X61.815 Y181.716 E94.15192
G1 X61.724 Y181.716 E94.15530
G1 X61.632 Y181.716 E94.15868
G1 X61.541 Y181.716 E94.16206
G1 X61.449 Y181.716 E94.16544
G1 X61.358 Y181.716 E94.16881
G1 X61.266 Y181.716 E94.17218
G1 X61.175 Y181.716 E94.17555
G1 X61.084 Y181.716 E94.17892
G1 X60.992 Y181.716 E94.18230
G1 X60.901 Y181.716 E94.18567
G1 X60.809 Y181.716 E94.18904
G1 X60.718 Y181.716 E94.19241
G1 X60.626 Y181.716 E94.19579
G1 X60.535 Y181.716 E94.19916
G1 X60.444 Y181.716 E94.20252
G1 X60.352 Y181.717 E94.20589
G1 X60.261 Y181.717 E94.20925
G1 X60.169 Y181.717 E94.21262
G1 X60.078 Y181.717 E94.21598
G1 X59.986 Y181.717 E94.21935
G1 X59.895 Y181.717 E94.22271
G1 X59.804 Y181.717 E94.22607
G1 X59.712 Y181.717 E94.22944
G1 X59.621 Y181.717 E94.23280
G1 X59.529 Y181.717 E94.23616
G1 X59.438 Y181.717 E94.23952
G1 X59.346 Y181.717 E94.24287
G1 X59.255 Y181.717 E94.24623
G1 X59.164 Y181.717 E94.24959
G1 X59.072 Y181.717 E94.25294
G1 X58.981 Y181.717 E94.25630
G1 X58.889 Y181.717 E94.25966
G1 X58.798 Y181.717 E94.26302
G1 X58.706 Y181.717 E94.26637
G1 X58.615 Y181.717 E94.26972
G1 X58.524 Y181.718 E94.27307
G1 X58.432 Y181.718 E94.27642
G1 X58.341 Y181.718 E94.27977
G1 X58.249 Y181.718 E94.28312
G1 X58.158 Y181.718 E94.28647
G1 X58.066 Y181.718 E94.28982
G1 X57.975 Y181.718 E94.29317
G1 X57.884 Y181.718 E94.29652
G1 X57.792 Y181.718 E94.29987
G1 X57.701 Y181.718 E94.30321
G1 X57.609 Y181.718 E94.30655
G1 X57.518 Y181.718 E94.30989
G1 X57.426 Y181.718 E94.31323
G1 X57.335 Y181.718 E94.31657
G1 X57.244 Y181.718 E94.31992
G1 X57.152 Y181.718 E94.32326
G1 X57.061 Y181.718 E94.32660
G1 X56.969 Y181.718 E94.32994
G1 X56.878 Y181.718 E94.33328
G1 X56.786 Y181.718 E94.33662
G1 X56.695 Y181.718 E94.33996
G1 X56.604 Y181.719 E94.34329
G1 X56.512 Y181.719 E94.34663
G1 X56.421 Y181.719 E94.34996
G1 X56.329 Y181.719 E94.35329
G1 X56.238 Y181.719 E94.35663
G1 X56.146 Y181.719 E94.35996
G1 X56.055 Y181.719 E94.36330
G1 X55.964 Y181.719 E94.36663
G1 X55.872 Y181.719 E94.36996
G1 X55.781 Y181.719 E94.37329
G1 X55.689 Y181.719 E94.37662
G1 X55.598 Y181.719 E94.37994
G1 X55.506 Y181.719 E94.38327
G1 X55.415 Y181.719 E94.38660
G1 X55.324 Y181.719 E94.38992
G1 X55.232 Y181.719 E94.39325
G1 X55.141 Y181.719 E94.39658
G1 X55.049 Y181.719 E94.39990
G1 X54.958 Y181.719 E94.40323
G1 X54.866 Y181.719 E94.40656
G1 X54.775 Y181.719 E94.40987
G1 X54.684 Y181.720 E94.41319
G1 X54.592 Y181.720 E94.41651
G1 X54.501 Y181.720 E94.41983
G1 X54.409 Y181.720 E94.42315
G1 X54.318 Y181.720 E94.42647
G1 X54.226 Y181.720 E94.42979
G1 X54.135 Y181.720 E94.43311
G1 X54.044 Y181.720 E94.43642
G1 X53.952 Y181.720 E94.43974
G1 X53.861 Y181.720 E94.44305
G1 X53.769 Y181.720 E94.44637
G1 X53.678 Y181.720 E94.44968
G1 X53.586 Y181.720 E94.45299
G1 X53.495 Y181.720 E94.45630
G1 X53.404 Y181.720 E94.45961
G1 X53.312 Y181.720 E94.46292
G1 X53.221 Y181.720 E94.46623
G1 X53.129 Y181.720 E94.46954
G1 X53.038 Y181.720 E94.47285
G1 X52.946 Y181.720 E94.47616
G1 X52.855 Y181.721 E94.47946
G1 X52.764 Y181.721 E94.48277
G1 X52.672 Y181.721 E94.48607
G1 X52.581 Y181.721 E94.48937
G1 X52.489 Y181.721 E94.49268
G1 X52.398 Y181.721 E94.49598
G1 X52.306 Y181.721 E94.49928
G1 X52.215 Y181.721 E94.50259
G1 X52.124 Y181.721 E94.50589
G1 X52.032 Y181.721 E94.50919
G1 X51.941 Y181.721 E94.51249
G1 X51.849 Y181.721 E94.51579
G1 X51.758 Y181.721 E94.51908
G1 X51.666 Y181.721 E94.52238
G1 X51.575 Y181.721 E94.52567
G1 X51.484 Y181.721 E94.52897
G0 F3000 E93.52897
G0 X279.243 Y181.467 F5400
G0 F3000 E94.52897
;segType:HShell
G1 X279.232 Y181.463 E94.52934 F2400
G1 X208.466 Y181.538 E96.88302
G1 X208.466 Y181.738 E96.88967
G1 X279.324 Y181.738 E99.24639
G1 X279.327 Y181.604 E99.25086
G0 X279.697 Y181.069 F5400
G1 X279.689 Y181.062 E99.25120 F2400
G1 X51.207 Y181.305 E106.85055
G1 X51.233 Y181.597 E106.86031
G1 X51.187 Y182.138 E106.87836
G1 X279.689 Y182.138 E114.47837
G1 X279.769 Y182.053 E114.48225
G1 X279.729 Y181.598 E114.49742
G1 X279.760 Y181.238 E114.50945
G0 X280.111 Y180.669 F5400
G1 X280.055 Y180.662 E114.51134 F2400
G1 X50.770 Y180.905 E122.13739
G1 X50.832 Y181.598 E122.16051
G1 X50.752 Y182.510 E122.19096
G1 X50.752 Y182.538 E122.19190
G1 X280.146 Y182.538 E129.82159
G1 X280.202 Y182.418 E129.82599
G1 X280.130 Y181.598 E129.85338
G1 X280.202 Y180.781 E129.88066
G0 X280.552 Y180.278 F5400
G1 X280.512 Y180.261 E129.88208 F2400
G1 X50.333 Y180.506 E137.53787
G1 X50.430 Y181.598 E137.57436
G1 X50.318 Y182.875 E137.61700
G1 X50.386 Y182.938 E137.62009
G1 X280.604 Y182.938 E145.27715
G1 X280.636 Y182.784 E145.28238
G1 X280.532 Y181.598 E145.32198
G1 X280.636 Y180.415 E145.36148
G0 X281.129 Y179.861 F5400
G1 X49.896 Y180.106 E153.05234 F2400
G1 X49.916 Y180.315 E153.05933
G1 X50.029 Y181.598 E153.10216
G1 X49.899 Y183.080 E153.15163
G1 X49.830 Y183.338 E153.16051
G1 X281.132 Y183.338 E160.85367
G1 X281.063 Y183.080 E160.86255
G1 X280.933 Y181.598 E160.91202
G1 X281.063 Y180.117 E160.96149
G1 X281.131 Y179.863 E160.97021
G0 X281.576 Y179.438 F5400
G1 X281.518 Y179.460 E160.97229 F2400
G1 X49.381 Y179.707 E168.69320
G1 X49.342 Y179.584 E168.69750
G1 X49.503 Y180.185 E168.71818
G1 X49.627 Y181.598 E168.76538
G1 X49.503 Y183.010 E168.81254
G1 X49.308 Y183.738 E168.83758
G1 X281.609 Y183.738 E176.56394
G1 X281.692 Y183.881 E176.56944
G1 X281.459 Y183.010 E176.59942
G1 X281.335 Y181.598 E176.64658
G1 X281.459 Y180.186 E176.69372
G1 X281.643 Y179.498 E176.71742
G0 X282.083 Y179.056 F5400
G1 X282.066 Y179.060 E176.71798 F2400
G1 X48.830 Y179.307 E184.47546
G1 X48.809 Y179.140 E184.48106
G1 X49.108 Y180.255 E184.51944
G1 X49.226 Y181.598 E184.56430
G1 X49.108 Y182.941 E184.60912
G1 X48.782 Y184.155 E184.65094
G1 X48.924 Y184.138 E184.65568
G1 X282.158 Y184.138 E192.41308
G1 X282.131 Y183.973 E192.41864
G1 X281.854 Y182.940 E192.45418
G1 X281.736 Y181.598 E192.49900
G1 X281.854 Y180.256 E192.54380
G1 X282.155 Y179.132 E192.58252
G0 X282.704 Y178.677 F5400
G1 X282.706 Y178.659 E192.58312 F2400
G1 X48.375 Y178.908 E200.37702
G1 X48.415 Y179.218 E200.38744
G1 X48.712 Y180.325 E200.42554
G1 X48.824 Y181.598 E200.46806
G1 X48.712 Y182.871 E200.51056
G1 X48.382 Y184.104 E200.55300
G1 X48.279 Y184.326 E200.56114
G1 X48.284 Y184.538 E200.56820
G1 X282.706 Y184.538 E208.36514
G1 X282.700 Y184.362 E208.37100
G1 X282.580 Y184.104 E208.38046
G1 X282.250 Y182.871 E208.42294
G1 X282.138 Y181.598 E208.46544
G1 X282.250 Y180.326 E208.50792
G1 X282.580 Y179.092 E208.55040
G1 X282.680 Y178.877 E208.55832
G1 X282.681 Y178.875 E208.55836
G0 X282.818 Y178.636 F5400
;segType:InnerHair
G1 X282.798 Y178.649 E208.55912 F2400
G1 X282.665 Y178.732 E208.56630
G1 X282.744 Y178.682 E208.56980
G1 X282.817 Y178.635 E208.57238
G0 X283.246 Y178.259 F5400
;segType:HShell
G1 X47.644 Y178.259 E216.40856 F2400
G1 X47.668 Y178.509 E216.41690
G1 X48.004 Y179.230 E216.44338
G1 X48.317 Y180.394 E216.48346
G1 X48.422 Y181.598 E216.52366
G1 X48.317 Y182.801 E216.56382
G1 X48.005 Y183.966 E216.60392
G1 X47.649 Y184.730 E216.63196
G1 X47.644 Y184.938 E216.63888
G1 X283.346 Y184.938 E224.47838
G1 X283.289 Y184.678 E224.48722
G1 X282.957 Y183.967 E224.51332
G1 X282.645 Y182.801 E224.55346
G1 X282.540 Y181.598 E224.59362
G1 X282.645 Y180.396 E224.63378
G1 X282.957 Y179.230 E224.67392
G1 X283.310 Y178.472 E224.70172
G1 X283.330 Y178.357 E224.70560
G0 X283.450 Y178.233 F5400
;segType:InnerHair
G1 X283.438 Y178.241 E224.70602 F2400
G1 X283.297 Y178.329 E224.71360
G1 X283.376 Y178.279 E224.71706
G1 X283.449 Y178.232 E224.71960
G0 X284.210 Y177.827 F5400
G1 X284.169 Y177.848 E224.72106 F2400
G1 X284.078 Y177.896 E224.72512
G1 X283.986 Y177.891 E224.72866
G1 X284.043 Y177.912 E224.73124
G1 X284.128 Y177.868 E224.73462
G1 X284.210 Y177.826 E224.73720
G0 X284.748 Y177.566 F5400
;segType:HShell
G1 X284.718 Y177.459 E224.74090 F2400
G1 X46.272 Y177.459 E232.67164
G1 X46.187 Y177.663 E232.67900
G1 X46.799 Y178.537 E232.71450
G1 X47.250 Y179.505 E232.75002
G1 X47.526 Y180.534 E232.78546
G1 X47.619 Y181.598 E232.82100
G1 X47.526 Y182.662 E232.85650
G1 X47.250 Y183.692 E232.89196
G1 X46.799 Y184.660 E232.92750
G1 X46.186 Y185.535 E232.96302
G1 X46.272 Y185.738 E232.97036
G1 X284.718 Y185.738 E240.90110
G1 X284.769 Y185.525 E240.90836
G1 X284.163 Y184.660 E240.94350
G1 X283.712 Y183.692 E240.97900
G1 X283.436 Y182.662 E241.01450
G1 X283.343 Y181.598 E241.05000
G1 X283.436 Y180.535 E241.08550
G1 X283.712 Y179.504 E241.12098
G1 X284.163 Y178.536 E241.15650
G1 X284.718 Y177.744 E241.18870
G0 X285.092 Y177.412 F5400
;segType:InnerHair
G1 X285.084 Y177.415 E241.18894 F2400
G1 X284.992 Y177.453 E241.19214
G1 X284.901 Y177.468 E241.19536
G1 X284.809 Y177.515 E241.19976
G1 X284.819 Y177.524 E241.20032
G1 X284.910 Y177.486 E241.20408
G1 X285.001 Y177.448 E241.20724
G1 X285.092 Y177.411 E241.20976
G0 X285.733 Y177.145 F5400
G1 X285.831 Y177.114 E241.21418 F2400
G1 X285.930 Y177.083 E241.21808
G1 X286.028 Y177.052 E241.22144
G1 X286.126 Y177.021 E241.22426
G1 X286.225 Y176.990 E241.22654
G1 X286.228 Y176.989 E241.22660
G0 X286.233 Y177.901 F5400
;segType:HShell
G1 X286.304 Y177.831 E241.22992 F2400
G1 X287.007 Y177.339 E241.25846
G1 X287.783 Y176.977 E241.28692
G1 X288.612 Y176.754 E241.31548
G1 X289.466 Y176.680 E241.34398
G1 X290.320 Y176.754 E241.37250
G1 X291.148 Y176.976 E241.40102
G1 X291.925 Y177.339 E241.42952
G1 X292.628 Y177.831 E241.45806
G1 X293.233 Y178.436 E241.48652
G1 X293.726 Y179.139 E241.51506
G1 X294.088 Y179.916 E241.54360
G1 X294.310 Y180.744 E241.57210
G1 X294.385 Y181.598 E241.60060
G1 X294.310 Y182.453 E241.62914
G1 X294.088 Y183.280 E241.65762
G1 X293.726 Y184.058 E241.68618
G1 X293.234 Y184.760 E241.71470
G1 X292.628 Y185.366 E241.74318
G1 X291.924 Y185.858 E241.77174
G1 X291.149 Y186.220 E241.80022
G1 X290.320 Y186.442 E241.82876
G1 X289.466 Y186.517 E241.85726
G1 X288.612 Y186.442 E241.88578
G1 X287.783 Y186.220 E241.91432
G1 X287.007 Y185.858 E241.94280
G1 X286.304 Y185.366 E241.97134
G1 X285.698 Y184.760 E241.99984
G1 X285.206 Y184.058 E242.02836
G1 X284.844 Y183.280 E242.05688
G1 X284.622 Y182.453 E242.08538
G1 X284.547 Y181.598 E242.11392
G1 X284.622 Y180.744 E242.14242
G1 X284.844 Y179.916 E242.17092
G1 X285.206 Y179.139 E242.19946
G1 X285.698 Y178.437 E242.22798
G1 X286.092 Y178.043 E242.24650
G0 X286.516 Y178.184 F5400
G1 X286.562 Y178.138 E242.24866 F2400
G1 X287.207 Y177.686 E242.27486
G1 X287.920 Y177.354 E242.30102
G1 X288.682 Y177.150 E242.32722
G1 X289.466 Y177.081 E242.35340
G1 X290.250 Y177.150 E242.37960
G1 X291.011 Y177.354 E242.40580
G1 X291.724 Y177.686 E242.43198
G1 X292.370 Y178.138 E242.45820
G1 X292.926 Y178.694 E242.48434
G1 X293.378 Y179.339 E242.51054
G1 X293.711 Y180.054 E242.53674
G1 X293.914 Y180.814 E242.56292
G1 X293.983 Y181.598 E242.58912
G1 X293.914 Y182.383 E242.61532
G1 X293.711 Y183.143 E242.64148
G1 X293.378 Y183.857 E242.66770
G1 X292.926 Y184.502 E242.69390
G1 X292.370 Y185.058 E242.72004
G1 X291.724 Y185.511 E242.74628
G1 X291.011 Y185.843 E242.77244
G1 X290.250 Y186.047 E242.79862
G1 X289.466 Y186.115 E242.82482
G1 X288.682 Y186.047 E242.85100
G1 X287.920 Y185.843 E242.87722
G1 X287.208 Y185.510 E242.90336
G1 X286.562 Y185.058 E242.92958
G1 X286.006 Y184.502 E242.95574
G1 X285.554 Y183.857 E242.98194
G1 X285.221 Y183.143 E243.00814
G1 X285.018 Y182.383 E243.03430
G1 X284.949 Y181.598 E243.06050
G1 X285.018 Y180.814 E243.08668
G1 X285.221 Y180.054 E243.11286
G1 X285.554 Y179.340 E243.13906
G1 X286.006 Y178.695 E243.16526
G1 X286.375 Y178.326 E243.18264
G0 X286.799 Y178.467 F5400
G1 X286.820 Y178.446 E243.18362 F2400
G1 X287.408 Y178.034 E243.20748
G1 X288.058 Y177.731 E243.23134
G1 X288.751 Y177.545 E243.25522
G1 X289.466 Y177.483 E243.27906
G1 X290.180 Y177.545 E243.30294
G1 X290.874 Y177.731 E243.32680
G1 X291.523 Y178.034 E243.35064
G1 X292.112 Y178.446 E243.37452
G1 X292.618 Y178.953 E243.39836
G1 X293.030 Y179.540 E243.42222
G1 X293.333 Y180.191 E243.44610
G1 X293.519 Y180.884 E243.46996
G1 X293.582 Y181.598 E243.49380
G1 X293.519 Y182.313 E243.51768
G1 X293.334 Y183.006 E243.54152
G1 X293.030 Y183.656 E243.56540
G1 X292.618 Y184.244 E243.58926
G1 X292.112 Y184.751 E243.61310
G1 X291.523 Y185.163 E243.63700
G1 X290.874 Y185.466 E243.66082
G1 X290.181 Y185.651 E243.68470
G1 X289.466 Y185.714 E243.70856
G1 X288.751 Y185.651 E243.73240
G1 X288.058 Y185.465 E243.75628
G1 X287.408 Y185.163 E243.78012
G1 X286.820 Y184.751 E243.80400
G1 X286.313 Y184.244 E243.82784
G1 X285.902 Y183.656 E243.85170
G1 X285.598 Y183.006 E243.87558
G1 X285.413 Y182.313 E243.89942
G1 X285.350 Y181.598 E243.92330
G1 X285.413 Y180.884 E243.94714
G1 X285.598 Y180.191 E243.97100
G1 X285.902 Y179.540 E243.99488
G1 X286.313 Y178.953 E244.01874
G1 X286.658 Y178.608 E244.03494
G0 X287.192 Y176.730 F5400
;segType:InnerHair
G1 X287.245 Y176.718 E244.03730 F2400
G1 X287.351 Y176.695 E244.04158
G1 X287.457 Y176.671 E244.04546
G1 X287.563 Y176.648 E244.04890
G0 X287.735 Y176.618 F5400
G0 X288.101 Y176.570
G1 X288.009 Y176.582 E244.05080 F2400
G1 X287.918 Y176.594 E244.05288
G1 X287.826 Y176.606 E244.05514
G1 X287.735 Y176.618 E244.05758
G0 F3000 E243.05758
G0 X294.032 Y178.847 F5400
G0 F3000 E244.05758
;segType:HShell
G1 X293.746 Y178.412 E244.07490 F2400
G1 X293.347 Y177.936 E244.09556
G1 X292.896 Y177.511 E244.11618
G1 X292.398 Y177.140 E244.13682
G1 X291.860 Y176.830 E244.15748
G1 X291.291 Y176.584 E244.17810
G1 X290.697 Y176.406 E244.19872
G1 X290.085 Y176.298 E244.21936
G1 X289.403 Y176.259 E244.24210
G1 X41.559 Y176.259 E252.48544
G1 X40.877 Y176.298 E252.50816
G1 X40.265 Y176.406 E252.52880
G1 X39.671 Y176.584 E252.54944
G1 X39.101 Y176.830 E252.57008
G1 X38.564 Y177.140 E252.59072
G1 X38.066 Y177.511 E252.61134
G1 X37.615 Y177.937 E252.63198
G1 X37.216 Y178.412 E252.65264
G1 X36.875 Y178.931 E252.67328
G1 X36.596 Y179.485 E252.69390
G1 X36.384 Y180.068 E252.71454
G1 X36.241 Y180.671 E252.73516
G1 X36.169 Y181.288 E252.75582
G1 X36.169 Y181.909 E252.77648
G1 X36.241 Y182.525 E252.79712
G1 X36.384 Y183.129 E252.81774
G1 X36.596 Y183.712 E252.83838
G1 X36.875 Y184.266 E252.85900
G1 X37.216 Y184.785 E252.87966
G1 X37.615 Y185.260 E252.90030
G1 X38.066 Y185.686 E252.92094
G1 X38.564 Y186.056 E252.94158
G1 X39.101 Y186.367 E252.96222
G1 X39.671 Y186.613 E252.98286
G1 X40.265 Y186.790 E253.00350
G1 X40.877 Y186.898 E253.02414
G1 X41.559 Y186.938 E253.04686
G1 X289.403 Y186.938 E261.29020
G1 X290.085 Y186.898 E261.31292
G1 X290.697 Y186.790 E261.33358
G1 X291.291 Y186.613 E261.35422
G1 X291.861 Y186.366 E261.37488
G1 X292.398 Y186.057 E261.39548
G1 X292.896 Y185.686 E261.41614
G1 X293.346 Y185.261 E261.43674
G1 X293.746 Y184.784 E261.45742
G1 X294.087 Y184.266 E261.47806
G1 X294.366 Y183.711 E261.49872
G1 X294.577 Y183.129 E261.51932
G1 X294.721 Y182.524 E261.54000
G1 X294.793 Y181.909 E261.56060
G1 X294.793 Y181.288 E261.58126
G1 X294.721 Y180.671 E261.60190
G1 X294.578 Y180.068 E261.62250
G1 X294.365 Y179.485 E261.64316
G1 X294.132 Y179.020 E261.66046
G0 X294.379 Y178.647 F5400
G1 X294.067 Y178.173 E261.67936 F2400
G1 X293.638 Y177.661 E261.70154
G1 X293.153 Y177.204 E261.72370
G1 X292.618 Y176.806 E261.74588
G1 X292.040 Y176.472 E261.76806
G1 X291.428 Y176.207 E261.79026
G1 X290.789 Y176.016 E261.81240
G1 X290.132 Y175.900 E261.83460
G1 X289.415 Y175.859 E261.85848
G1 X41.547 Y175.859 E270.10260
G1 X40.830 Y175.900 E270.12650
G1 X40.173 Y176.016 E270.14868
G1 X39.534 Y176.208 E270.17086
G1 X38.921 Y176.472 E270.19306
G1 X38.344 Y176.805 E270.21524
G1 X37.809 Y177.204 E270.23742
G1 X37.323 Y177.662 E270.25962
G1 X36.894 Y178.173 E270.28180
G1 X36.528 Y178.730 E270.30398
G1 X36.228 Y179.326 E270.32618
G1 X36.000 Y179.953 E270.34836
G1 X35.847 Y180.602 E270.37054
G1 X35.769 Y181.265 E270.39274
G1 X35.769 Y181.932 E270.41494
G1 X35.846 Y182.595 E270.43714
G1 X36.000 Y183.244 E270.45932
G1 X36.228 Y183.870 E270.48150
G1 X36.528 Y184.466 E270.50370
G1 X36.894 Y185.024 E270.52588
G1 X37.323 Y185.535 E270.54806
G1 X37.809 Y185.993 E270.57026
G1 X38.344 Y186.391 E270.59244
G1 X38.921 Y186.725 E270.61462
G1 X39.534 Y186.989 E270.63682
G1 X40.173 Y187.180 E270.65900
G1 X40.830 Y187.296 E270.68118
G1 X41.547 Y187.338 E270.70508
G1 X289.414 Y187.338 E278.94918
G1 X290.132 Y187.296 E278.97308
G1 X290.789 Y187.180 E278.99526
G1 X291.428 Y186.989 E279.01746
G1 X292.041 Y186.724 E279.03968
G1 X292.618 Y186.391 E279.06182
G1 X293.153 Y185.993 E279.08404
G1 X293.638 Y185.536 E279.10620
G1 X294.068 Y185.024 E279.12842
G1 X294.434 Y184.467 E279.15060
G1 X294.734 Y183.870 E279.17282
G1 X294.961 Y183.244 E279.19498
G1 X295.116 Y182.594 E279.21720
G1 X295.193 Y181.932 E279.23934
G1 X295.193 Y181.265 E279.26156
G1 X295.115 Y180.602 E279.28376
G1 X294.962 Y179.953 E279.30590
G1 X294.733 Y179.326 E279.32810
G1 X294.479 Y178.820 E279.34696
G0 X294.772 Y178.516 F5400
G1 X294.389 Y177.933 E279.37014 F2400
G1 X293.930 Y177.386 E279.39390
G1 X293.411 Y176.897 E279.41760
G1 X292.839 Y176.471 E279.44134
G1 X292.220 Y176.114 E279.46508
G1 X291.565 Y175.831 E279.48884
G1 X290.881 Y175.627 E279.51254
G1 X290.178 Y175.502 E279.53628
G1 X289.426 Y175.459 E279.56134
G1 X41.535 Y175.459 E287.80622
G1 X40.784 Y175.502 E287.83126
G1 X40.080 Y175.627 E287.85502
G1 X39.397 Y175.831 E287.87876
G1 X38.741 Y176.114 E287.90250
G1 X38.123 Y176.471 E287.92624
G1 X37.551 Y176.897 E287.94998
G1 X37.032 Y177.387 E287.97372
G1 X36.573 Y177.933 E287.99746
G1 X36.181 Y178.530 E288.02120
G1 X35.860 Y179.167 E288.04496
G1 X35.616 Y179.838 E288.06870
G1 X35.452 Y180.532 E288.09244
G1 X35.369 Y181.241 E288.11618
G1 X35.369 Y181.955 E288.13992
G1 X35.452 Y182.664 E288.16366
G1 X35.616 Y183.359 E288.18740
G1 X35.860 Y184.029 E288.21116
G1 X36.181 Y184.667 E288.23490
G1 X36.573 Y185.263 E288.25864
G1 X37.032 Y185.810 E288.28238
G1 X37.551 Y186.300 E288.30612
G1 X38.123 Y186.726 E288.32986
G1 X38.741 Y187.083 E288.35360
G1 X39.397 Y187.366 E288.37734
G1 X40.081 Y187.570 E288.40110
G1 X40.784 Y187.694 E288.42484
G1 X41.535 Y187.738 E288.44990
G1 X289.426 Y187.738 E296.69476
G1 X290.178 Y187.694 E296.71982
G1 X290.881 Y187.570 E296.74356
G1 X291.565 Y187.366 E296.76728
G1 X292.221 Y187.082 E296.79104
G1 X292.838 Y186.726 E296.81476
G1 X293.411 Y186.300 E296.83854
G1 X293.929 Y185.811 E296.86222
G1 X294.389 Y185.263 E296.88598
G1 X294.781 Y184.667 E296.90972
G1 X295.101 Y184.029 E296.93348
G1 X295.345 Y183.359 E296.95718
G1 X295.510 Y182.664 E296.98096
G1 X295.593 Y181.956 E297.00466
G1 X295.593 Y181.241 E297.02842
G1 X295.510 Y180.532 E297.05216
G1 X295.345 Y179.838 E297.07586
G1 X295.101 Y179.168 E297.09960
G1 X294.863 Y178.694 E297.11724
G0 X295.542 Y178.353 F5400
;segType:Loop
G1 X295.800 Y178.866 E297.13636 F2400
G1 X296.075 Y179.620 E297.16306
G1 X296.260 Y180.400 E297.18972
G1 X296.353 Y181.197 E297.21640
G1 X296.353 Y181.999 E297.24308
G1 X296.260 Y182.796 E297.26974
G1 X296.075 Y183.577 E297.29644
G1 X295.800 Y184.331 E297.32312
G1 X295.440 Y185.047 E297.34980
G1 X295.000 Y185.717 E297.37646
G1 X294.483 Y186.333 E297.40320
G1 X293.901 Y186.883 E297.42984
G1 X293.256 Y187.362 E297.45654
G1 X292.562 Y187.763 E297.48318
G1 X291.825 Y188.081 E297.50988
G1 X291.057 Y188.311 E297.53656
G1 X290.267 Y188.450 E297.56324
G1 X289.448 Y188.498 E297.59052
G1 X41.513 Y188.498 E305.83686
G1 X40.695 Y188.450 E305.86410
G1 X39.905 Y188.311 E305.89078
G1 X39.137 Y188.081 E305.91744
G1 X38.400 Y187.763 E305.94416
G1 X37.705 Y187.362 E305.97082
G1 X37.062 Y186.883 E305.99750
G1 X36.478 Y186.332 E306.02416
G1 X35.962 Y185.718 E306.05084
G1 X35.521 Y185.047 E306.07752
G1 X35.161 Y184.331 E306.10418
G1 X34.887 Y183.577 E306.13086
G1 X34.702 Y182.796 E306.15754
G1 X34.609 Y182.000 E306.18420
G1 X34.609 Y181.197 E306.21090
G1 X34.702 Y180.400 E306.23758
G1 X34.887 Y179.620 E306.26426
G1 X35.161 Y178.866 E306.29092
G1 X35.521 Y178.149 E306.31760
G1 X35.962 Y177.479 E306.34430
G1 X36.478 Y176.864 E306.37098
G1 X37.062 Y176.314 E306.39764
G1 X37.705 Y175.835 E306.42432
G1 X38.400 Y175.434 E306.45098
G1 X39.137 Y175.116 E306.47770
G1 X39.905 Y174.886 E306.50436
G1 X40.695 Y174.746 E306.53104
G1 X41.513 Y174.699 E306.55828
G1 X289.449 Y174.699 E314.80466
G1 X290.267 Y174.746 E314.83190
G1 X291.057 Y174.886 E314.85858
G1 X291.825 Y175.116 E314.88526
G1 X292.562 Y175.434 E314.91196
G1 X293.257 Y175.835 E314.93862
G1 X293.900 Y176.314 E314.96530
G1 X294.483 Y176.864 E314.99198
G1 X294.999 Y177.479 E315.01868
G1 X295.440 Y178.149 E315.04538
G1 X295.453 Y178.174 E315.04630
G0 F3000 E314.04630
G0 X295.453 Y178.174 F5400
G0 X292.787 Y181.239
G0 X292.819 Y181.598
G0 X292.768 Y182.181
G0 X292.617 Y182.745
G0 X292.370 Y183.275
G0 X292.034 Y183.753
G0 X291.621 Y184.166
G0 X291.142 Y184.502
G0 X290.613 Y184.749
G0 X290.048 Y184.900
G0 X289.566 Y184.942
G0 X288.101 Y186.627
G0 F3000 E315.04630
;segType:InnerHair
G0 X287.735 Y186.579 F5400
G1 X287.507 Y186.537 E315.05414 F2400
G1 X287.402 Y186.513 E315.05822
G1 X287.296 Y186.490 E315.06274
G1 X287.190 Y186.466 E315.06768
G1 X287.084 Y186.443 E315.07306
G0 X287.095 Y186.444 F5400
G0 X287.186 Y186.464
G0 X287.278 Y186.485
G0 X287.369 Y186.505
G0 X287.461 Y186.525
G0 X287.552 Y186.546
G0 X287.644 Y186.566
G1 X287.735 Y186.579 E315.07550 F2400
G1 X287.826 Y186.591 E315.07776
G1 X287.918 Y186.603 E315.07984
G1 X288.009 Y186.615 E315.08172
G1 X288.101 Y186.627 E315.08344
G0 X285.724 Y186.046 F5400
G1 X285.815 Y186.084 E315.08762 F2400
G1 X285.906 Y186.122 E315.09116
G1 X285.998 Y186.134 E315.09430
G1 X286.089 Y186.162 E315.09710
G1 X286.177 Y186.190 E315.09936
G0 X284.809 Y185.681 F5400
G1 X284.901 Y185.729 E315.10294 F2400
G1 X284.992 Y185.743 E315.10592
G1 X285.083 Y185.781 E315.10848
G0 X284.250 Y185.392 F5400
G1 X284.169 Y185.350 E315.11138 F2400
G1 X284.084 Y185.306 E315.11514
G1 X283.999 Y185.261 E315.11960
G1 X283.986 Y185.306 E315.12136
G1 X284.078 Y185.301 E315.12496
G1 X284.169 Y185.348 E315.12820
G1 X284.251 Y185.391 E315.13046
G0 X283.574 Y185.040 F5400
G1 X283.492 Y184.992 E315.13278 F2400
G1 X283.413 Y184.942 E315.13586
G1 X283.334 Y184.892 E315.13974
G1 X283.255 Y184.841 E315.14440
G1 X283.438 Y184.956 E315.15094
G1 X283.529 Y185.014 E315.15316
G1 X283.574 Y185.040 E315.15402
G0 X282.939 Y184.640 F5400
G1 X282.860 Y184.590 E315.15638 F2400
G1 X282.781 Y184.539 E315.15952
G1 X282.702 Y184.489 E315.16342
G1 X282.798 Y184.548 E315.16696
G1 X282.889 Y184.606 E315.16934
G1 X282.939 Y184.640 E315.17034
G0 F3000 E314.17034
G0 X287.393 Y178.973 F5400
G0 F3000 E315.17034
;segType:Loop
G1 X287.790 Y178.695 E315.18646 F2400
G1 X288.319 Y178.448 E315.20590
G1 X288.884 Y178.296 E315.22534
G1 X289.466 Y178.246 E315.24478
G1 X290.048 Y178.296 E315.26422
G1 X290.613 Y178.448 E315.28366
G1 X291.142 Y178.695 E315.30310
G1 X291.621 Y179.030 E315.32254
G1 X292.034 Y179.443 E315.34198
G1 X292.370 Y179.922 E315.36142
G1 X292.616 Y180.452 E315.38086
G1 X292.768 Y181.016 E315.40030
G1 X292.819 Y181.598 E315.41974
G1 X292.768 Y182.181 E315.43918
G1 X292.617 Y182.745 E315.45858
G1 X292.370 Y183.275 E315.47802
G1 X292.034 Y183.753 E315.49746
G1 X291.621 Y184.166 E315.51690
G1 X291.142 Y184.502 E315.53634
G1 X290.613 Y184.749 E315.55578
G1 X290.048 Y184.900 E315.57522
G1 X289.466 Y184.951 E315.59466
G1 X288.884 Y184.900 E315.61410
G1 X288.319 Y184.749 E315.63354
G1 X287.790 Y184.502 E315.65298
G1 X287.311 Y184.166 E315.67242
G1 X286.898 Y183.753 E315.69186
G1 X286.562 Y183.275 E315.71130
G1 X286.315 Y182.745 E315.73074
G1 X286.164 Y182.181 E315.75016
G1 X286.113 Y181.598 E315.76960
G1 X286.164 Y181.016 E315.78904
G1 X286.315 Y180.452 E315.80848
G1 X286.562 Y179.922 E315.82792
G1 X286.898 Y179.443 E315.84736
G1 X287.240 Y179.101 E315.86346
G0 F3000 E314.86346
G0 X44.806 Y181.115 F5400
G0 F3000 E315.86346
G1 X44.849 Y181.598 E315.87958 F2400
G1 X44.798 Y182.181 E315.89902
G1 X44.647 Y182.745 E315.91846
G1 X44.400 Y183.275 E315.93790
G1 X44.064 Y183.753 E315.95734
G1 X43.651 Y184.167 E315.97678
G1 X43.172 Y184.502 E315.99622
G1 X42.643 Y184.749 E316.01566
G1 X42.078 Y184.900 E316.03510
G1 X41.496 Y184.951 E316.05454
G1 X40.914 Y184.900 E316.07398
G1 X40.349 Y184.749 E316.09342
G1 X39.820 Y184.502 E316.11286
G1 X39.341 Y184.166 E316.13230
G1 X38.928 Y183.753 E316.15174
G1 X38.592 Y183.275 E316.17118
G1 X38.345 Y182.745 E316.19062
G1 X38.194 Y182.181 E316.21006
G1 X38.143 Y181.598 E316.22950
G1 X38.194 Y181.016 E316.24894
G1 X38.345 Y180.452 E316.26838
G1 X38.592 Y179.922 E316.28782
G1 X38.928 Y179.443 E316.30726
G1 X39.341 Y179.030 E316.32670
G1 X39.820 Y178.695 E316.34614
G1 X40.349 Y178.448 E316.36558
G1 X40.914 Y178.296 E316.38500
G1 X41.496 Y178.246 E316.40444
G1 X42.078 Y178.296 E316.42388
G1 X42.643 Y178.448 E316.44332
G1 X43.172 Y178.695 E316.46276
G1 X43.651 Y179.030 E316.48220
G1 X44.064 Y179.443 E316.50164
G1 X44.400 Y179.922 E316.52108
G1 X44.646 Y180.452 E316.54052
G1 X44.772 Y180.919 E316.55662
G0 F3000 E315.55662
G0 X53.662 Y174.699 F5400
G0 X289.449 Y174.699
G0 X285.382 Y23.226
G0 X286.199 Y23.179
G0 X286.990 Y23.039
G0 X287.758 Y22.809
G0 X288.420 Y22.524
G0 X288.389 Y17.819
G0 X288.550 Y17.473
G0 X288.701 Y16.909
G0 X288.752 Y16.326
G0 X288.701 Y15.745
G0 X288.550 Y15.180
G0 X288.368 Y14.790
G0 X288.336 Y10.093
G0 X288.494 Y10.161
G0 X288.339 Y10.487
G0 F3000 E316.55662
;segType:HShell
G1 X288.333 Y10.484 E316.55680 F2400
G1 X287.635 Y10.182 E316.57702
G1 X286.908 Y9.965 E316.59720
G1 X286.158 Y9.833 E316.61746
G1 X285.372 Y9.787 E316.63840
G1 X37.458 Y9.787 E323.23492
G1 X36.671 Y9.833 E323.25592
G1 X35.921 Y9.965 E323.27618
G1 X35.194 Y10.183 E323.29638
G1 X34.495 Y10.484 E323.31662
G1 X33.837 Y10.864 E323.33686
G1 X33.227 Y11.318 E323.35708
G1 X32.674 Y11.840 E323.37732
G1 X32.185 Y12.422 E323.39756
G1 X31.768 Y13.058 E323.41778
G1 X31.426 Y13.737 E323.43802
G1 X31.166 Y14.452 E323.45826
G1 X30.991 Y15.191 E323.47848
G1 X30.903 Y15.946 E323.49872
G1 X30.903 Y16.707 E323.51896
G1 X30.991 Y17.462 E323.53918
G1 X31.166 Y18.202 E323.55942
G1 X31.426 Y18.916 E323.57966
G1 X31.768 Y19.596 E323.59988
G1 X32.185 Y20.231 E323.62012
G1 X32.674 Y20.813 E323.64032
G1 X33.227 Y21.335 E323.66056
G1 X33.837 Y21.789 E323.68078
G1 X34.495 Y22.169 E323.70102
G1 X35.194 Y22.470 E323.72126
G1 X35.921 Y22.688 E323.74146
G1 X36.671 Y22.820 E323.76172
G1 X37.458 Y22.866 E323.78272
G1 X285.372 Y22.866 E330.37922
G1 X286.158 Y22.820 E330.40018
G1 X286.907 Y22.688 E330.42042
G1 X287.635 Y22.470 E330.44064
G1 X288.334 Y22.169 E330.46090
G1 X288.992 Y21.789 E330.48114
G1 X289.602 Y21.335 E330.50138
G1 X290.155 Y20.813 E330.52160
G1 X290.644 Y20.231 E330.54184
G1 X291.061 Y19.596 E330.56208
G1 X291.403 Y18.916 E330.58230
G1 X291.663 Y18.202 E330.60250
G1 X291.838 Y17.463 E330.62272
G1 X291.926 Y16.706 E330.64298
G1 X291.926 Y15.946 E330.66320
G1 X291.838 Y15.191 E330.68344
G1 X291.663 Y14.451 E330.70368
G1 X291.403 Y13.737 E330.72388
G1 X291.062 Y13.059 E330.74408
G1 X290.644 Y12.423 E330.76432
G1 X290.155 Y11.840 E330.78454
G1 X289.601 Y11.318 E330.80480
G1 X288.991 Y10.863 E330.82508
G1 X288.512 Y10.587 E330.83978
G0 X286.991 Y9.614 F5400
G0 X287.151 Y9.468
;segType:Perimeter
G1 X287.950 Y9.491 E330.86640 F1439
G1 X288.675 Y9.804 E330.89264
G1 X289.410 Y10.228 E330.92086
G1 X290.092 Y10.735 E330.94912
G1 X290.708 Y11.317 E330.97732
G1 X291.254 Y11.968 E331.00556
G1 X291.721 Y12.678 E331.03384
G1 X292.102 Y13.436 E331.06208
G1 X292.392 Y14.232 E331.09024
G1 X292.588 Y15.059 E331.11850
G1 X292.686 Y15.902 E331.14672
G1 X292.686 Y16.751 E331.17496
G1 X292.588 Y17.595 E331.20322
G1 X292.392 Y18.420 E331.23144
G1 X292.102 Y19.218 E331.25968
G1 X291.721 Y19.976 E331.28790
G1 X291.254 Y20.686 E331.31614
G1 X290.709 Y21.336 E331.34436
G1 X290.091 Y21.918 E331.37258
G1 X289.410 Y22.425 E331.40082
G1 X288.675 Y22.849 E331.42904
G1 X287.895 Y23.186 E331.45730
G1 X287.083 Y23.429 E331.48550
G1 X286.246 Y23.577 E331.51376
G1 X285.393 Y23.626 E331.54218
G1 X37.436 Y23.626 E339.78928
G1 X36.582 Y23.576 E339.81776
G1 X35.746 Y23.429 E339.84600
G1 X34.933 Y23.186 E339.87420
G1 X34.154 Y22.849 E339.90244
G1 X33.419 Y22.425 E339.93068
G1 X32.737 Y21.918 E339.95888
G1 X32.120 Y21.335 E339.98712
G1 X31.575 Y20.686 E340.01536
G1 X31.108 Y19.976 E340.04356
G1 X30.727 Y19.218 E340.07180
G1 X30.437 Y18.420 E340.10004
G1 X30.241 Y17.594 E340.12828
G1 X30.143 Y16.751 E340.15648
G1 X30.143 Y15.902 E340.18472
G1 X30.241 Y15.059 E340.21296
G1 X30.437 Y14.233 E340.24120
G1 X30.727 Y13.436 E340.26940
G1 X31.108 Y12.677 E340.29764
G1 X31.575 Y11.968 E340.32588
G1 X32.120 Y11.317 E340.35408
G1 X32.737 Y10.735 E340.38232
G1 X33.419 Y10.228 E340.41060
G1 X34.153 Y9.804 E340.43880
G1 X34.933 Y9.467 E340.46704
G1 X35.746 Y9.224 E340.49524
G1 X36.582 Y9.077 E340.52348
G1 X37.436 Y9.027 E340.55196
G1 X285.394 Y9.027 E348.79908
G1 X286.246 Y9.077 E348.82748
G1 X287.083 Y9.224 E348.85576
G1 X287.838 Y9.450 E348.88196
G0 X287.950 Y9.491 F5400
G0 X288.675 Y9.804
G0 X289.377 Y10.209
G0 F3000 E347.88196
G0 X289.189 Y10.562 F5400
G0 X289.061 Y10.488
G0 X286.146 Y13.069
G0 X285.981 Y13.025
G0 X285.400 Y12.974
