; #disp params :
; Printmode:0
; Layer:20
; Xmin:25.902 mm
; Xmax:293.772 mm
; XDimension:267.87 mm
; Ymin:87.449 mm
; Ymax:110.758 mm
; YDimension:23.309 mm
; Zmax:4 mm
; E0diam:0.4 mm
; E0len:2.41421 m
; E0temp:215 C
; Bedtemp:215 C
; Time:41.8525 min
; #params end
; GCode generated by CraftWare

G28 X Y ; home horizontally
G28 Z ; home vertically


M104 S215 ;set head temp (no wait)
M190 S60 ;set bed temp (wait)
M109 S215 ;set head temp (wait)
; ------------------------------------
; Layer #0
; ------------------------------------
M106 S0 ;turn off fan
G21 ; mm
G90 ; abs
G92 E0 ;reset extr
G0 F600 Z0.200
;segType:Skirt
G0 F3000 E-1.00000
G0 X32.543 Y111.023 F5400
G0 F3000 E0.00000
G1 X32.277 Y110.758 E0.01249 F2400
G1 X31.945 Y110.559 E0.02536
G1 X27.961 Y106.574 E0.21277
G1 X27.761 Y106.242 E0.22566
G1 X27.230 Y105.711 E0.25065
G1 X27.097 Y105.313 E0.26462
G1 X26.832 Y105.047 E0.27712
G1 X26.699 Y104.648 E0.29108
G1 X26.500 Y104.317 E0.30395
G1 X26.101 Y103.121 E0.34586
G1 X26.035 Y102.656 E0.36149
G1 X25.902 Y102.258 E0.37545
G1 X25.902 Y97.742 E0.52565
G1 X26.035 Y97.609 E0.53189
G1 X26.035 Y97.078 E0.54956
G1 X26.168 Y96.945 E0.55581
G1 X26.234 Y96.480 E0.57144
G1 X26.367 Y96.082 E0.58541
G1 X26.566 Y95.750 E0.59827
G1 X26.699 Y95.352 E0.61224
G1 X27.297 Y94.355 E0.65089
G1 X27.562 Y94.090 E0.66338
G1 X27.761 Y93.758 E0.67625
G1 X32.277 Y89.242 E0.88865
G1 X32.609 Y89.043 E0.90154
G1 X32.875 Y88.777 E0.91404
G1 X33.539 Y88.379 E0.93979
G1 X33.937 Y88.246 E0.95376
G1 X34.269 Y88.047 E0.96663
G1 X35.066 Y87.781 E0.99457
G1 X35.531 Y87.715 E1.01020
G1 X35.664 Y87.582 E1.01644
G1 X36.726 Y87.582 E1.05178
G1 X36.859 Y87.449 E1.05803
G1 X172.859 Y87.449 E5.58141
G1 X287.609 Y87.449 E9.39801
G1 X288.275 Y87.544 E9.42038
G0 F3000 E8.42038
G0 X287.286 Y93.148 F5400
G0 X286.468 Y93.100
G0 X37.670 Y105.666
G0 F3000 E9.42038
;segType:HShell
G1 X32.848 Y100.844 E9.64723 F2400
G0 X33.000 Y101.561 F5400
G1 X36.947 Y105.509 E9.83291 F2400
G0 X36.044 Y105.171 F5400
G1 X33.351 Y102.478 E9.95957 F2400
G0 X32.191 Y103.283 F5400
;segType:Perimeter
G1 X31.792 Y102.835 E9.97952 F1439
G1 X31.523 Y102.093 E10.00576
G1 X31.327 Y101.268 E10.03399
G1 X31.228 Y100.424 E10.06223
G1 X31.228 Y99.576 E10.09046
G1 X31.327 Y98.732 E10.11869
G1 X31.523 Y97.907 E10.14692
G1 X31.813 Y97.109 E10.17515
G1 X32.194 Y96.350 E10.20339
G1 X32.660 Y95.641 E10.23162
G1 X33.206 Y94.991 E10.25985
G1 X33.823 Y94.408 E10.28809
G1 X34.504 Y93.902 E10.31632
G1 X35.239 Y93.477 E10.34455
G1 X36.019 Y93.141 E10.37278
G1 X36.832 Y92.897 E10.40101
G1 X37.668 Y92.750 E10.42924
G1 X38.521 Y92.700 E10.45767
G1 X286.479 Y92.700 E18.70480
G1 X287.332 Y92.750 E18.73323
G1 X288.168 Y92.897 E18.76146
G1 X288.982 Y93.141 E18.78969
G1 X289.760 Y93.477 E18.81790
G1 X290.496 Y93.902 E18.84615
G1 X291.177 Y94.409 E18.87439
G1 X291.794 Y94.991 E18.90262
G1 X292.340 Y95.641 E18.93085
G1 X292.807 Y96.351 E18.95911
G1 X293.187 Y97.108 E18.98730
G1 X293.477 Y97.907 E19.01555
G1 X293.674 Y98.733 E19.04379
G1 X293.772 Y99.576 E19.07201
G1 X293.772 Y100.424 E19.10023
G1 X293.673 Y101.268 E19.12848
G1 X293.477 Y102.094 E19.15672
G1 X293.187 Y102.891 E19.18494
G1 X292.807 Y103.649 E19.21314
G1 X292.340 Y104.359 E19.24141
G1 X291.794 Y105.009 E19.26964
G1 X291.177 Y105.592 E19.29787
G1 X290.496 Y106.098 E19.32610
G1 X289.761 Y106.523 E19.35432
G1 X288.981 Y106.859 E19.38257
G1 X288.168 Y107.103 E19.41080
G1 X287.332 Y107.250 E19.43903
G1 X286.479 Y107.300 E19.46746
G1 X38.521 Y107.300 E27.71458
G1 X37.668 Y107.250 E27.74301
G1 X36.832 Y107.103 E27.77124
G1 X36.019 Y106.859 E27.79947
G1 X35.239 Y106.523 E27.82770
G1 X34.504 Y106.098 E27.85594
G1 X33.823 Y105.592 E27.88417
G1 X33.206 Y105.009 E27.91241
G1 X32.660 Y104.359 E27.94063
G1 X32.194 Y103.650 E27.96887
G1 X31.840 Y102.945 E27.99511
G0 X31.792 Y102.835 F5400
G0 X31.523 Y102.093
G0 X31.335 Y101.304
G0 X31.721 Y101.198
G0 X31.854 Y101.757
;segType:Loop
G1 X31.721 Y101.198 E28.01420 F2400
G1 X31.628 Y100.401 E28.04089
G1 X31.628 Y99.599 E28.06757
G1 X31.721 Y98.802 E28.09425
G1 X31.906 Y98.022 E28.12093
G1 X32.180 Y97.268 E28.14761
G1 X32.541 Y96.551 E28.17430
G1 X32.981 Y95.880 E28.20098
G1 X33.497 Y95.266 E28.22766
G1 X34.081 Y94.715 E28.25435
G1 X34.724 Y94.236 E28.28103
G1 X35.419 Y93.835 E28.30772
G1 X36.156 Y93.518 E28.33439
G1 X36.924 Y93.287 E28.36108
G1 X37.714 Y93.148 E28.38776
G1 X38.533 Y93.100 E28.41503
G1 X286.468 Y93.100 E36.66138
G1 X287.286 Y93.148 E36.68865
G1 X288.076 Y93.287 E36.71532
G1 X288.844 Y93.518 E36.74201
G1 X289.581 Y93.835 E36.76867
G1 X290.276 Y94.236 E36.79536
G1 X290.919 Y94.715 E36.82206
G1 X291.503 Y95.266 E36.84874
G1 X292.018 Y95.880 E36.87541
G1 X292.460 Y96.552 E36.90214
G1 X292.819 Y97.267 E36.92876
G1 X293.094 Y98.022 E36.95548
G1 X293.279 Y98.802 E36.98215
G1 X293.372 Y99.599 E37.00884
G1 X293.372 Y100.400 E37.03549
G1 X293.279 Y101.198 E37.06221
G1 X293.093 Y101.979 E37.08891
G1 X292.819 Y102.733 E37.11558
G1 X292.460 Y103.448 E37.14222
G1 X292.018 Y104.120 E37.16895
G1 X291.503 Y104.734 E37.19563
G1 X290.919 Y105.285 E37.22230
G1 X290.276 Y105.763 E37.24897
G1 X289.582 Y106.165 E37.27565
G1 X288.844 Y106.483 E37.30235
G1 X288.076 Y106.713 E37.32903
G1 X287.286 Y106.852 E37.35571
G1 X286.467 Y106.900 E37.38299
G1 X38.533 Y106.900 E45.62933
G1 X37.714 Y106.852 E45.65660
G1 X36.924 Y106.713 E45.68328
G1 X36.156 Y106.482 E45.70996
G1 X35.419 Y106.165 E45.73664
G1 X34.724 Y105.764 E45.76333
G1 X34.081 Y105.285 E45.79001
G1 X33.497 Y104.734 E45.81669
G1 X32.982 Y104.120 E45.84337
G1 X32.541 Y103.449 E45.87006
G1 X32.180 Y102.732 E45.89674
G1 X31.906 Y101.978 E45.92342
G1 X31.900 Y101.951 E45.92435
G0 X32.058 Y100.629 F5400
G1 X32.028 Y100.378 E45.93278 F2400
G1 X32.028 Y99.622 E45.95791
G1 X32.116 Y98.872 E45.98304
G1 X32.290 Y98.136 E46.00817
G1 X32.548 Y97.426 E46.03330
G1 X32.888 Y96.751 E46.05844
G1 X33.303 Y96.120 E46.08357
G1 X33.789 Y95.541 E46.10870
G1 X34.338 Y95.022 E46.13383
G1 X34.944 Y94.571 E46.15896
G1 X35.599 Y94.193 E46.18410
G1 X36.293 Y93.894 E46.20923
G1 X37.016 Y93.677 E46.23437
G1 X37.760 Y93.546 E46.25949
G1 X38.544 Y93.500 E46.28561
G1 X286.456 Y93.500 E54.53118
G1 X287.240 Y93.546 E54.55729
G1 X287.984 Y93.677 E54.58242
G1 X288.707 Y93.894 E54.60755
G1 X289.401 Y94.193 E54.63266
G1 X290.056 Y94.571 E54.65781
G1 X290.662 Y95.022 E54.68294
G1 X291.211 Y95.541 E54.70808
G1 X291.697 Y96.120 E54.73321
G1 X292.113 Y96.752 E54.75839
G1 X292.451 Y97.425 E54.78345
G1 X292.710 Y98.137 E54.80863
G1 X292.884 Y98.871 E54.83374
G1 X292.972 Y99.622 E54.85889
G1 X292.972 Y100.377 E54.88398
G1 X292.884 Y101.129 E54.90916
G1 X292.710 Y101.864 E54.93430
G1 X292.451 Y102.574 E54.95943
G1 X292.113 Y103.248 E54.98451
G1 X291.697 Y103.881 E55.00969
G1 X291.211 Y104.459 E55.03482
G1 X290.662 Y104.978 E55.05995
G1 X290.056 Y105.428 E55.08505
G1 X289.402 Y105.807 E55.11020
G1 X288.707 Y106.106 E55.13535
G1 X287.984 Y106.323 E55.16048
G1 X287.239 Y106.454 E55.18560
G1 X286.456 Y106.500 E55.21172
G1 X38.544 Y106.500 E63.45729
G1 X37.761 Y106.454 E63.48340
G1 X37.016 Y106.323 E63.50852
G1 X36.293 Y106.106 E63.53366
G1 X35.599 Y105.807 E63.55878
G1 X34.944 Y105.429 E63.58392
G1 X34.338 Y104.978 E63.60905
G1 X33.789 Y104.459 E63.63419
G1 X33.303 Y103.880 E63.65931
G1 X32.888 Y103.249 E63.68445
G1 X32.548 Y102.574 E63.70959
G1 X32.290 Y101.864 E63.73472
G1 X32.116 Y101.128 E63.75985
G1 X32.081 Y100.828 E63.76991
G0 X32.440 Y99.546 F5400
G1 X32.510 Y98.941 E63.79016 F2400
G1 X32.674 Y98.251 E63.81375
G1 X32.916 Y97.585 E63.83733
G1 X33.235 Y96.952 E63.86091
G1 X33.624 Y96.359 E63.88450
G1 X34.080 Y95.816 E63.90807
G1 X34.596 Y95.329 E63.93166
G1 X35.165 Y94.906 E63.95524
G1 X35.779 Y94.551 E63.97883
G1 X36.430 Y94.271 E64.00241
G1 X37.109 Y94.067 E64.02600
G1 X37.807 Y93.944 E64.04957
G1 X38.556 Y93.900 E64.07452
G1 X286.444 Y93.900 E72.31932
G1 X287.193 Y93.944 E72.34426
G1 X287.891 Y94.067 E72.36785
G1 X288.570 Y94.270 E72.39142
G1 X289.221 Y94.551 E72.41499
G1 X289.835 Y94.906 E72.43859
G1 X290.404 Y95.329 E72.46218
G1 X290.920 Y95.816 E72.48577
G1 X291.376 Y96.359 E72.50933
G1 X291.766 Y96.952 E72.53297
G1 X292.083 Y97.584 E72.55648
G1 X292.326 Y98.252 E72.58012
G1 X292.490 Y98.941 E72.60367
G1 X292.572 Y99.646 E72.62727
G1 X292.572 Y100.353 E72.65081
G1 X292.490 Y101.059 E72.67445
G1 X292.326 Y101.749 E72.69804
G1 X292.083 Y102.416 E72.72162
G1 X291.766 Y103.048 E72.74514
G1 X291.376 Y103.641 E72.76878
G1 X290.920 Y104.184 E72.79236
G1 X290.404 Y104.671 E72.81594
G1 X289.836 Y105.094 E72.83949
G1 X289.221 Y105.449 E72.86310
G1 X288.570 Y105.730 E72.88669
G1 X287.891 Y105.933 E72.91027
G1 X287.193 Y106.056 E72.93385
G1 X286.444 Y106.100 E72.95880
G1 X38.556 Y106.100 E81.20359
G1 X37.807 Y106.056 E81.22854
G1 X37.109 Y105.933 E81.25212
G1 X36.430 Y105.729 E81.27571
G1 X35.779 Y105.449 E81.29929
G1 X35.165 Y105.094 E81.32288
G1 X34.596 Y104.671 E81.34646
G1 X34.080 Y104.184 E81.37004
G1 X33.624 Y103.641 E81.39362
G1 X33.235 Y103.048 E81.41722
G1 X32.916 Y102.415 E81.44080
G1 X32.674 Y101.749 E81.46438
G1 X32.510 Y101.059 E81.48796
G1 X32.428 Y100.355 E81.51155
G1 X32.428 Y99.745 E81.53181
G0 F3000 E80.53181
G0 X39.731 Y104.333 F5400
G0 F3000 E81.53181
;segType:HShell
G1 X41.138 Y105.739 E81.59797 F2400
G0 X40.572 Y105.739 F5400
G1 X39.283 Y104.450 E81.65863 F2400
G0 X38.763 Y104.496 F5400
G1 X40.007 Y105.739 E81.71714 F2400
G0 X39.441 Y105.739 F5400
G1 X38.190 Y104.489 E81.77597 F2400
G0 X37.531 Y104.395 F5400
G1 X38.875 Y105.739 E81.83921 F2400
G0 X38.294 Y105.724 F5400
G1 X36.679 Y104.109 E81.91514 F2400
G0 X36.839 Y102.904 F5400
G0 X36.961 Y102.678
;segType:Perimeter
G1 X36.575 Y102.218 E81.93510 F1439
G1 X36.254 Y101.897 E81.95021
G1 X35.959 Y101.476 E81.96732
G1 X35.742 Y101.009 E81.98443
G1 X35.609 Y100.513 E82.00154
G1 X35.564 Y100.000 E82.01866
G1 X35.609 Y99.487 E82.03577
G1 X35.742 Y98.991 E82.05288
G1 X35.959 Y98.524 E82.06999
G1 X36.254 Y98.103 E82.08710
G1 X36.618 Y97.739 E82.10420
G1 X37.039 Y97.444 E82.12132
G1 X37.506 Y97.227 E82.13843
G1 X38.003 Y97.094 E82.15554
G1 X38.515 Y97.049 E82.17266
G1 X39.028 Y97.094 E82.18977
G1 X39.524 Y97.227 E82.20688
G1 X39.990 Y97.444 E82.22399
G1 X40.412 Y97.739 E82.24110
G1 X40.776 Y98.103 E82.25821
G1 X41.071 Y98.524 E82.27532
G1 X41.288 Y98.991 E82.29243
G1 X41.421 Y99.488 E82.30954
G1 X41.466 Y100.000 E82.32666
G1 X41.421 Y100.512 E82.34377
G1 X41.288 Y101.009 E82.36088
G1 X41.071 Y101.476 E82.37799
G1 X40.776 Y101.897 E82.39510
G1 X40.412 Y102.261 E82.41221
G1 X39.990 Y102.556 E82.42932
G1 X39.524 Y102.773 E82.44643
G1 X39.028 Y102.906 E82.46354
G1 X38.515 Y102.951 E82.48065
G1 X38.003 Y102.906 E82.49777
G1 X37.506 Y102.773 E82.51488
G1 X37.039 Y102.556 E82.53199
G1 X36.667 Y102.295 E82.54711
G0 X36.575 Y102.218 F5400
G0 X36.254 Y101.897
G0 X35.959 Y101.476
G0 X35.742 Y101.009
G0 X35.712 Y100.896
G0 X35.365 Y101.147
G0 X35.569 Y101.586
;segType:Loop
G1 X35.365 Y101.147 E82.56323 F2400
G1 X35.213 Y100.582 E82.58267
G1 X35.162 Y100.000 E82.60211
G1 X35.213 Y99.418 E82.62155
G1 X35.365 Y98.853 E82.64099
G1 X35.612 Y98.324 E82.66043
G1 X35.947 Y97.845 E82.67986
G1 X36.360 Y97.432 E82.69929
G1 X36.839 Y97.097 E82.71874
G1 X37.368 Y96.850 E82.73818
G1 X37.933 Y96.698 E82.75762
G1 X38.515 Y96.647 E82.77706
G1 X39.097 Y96.698 E82.79650
G1 X39.662 Y96.850 E82.81594
G1 X40.191 Y97.097 E82.83537
G1 X40.670 Y97.432 E82.85481
G1 X41.083 Y97.845 E82.87425
G1 X41.419 Y98.324 E82.89368
G1 X41.666 Y98.853 E82.91312
G1 X41.817 Y99.418 E82.93256
G1 X41.868 Y100.000 E82.95200
G1 X41.817 Y100.582 E82.97144
G1 X41.666 Y101.147 E82.99088
G1 X41.419 Y101.677 E83.01032
G1 X41.083 Y102.155 E83.02975
G1 X40.670 Y102.568 E83.04919
G1 X40.191 Y102.903 E83.06863
G1 X39.662 Y103.151 E83.08806
G1 X39.097 Y103.302 E83.10750
G1 X38.515 Y103.353 E83.12694
G1 X37.933 Y103.302 E83.14638
G1 X37.368 Y103.151 E83.16582
G1 X36.839 Y102.904 E83.18526
G1 X36.360 Y102.568 E83.20471
G1 X35.947 Y102.155 E83.22414
G1 X35.669 Y101.758 E83.24024
G0 X34.819 Y100.656 F5400
G1 X34.818 Y100.652 E83.24037 F2400
G1 X34.761 Y100.000 E83.26215
G1 X34.818 Y99.348 E83.28392
G1 X34.987 Y98.716 E83.30569
G1 X35.264 Y98.123 E83.32746
G1 X35.639 Y97.587 E83.34921
G1 X36.102 Y97.124 E83.37097
G1 X36.638 Y96.749 E83.39274
G1 X37.231 Y96.472 E83.41451
G1 X37.863 Y96.303 E83.43627
G1 X38.515 Y96.246 E83.45804
G1 X39.167 Y96.303 E83.47981
G1 X39.799 Y96.472 E83.50157
G1 X40.392 Y96.749 E83.52333
G1 X40.928 Y97.124 E83.54510
G1 X41.391 Y97.587 E83.56687
G1 X41.766 Y98.123 E83.58863
G1 X42.043 Y98.716 E83.61040
G1 X42.212 Y99.348 E83.63217
G1 X42.269 Y100.000 E83.65393
G1 X42.212 Y100.652 E83.67570
G1 X42.043 Y101.284 E83.69747
G1 X41.766 Y101.877 E83.71924
G1 X41.391 Y102.413 E83.74100
G1 X40.928 Y102.876 E83.76277
G1 X40.392 Y103.251 E83.78453
G1 X39.799 Y103.528 E83.80629
G1 X39.167 Y103.697 E83.82806
G1 X38.515 Y103.754 E83.84983
G1 X37.863 Y103.697 E83.87158
G1 X37.231 Y103.528 E83.89335
G1 X36.638 Y103.251 E83.91512
G1 X36.102 Y102.876 E83.93689
G1 X35.639 Y102.413 E83.95865
G1 X35.264 Y101.877 E83.98040
G1 X34.987 Y101.284 E84.00217
G1 X34.871 Y100.849 E84.01715
G0 X34.401 Y99.525 F5400
G1 X34.422 Y99.278 E84.02541 F2400
G1 X34.610 Y98.578 E84.04950
G1 X34.916 Y97.922 E84.07359
G1 X35.332 Y97.329 E84.09767
G1 X35.843 Y96.817 E84.12176
G1 X36.437 Y96.401 E84.14587
G1 X37.094 Y96.095 E84.16996
G1 X37.793 Y95.907 E84.19405
G1 X38.515 Y95.844 E84.21815
G1 X39.237 Y95.907 E84.24224
G1 X39.936 Y96.095 E84.26633
G1 X40.593 Y96.401 E84.29042
G1 X41.186 Y96.817 E84.31451
G1 X41.698 Y97.329 E84.33861
G1 X42.114 Y97.922 E84.36269
G1 X42.420 Y98.579 E84.38680
G1 X42.608 Y99.278 E84.41089
G1 X42.671 Y100.000 E84.43498
G1 X42.608 Y100.722 E84.45908
G1 X42.420 Y101.421 E84.48317
G1 X42.114 Y102.078 E84.50727
G1 X41.698 Y102.671 E84.53136
G1 X41.186 Y103.183 E84.55545
G1 X40.593 Y103.599 E84.57954
G1 X39.936 Y103.905 E84.60364
G1 X39.237 Y104.093 E84.62774
G1 X38.515 Y104.156 E84.65183
G1 X37.794 Y104.093 E84.67592
G1 X37.094 Y103.905 E84.70001
G1 X36.437 Y103.599 E84.72411
G1 X35.843 Y103.183 E84.74821
G1 X35.332 Y102.671 E84.77230
G1 X34.916 Y102.078 E84.79638
G1 X34.610 Y101.422 E84.82047
G1 X34.422 Y100.722 E84.84457
G1 X34.359 Y100.000 E84.86867
G1 X34.383 Y99.725 E84.87786
G0 F3000 E83.87786
G0 X35.185 Y99.739 F5400
G0 X35.213 Y99.418
G0 X35.365 Y98.853
G0 X35.612 Y98.324
G0 X35.947 Y97.845
G0 X36.360 Y97.432
G0 X36.839 Y97.097
G0 X37.368 Y96.850
G0 X37.933 Y96.698
G0 X38.515 Y96.647
G0 X39.097 Y96.698
G0 X39.662 Y96.850
G0 X40.191 Y97.097
G0 X40.670 Y97.432
G0 X41.083 Y97.845
G0 X41.419 Y98.324
G0 X41.666 Y98.853
G0 X41.817 Y99.418
G0 X41.856 Y99.862
G0 X287.544 Y104.375
G0 F3000 E84.87786
;segType:HShell
G1 X288.525 Y105.357 E84.92403 F2400
G0 X288.921 Y105.186 F5400
G1 X287.990 Y104.256 E84.96781 F2400
G0 X288.381 Y104.081 F5400
G1 X289.292 Y104.992 E85.01066 F2400
G0 X289.649 Y104.784 F5400
G1 X288.764 Y103.898 E85.05231 F2400
G0 X289.096 Y103.665 F5400
G1 X289.974 Y104.542 E85.09357 F2400
G0 X290.285 Y104.288 F5400
G1 X289.423 Y103.426 E85.13412 F2400
G0 X289.706 Y103.143 F5400
G1 X290.576 Y104.013 E85.17506 F2400
G0 X290.844 Y103.715 F5400
G1 X289.981 Y102.853 E85.21564 F2400
G0 X288.852 Y101.995 F5400
;segType:Perimeter
G1 X288.333 Y102.295 E85.23560 F1439
G1 X287.961 Y102.556 E85.25071
G1 X287.494 Y102.773 E85.26781
G1 X286.997 Y102.906 E85.28493
G1 X286.485 Y102.951 E85.30204
G1 X285.972 Y102.906 E85.31915
G1 X285.475 Y102.773 E85.33627
G1 X285.009 Y102.556 E85.35337
G1 X284.588 Y102.261 E85.37048
G1 X284.224 Y101.897 E85.38760
G1 X283.929 Y101.476 E85.40470
G1 X283.712 Y101.009 E85.42181
G1 X283.579 Y100.512 E85.43892
G1 X283.534 Y100.000 E85.45603
G1 X283.579 Y99.488 E85.47313
G1 X283.712 Y98.991 E85.49024
G1 X283.929 Y98.524 E85.50735
G1 X284.224 Y98.103 E85.52446
G1 X284.588 Y97.739 E85.54157
G1 X285.010 Y97.444 E85.55869
G1 X285.475 Y97.227 E85.57578
G1 X285.972 Y97.094 E85.59290
G1 X286.485 Y97.049 E85.61001
G1 X286.997 Y97.094 E85.62712
G1 X287.494 Y97.227 E85.64423
G1 X287.961 Y97.444 E85.66135
G1 X288.382 Y97.739 E85.67845
G1 X288.746 Y98.103 E85.69556
G1 X289.041 Y98.524 E85.71267
G1 X289.258 Y98.991 E85.72980
G1 X289.391 Y99.488 E85.74690
G1 X289.436 Y100.000 E85.76401
G1 X289.391 Y100.513 E85.78112
G1 X289.258 Y101.009 E85.79823
G1 X289.041 Y101.476 E85.81535
G1 X288.746 Y101.897 E85.83245
G1 X288.424 Y102.218 E85.84756
G0 X288.333 Y102.295 F5400
G0 X287.961 Y102.556
G0 X287.494 Y102.773
G0 X286.997 Y102.906
G0 X286.881 Y102.916
G0 X287.067 Y103.302
G0 X287.535 Y103.176
;segType:Loop
G1 X287.067 Y103.302 E85.86367 F2400
G1 X286.485 Y103.353 E85.88311
G1 X285.903 Y103.302 E85.90255
G1 X285.338 Y103.150 E85.92200
G1 X284.809 Y102.903 E85.94143
G1 X284.330 Y102.568 E85.96086
G1 X283.917 Y102.155 E85.98030
G1 X283.581 Y101.676 E85.99974
G1 X283.334 Y101.147 E86.01917
G1 X283.183 Y100.582 E86.03860
G1 X283.132 Y100.000 E86.05806
G1 X283.183 Y99.418 E86.07748
G1 X283.334 Y98.853 E86.09692
G1 X283.581 Y98.324 E86.11636
G1 X283.917 Y97.845 E86.13580
G1 X284.330 Y97.432 E86.15524
G1 X284.809 Y97.096 E86.17467
G1 X285.338 Y96.850 E86.19410
G1 X285.903 Y96.698 E86.21355
G1 X286.485 Y96.647 E86.23299
G1 X287.067 Y96.698 E86.25243
G1 X287.632 Y96.849 E86.27186
G1 X288.161 Y97.097 E86.29131
G1 X288.640 Y97.432 E86.31074
G1 X289.053 Y97.845 E86.33018
G1 X289.388 Y98.324 E86.34961
G1 X289.636 Y98.853 E86.36906
G1 X289.787 Y99.418 E86.38850
G1 X289.838 Y100.000 E86.40792
G1 X289.787 Y100.582 E86.42736
G1 X289.635 Y101.147 E86.44680
G1 X289.388 Y101.676 E86.46624
G1 X289.053 Y102.155 E86.48566
G1 X288.640 Y102.569 E86.50512
G1 X288.161 Y102.904 E86.52455
G1 X287.722 Y103.108 E86.54066
G0 X286.489 Y103.754 F5400
G1 X286.485 Y103.754 E86.54079 F2400
G1 X285.833 Y103.697 E86.56255
G1 X285.201 Y103.528 E86.58433
G1 X284.608 Y103.251 E86.60609
G1 X284.072 Y102.876 E86.62785
G1 X283.609 Y102.413 E86.64961
G1 X283.234 Y101.877 E86.67138
G1 X282.957 Y101.284 E86.69314
G1 X282.788 Y100.652 E86.71490
G1 X282.731 Y100.000 E86.73669
G1 X282.788 Y99.348 E86.75843
G1 X282.957 Y98.716 E86.78020
G1 X283.234 Y98.123 E86.80197
G1 X283.609 Y97.587 E86.82373
G1 X284.072 Y97.124 E86.84550
G1 X284.608 Y96.749 E86.86727
G1 X285.201 Y96.472 E86.88902
G1 X285.833 Y96.303 E86.91080
G1 X286.485 Y96.246 E86.93256
G1 X287.137 Y96.303 E86.95432
G1 X287.769 Y96.472 E86.97608
G1 X288.362 Y96.749 E86.99786
G1 X288.898 Y97.124 E87.01962
G1 X289.361 Y97.587 E87.04139
G1 X289.736 Y98.123 E87.06315
G1 X290.013 Y98.716 E87.08492
G1 X290.182 Y99.348 E87.10669
G1 X290.239 Y100.000 E87.12844
G1 X290.182 Y100.652 E87.15021
G1 X290.013 Y101.284 E87.17198
G1 X289.736 Y101.877 E87.19374
G1 X289.361 Y102.413 E87.21549
G1 X288.898 Y102.876 E87.23727
G1 X288.362 Y103.251 E87.25903
G1 X287.769 Y103.528 E87.28081
G1 X287.137 Y103.697 E87.30257
G1 X286.688 Y103.736 E87.31756
G0 X285.303 Y103.969 F5400
G1 X285.063 Y103.905 E87.32581 F2400
G1 X284.407 Y103.599 E87.34988
G1 X283.814 Y103.183 E87.37399
G1 X283.302 Y102.671 E87.39806
G1 X282.886 Y102.078 E87.42216
G1 X282.580 Y101.422 E87.44626
G1 X282.393 Y100.722 E87.47034
G1 X282.329 Y100.000 E87.49447
G1 X282.392 Y99.279 E87.51854
G1 X282.580 Y98.579 E87.54264
G1 X282.886 Y97.922 E87.56674
G1 X283.302 Y97.329 E87.59084
G1 X283.814 Y96.817 E87.61492
G1 X284.407 Y96.401 E87.63902
G1 X285.063 Y96.095 E87.66309
G1 X285.764 Y95.907 E87.68720
G1 X286.485 Y95.844 E87.71129
G1 X287.207 Y95.907 E87.73538
G1 X287.906 Y96.095 E87.75946
G1 X288.563 Y96.401 E87.78358
G1 X289.156 Y96.816 E87.80766
G1 X289.668 Y97.329 E87.83176
G1 X290.084 Y97.922 E87.85585
G1 X290.390 Y98.579 E87.87995
G1 X290.578 Y99.279 E87.90405
G1 X290.641 Y100.000 E87.92812
G1 X290.578 Y100.722 E87.95222
G1 X290.390 Y101.422 E87.97632
G1 X290.084 Y102.078 E88.00041
G1 X289.669 Y102.671 E88.02448
G1 X289.156 Y103.184 E88.04859
G1 X288.563 Y103.599 E88.07268
G1 X287.906 Y103.905 E88.09679
G1 X287.207 Y104.093 E88.12086
G1 X286.485 Y104.156 E88.14496
G1 X285.764 Y104.093 E88.16904
G1 X285.496 Y104.021 E88.17826
G0 X287.069 Y104.466 F5400
;segType:HShell
G1 X288.098 Y105.495 E88.22666 F2400
G0 X287.647 Y105.610 F5400
G1 X286.549 Y104.512 E88.27834 F2400
G0 X285.941 Y104.470 F5400
G1 X287.167 Y105.695 E88.33597 F2400
G0 X286.634 Y105.728 F5400
G1 X285.228 Y104.322 E88.40209 F2400
G0 X284.275 Y103.935 F5400
G1 X286.079 Y105.739 E88.48698 F2400
G0 X285.514 Y105.739 F5400
G1 X274.035 Y94.260 E89.02690 F2400
G0 X273.469 Y94.260 F5400
G1 X284.948 Y105.739 E89.56683 F2400
G0 X284.382 Y105.739 F5400
G1 X272.904 Y94.260 E90.10675 F2400
G0 X272.338 Y94.260 F5400
G1 X283.817 Y105.739 E90.64668 F2400
G0 X283.251 Y105.739 F5400
G1 X271.772 Y94.260 E91.18660 F2400
G0 X271.207 Y94.260 F5400
G1 X282.685 Y105.739 E91.72652 F2400
G0 X282.120 Y105.739 F5400
G1 X270.641 Y94.260 E92.26645 F2400
G0 X270.075 Y94.260 F5400
G1 X281.554 Y105.739 E92.80637 F2400
G0 X280.988 Y105.739 F5400
G1 X269.509 Y94.260 E93.34630 F2400
G0 X268.944 Y94.260 F5400
G1 X280.423 Y105.739 E93.88622 F2400
G0 X279.857 Y105.739 F5400
G1 X268.378 Y94.260 E94.42615 F2400
G0 X267.812 Y94.260 F5400
G1 X279.291 Y105.739 E94.96607 F2400
G0 X278.726 Y105.739 F5400
G1 X267.247 Y94.260 E95.50600 F2400
G0 X266.681 Y94.260 F5400
G1 X278.160 Y105.739 E96.04592 F2400
G0 X277.594 Y105.739 F5400
G1 X266.115 Y94.260 E96.58585 F2400
G0 X265.550 Y94.260 F5400
G1 X277.029 Y105.739 E97.12577 F2400
G0 X276.463 Y105.739 F5400
G1 X264.984 Y94.260 E97.66570 F2400
G0 X264.418 Y94.260 F5400
G1 X275.897 Y105.739 E98.20562 F2400
G0 X275.331 Y105.739 F5400
G1 X263.853 Y94.260 E98.74554 F2400
G0 X263.287 Y94.260 F5400
G1 X274.766 Y105.739 E99.28547 F2400
G0 X274.200 Y105.739 F5400
G1 X262.721 Y94.260 E99.82539 F2400
G0 X262.156 Y94.260 F5400
G1 X273.634 Y105.739 E100.36532 F2400
G0 X273.069 Y105.739 F5400
G1 X261.590 Y94.260 E100.90524 F2400
G0 X261.024 Y94.261 F5400
G1 X272.503 Y105.739 E101.44517 F2400
G0 X271.937 Y105.739 F5400
G1 X260.459 Y94.261 E101.98509 F2400
G0 X259.893 Y94.261 F5400
G1 X271.372 Y105.739 E102.52502 F2400
G0 X270.806 Y105.739 F5400
G1 X259.327 Y94.261 E103.06494 F2400
G0 X258.762 Y94.261 F5400
G1 X270.240 Y105.739 E103.60487 F2400
G0 X269.675 Y105.739 F5400
G1 X258.196 Y94.261 E104.14479 F2400
G0 X257.630 Y94.261 F5400
G1 X269.109 Y105.739 E104.68472 F2400
G0 X268.543 Y105.739 F5400
G1 X257.065 Y94.261 E105.22464 F2400
G0 X256.499 Y94.261 F5400
G1 X267.978 Y105.739 E105.76456 F2400
G0 X267.412 Y105.739 F5400
G1 X255.933 Y94.261 E106.30449 F2400
G0 X255.367 Y94.261 F5400
G1 X266.846 Y105.739 E106.84441 F2400
G0 X266.281 Y105.739 F5400
G1 X254.802 Y94.261 E107.38434 F2400
G0 X254.236 Y94.261 F5400
G1 X265.715 Y105.739 E107.92426 F2400
G0 X265.149 Y105.739 F5400
G1 X253.670 Y94.261 E108.46419 F2400
G0 X253.105 Y94.261 F5400
G1 X264.584 Y105.739 E109.00411 F2400
G0 X264.018 Y105.739 F5400
G1 X252.539 Y94.261 E109.54404 F2400
G0 X251.973 Y94.261 F5400
G1 X263.452 Y105.739 E110.08396 F2400
G0 X262.886 Y105.739 F5400
G1 X251.408 Y94.261 E110.62389 F2400
G0 X250.842 Y94.261 F5400
G1 X262.321 Y105.739 E111.16381 F2400
G0 X261.755 Y105.739 F5400
G1 X250.276 Y94.261 E111.70374 F2400
G0 X249.711 Y94.261 F5400
G1 X261.189 Y105.739 E112.24366 F2400
G0 X260.624 Y105.739 F5400
G1 X249.145 Y94.261 E112.78358 F2400
G0 X248.579 Y94.261 F5400
G1 X260.058 Y105.739 E113.32351 F2400
G0 X259.492 Y105.739 F5400
G1 X248.014 Y94.261 E113.86343 F2400
G0 X247.448 Y94.261 F5400
G1 X258.927 Y105.739 E114.40336 F2400
G0 X258.361 Y105.739 F5400
G1 X246.882 Y94.261 E114.94328 F2400
G0 X246.317 Y94.261 F5400
G1 X257.795 Y105.739 E115.48321 F2400
G0 X257.230 Y105.739 F5400
G1 X245.751 Y94.261 E116.02313 F2400
G0 X245.185 Y94.261 F5400
G1 X256.664 Y105.739 E116.56306 F2400
G0 X256.098 Y105.739 F5400
G1 X244.620 Y94.261 E117.10298 F2400
G0 X244.054 Y94.261 F5400
G1 X255.533 Y105.739 E117.64291 F2400
G0 X254.967 Y105.739 F5400
G1 X243.488 Y94.261 E118.18283 F2400
G0 X242.922 Y94.261 F5400
G1 X254.401 Y105.739 E118.72276 F2400
G0 X253.836 Y105.739 F5400
G1 X242.357 Y94.261 E119.26268 F2400
G0 X241.791 Y94.261 F5400
G1 X253.270 Y105.739 E119.80260 F2400
G0 X252.704 Y105.739 F5400
G1 X241.225 Y94.261 E120.34253 F2400
G0 X240.660 Y94.261 F5400
G1 X252.139 Y105.739 E120.88245 F2400
G0 X251.573 Y105.739 F5400
G1 X240.094 Y94.261 E121.42238 F2400
G0 X239.528 Y94.261 F5400
G1 X251.007 Y105.739 E121.96230 F2400
G0 X250.441 Y105.739 F5400
G1 X238.963 Y94.261 E122.50223 F2400
G0 X238.397 Y94.261 F5400
G1 X249.876 Y105.739 E123.04215 F2400
G0 X249.310 Y105.739 F5400
G1 X237.831 Y94.261 E123.58208 F2400
G0 X237.266 Y94.261 F5400
G1 X248.744 Y105.739 E124.12200 F2400
G0 X248.179 Y105.739 F5400
G1 X236.700 Y94.261 E124.66193 F2400
G0 X236.134 Y94.261 F5400
G1 X247.613 Y105.739 E125.20185 F2400
G0 X247.047 Y105.739 F5400
G1 X235.569 Y94.261 E125.74178 F2400
G0 X235.003 Y94.261 F5400
G1 X246.482 Y105.739 E126.28170 F2400
G0 X245.916 Y105.739 F5400
G1 X234.437 Y94.261 E126.82162 F2400
G0 X233.872 Y94.261 F5400
G1 X245.350 Y105.739 E127.36155 F2400
G0 X244.785 Y105.739 F5400
G1 X233.306 Y94.261 E127.90148 F2400
G0 X232.740 Y94.261 F5400
G1 X244.219 Y105.740 E128.44141 F2400
G0 X243.653 Y105.740 F5400
G1 X232.174 Y94.261 E128.98134 F2400
G0 X231.609 Y94.261 F5400
G1 X243.088 Y105.740 E129.52127 F2400
G0 X242.522 Y105.740 F5400
G1 X231.043 Y94.261 E130.06120 F2400
G0 X230.477 Y94.261 F5400
G1 X241.956 Y105.740 E130.60114 F2400
G0 X241.391 Y105.740 F5400
G1 X229.912 Y94.261 E131.14107 F2400
G0 X229.346 Y94.261 F5400
G1 X240.825 Y105.740 E131.68100 F2400
G0 X240.259 Y105.740 F5400
G1 X228.780 Y94.261 E132.22093 F2400
G0 X228.215 Y94.261 F5400
G1 X239.694 Y105.740 E132.76086 F2400
G0 X239.128 Y105.740 F5400
G1 X227.649 Y94.261 E133.30080 F2400
G0 X227.083 Y94.261 F5400
G1 X238.562 Y105.740 E133.84073 F2400
G0 X237.996 Y105.740 F5400
G1 X226.518 Y94.261 E134.38066 F2400
G0 X225.952 Y94.261 F5400
G1 X237.431 Y105.740 E134.92059 F2400
G0 X236.865 Y105.740 F5400
G1 X225.386 Y94.261 E135.46053 F2400
G0 X224.821 Y94.261 F5400
G1 X236.299 Y105.740 E136.00046 F2400
G0 X235.734 Y105.740 F5400
G1 X224.255 Y94.261 E136.54039 F2400
G0 X223.689 Y94.261 F5400
G1 X235.168 Y105.740 E137.08032 F2400
G0 X234.602 Y105.740 F5400
G1 X223.123 Y94.261 E137.62025 F2400
G0 X222.558 Y94.261 F5400
G1 X234.037 Y105.740 E138.16019 F2400
G0 X233.471 Y105.740 F5400
G1 X221.992 Y94.261 E138.70012 F2400
G0 X221.426 Y94.261 F5400
G1 X232.905 Y105.740 E139.24005 F2400
G0 X232.340 Y105.740 F5400
G1 X220.861 Y94.261 E139.77998 F2400
G0 X220.295 Y94.261 F5400
G1 X231.774 Y105.740 E140.31992 F2400
G0 X231.208 Y105.740 F5400
G1 X219.729 Y94.261 E140.85985 F2400
G0 X219.164 Y94.261 F5400
G1 X230.643 Y105.740 E141.39978 F2400
G0 X230.077 Y105.740 F5400
G1 X218.598 Y94.261 E141.93971 F2400
G0 X218.032 Y94.261 F5400
G1 X229.511 Y105.740 E142.47964 F2400
G0 X228.946 Y105.740 F5400
G1 X217.467 Y94.261 E143.01958 F2400
G0 X216.901 Y94.261 F5400
G1 X228.380 Y105.740 E143.55951 F2400
G0 X227.814 Y105.740 F5400
G1 X216.335 Y94.261 E144.09944 F2400
G0 X215.770 Y94.261 F5400
G1 X227.249 Y105.740 E144.63937 F2400
G0 X226.683 Y105.740 F5400
G1 X215.204 Y94.261 E145.17931 F2400
G0 X214.638 Y94.261 F5400
G1 X226.117 Y105.740 E145.71924 F2400
G0 X225.552 Y105.740 F5400
G1 X214.073 Y94.261 E146.25917 F2400
G0 X213.507 Y94.261 F5400
G1 X224.986 Y105.740 E146.79910 F2400
G0 X224.420 Y105.740 F5400
G1 X212.941 Y94.261 E147.33904 F2400
G0 X212.375 Y94.261 F5400
G1 X223.854 Y105.740 E147.87897 F2400
G0 X223.289 Y105.740 F5400
G1 X211.810 Y94.261 E148.41890 F2400
G0 X211.244 Y94.261 F5400
G1 X222.723 Y105.740 E148.95883 F2400
G0 X222.157 Y105.740 F5400
G1 X210.678 Y94.261 E149.49876 F2400
G0 X210.113 Y94.261 F5400
G1 X221.592 Y105.740 E150.03870 F2400
G0 X221.026 Y105.740 F5400
G1 X209.547 Y94.261 E150.57863 F2400
G0 X208.981 Y94.261 F5400
G1 X220.460 Y105.740 E151.11856 F2400
G0 X219.895 Y105.740 F5400
G1 X208.416 Y94.261 E151.65849 F2400
G0 X207.850 Y94.261 F5400
G1 X219.329 Y105.740 E152.19843 F2400
G0 X218.763 Y105.740 F5400
G1 X207.284 Y94.261 E152.73836 F2400
G0 X206.719 Y94.261 F5400
G1 X218.198 Y105.740 E153.27829 F2400
G0 X217.632 Y105.740 F5400
G1 X206.153 Y94.261 E153.81822 F2400
G0 X205.587 Y94.261 F5400
G1 X217.066 Y105.740 E154.35815 F2400
G0 X216.501 Y105.740 F5400
G1 X205.022 Y94.261 E154.89809 F2400
G0 X204.456 Y94.261 F5400
G1 X215.935 Y105.740 E155.43802 F2400
G0 X215.369 Y105.740 F5400
G1 X203.890 Y94.261 E155.97795 F2400
G0 X203.324 Y94.261 F5400
G1 X214.803 Y105.740 E156.51788 F2400
G0 X214.238 Y105.740 F5400
G1 X202.759 Y94.261 E157.05782 F2400
G0 X202.193 Y94.261 F5400
G1 X213.672 Y105.740 E157.59775 F2400
G0 X213.106 Y105.740 F5400
G1 X201.627 Y94.261 E158.13768 F2400
G0 X201.062 Y94.261 F5400
G1 X212.541 Y105.740 E158.67761 F2400
G0 X211.975 Y105.740 F5400
G1 X200.496 Y94.261 E159.21754 F2400
G0 X199.930 Y94.261 F5400
G1 X211.409 Y105.740 E159.75748 F2400
G0 X210.844 Y105.740 F5400
G1 X199.365 Y94.261 E160.29741 F2400
G0 X198.799 Y94.261 F5400
G1 X210.278 Y105.740 E160.83734 F2400
G0 X209.712 Y105.740 F5400
G1 X198.233 Y94.261 E161.37727 F2400
G0 X197.668 Y94.261 F5400
G1 X209.147 Y105.740 E161.91721 F2400
G0 X208.581 Y105.740 F5400
G1 X197.102 Y94.261 E162.45714 F2400
G0 X196.536 Y94.261 F5400
G1 X208.015 Y105.740 E162.99707 F2400
G0 X207.450 Y105.740 F5400
G1 X195.971 Y94.261 E163.53700 F2400
G0 X195.405 Y94.261 F5400
G1 X206.884 Y105.740 E164.07693 F2400
G0 X206.318 Y105.740 F5400
G1 X194.839 Y94.261 E164.61687 F2400
G0 X194.273 Y94.261 F5400
G1 X205.752 Y105.740 E165.15680 F2400
G0 X205.187 Y105.740 F5400
G1 X193.708 Y94.261 E165.69673 F2400
G0 X193.142 Y94.261 F5400
G1 X204.621 Y105.740 E166.23666 F2400
G0 X204.055 Y105.740 F5400
G1 X192.576 Y94.261 E166.77660 F2400
G0 X192.011 Y94.261 F5400
G1 X203.490 Y105.740 E167.31653 F2400
G0 X202.924 Y105.740 F5400
G1 X191.445 Y94.261 E167.85646 F2400
G0 X190.879 Y94.261 F5400
G1 X202.358 Y105.740 E168.39640 F2400
G0 X201.793 Y105.740 F5400
G1 X190.314 Y94.261 E168.93632 F2400
G0 X189.748 Y94.261 F5400
G1 X201.227 Y105.740 E169.47626 F2400
G0 X200.661 Y105.740 F5400
G1 X189.182 Y94.261 E170.01618 F2400
G0 X188.617 Y94.261 F5400
G1 X200.096 Y105.740 E170.55612 F2400
G0 X199.530 Y105.740 F5400
G1 X188.051 Y94.261 E171.09606 F2400
G0 X187.485 Y94.261 F5400
G1 X198.964 Y105.740 E171.63598 F2400
G0 X198.399 Y105.740 F5400
G1 X186.920 Y94.261 E172.17592 F2400
G0 X186.354 Y94.261 F5400
G1 X197.833 Y105.740 E172.71586 F2400
G0 X197.267 Y105.740 F5400
G1 X185.788 Y94.261 E173.25578 F2400
G0 X185.222 Y94.261 F5400
G1 X196.702 Y105.740 E173.79572 F2400
G0 X196.136 Y105.740 F5400
G1 X184.657 Y94.261 E174.33564 F2400
G0 X184.091 Y94.261 F5400
G1 X195.570 Y105.740 E174.87558 F2400
G0 X195.004 Y105.740 F5400
G1 X183.525 Y94.261 E175.41552 F2400
G0 X182.960 Y94.261 F5400
G1 X194.439 Y105.740 E175.95544 F2400
G0 X193.873 Y105.740 F5400
G1 X182.394 Y94.261 E176.49538 F2400
G0 X181.828 Y94.261 F5400
G1 X193.307 Y105.740 E177.03530 F2400
G0 X192.742 Y105.740 F5400
G1 X181.263 Y94.261 E177.57524 F2400
G0 X180.697 Y94.261 F5400
G1 X192.176 Y105.740 E178.11518 F2400
G0 X191.610 Y105.740 F5400
G1 X180.131 Y94.261 E178.65510 F2400
G0 X179.566 Y94.261 F5400
G1 X191.045 Y105.740 E179.19504 F2400
G0 X190.479 Y105.740 F5400
G1 X179.000 Y94.261 E179.73498 F2400
G0 X178.434 Y94.261 F5400
G1 X189.913 Y105.740 E180.27490 F2400
G0 X189.348 Y105.740 F5400
G1 X177.869 Y94.261 E180.81484 F2400
G0 X177.303 Y94.261 F5400
G1 X188.782 Y105.740 E181.35476 F2400
G0 X188.216 Y105.740 F5400
G1 X176.737 Y94.261 E181.89470 F2400
G0 X176.171 Y94.261 F5400
G1 X187.651 Y105.740 E182.43464 F2400
G0 X187.085 Y105.740 F5400
G1 X175.606 Y94.261 E182.97456 F2400
G0 X175.040 Y94.261 F5400
G1 X186.519 Y105.740 E183.51450 F2400
G0 X185.953 Y105.740 F5400
G1 X174.474 Y94.261 E184.05442 F2400
G0 X173.909 Y94.261 F5400
G1 X185.388 Y105.740 E184.59436 F2400
G0 X184.822 Y105.740 F5400
G1 X173.343 Y94.261 E185.13430 F2400
G0 X172.777 Y94.261 F5400
G1 X184.256 Y105.740 E185.67422 F2400
G0 X183.691 Y105.740 F5400
G1 X172.212 Y94.261 E186.21416 F2400
G0 X171.646 Y94.261 F5400
G1 X183.125 Y105.740 E186.75408 F2400
G0 X182.559 Y105.740 F5400
G1 X171.080 Y94.261 E187.29402 F2400
G0 X170.515 Y94.261 F5400
G1 X181.994 Y105.740 E187.83396 F2400
G0 X181.428 Y105.740 F5400
G1 X169.949 Y94.261 E188.37388 F2400
G0 X169.383 Y94.261 F5400
G1 X180.862 Y105.740 E188.91382 F2400
G0 X180.297 Y105.740 F5400
G1 X168.818 Y94.261 E189.45376 F2400
G0 X168.252 Y94.260 F5400
G1 X179.731 Y105.740 E189.99368 F2400
G0 X179.165 Y105.740 F5400
G1 X167.686 Y94.261 E190.53362 F2400
G0 X167.120 Y94.261 F5400
G1 X178.600 Y105.740 E191.07354 F2400
G0 X178.034 Y105.740 F5400
G1 X166.555 Y94.260 E191.61348 F2400
G0 X165.989 Y94.260 F5400
G1 X177.468 Y105.740 E192.15342 F2400
G0 X176.902 Y105.740 F5400
G1 X165.423 Y94.260 E192.69334 F2400
G0 X164.858 Y94.260 F5400
G1 X176.337 Y105.740 E193.23328 F2400
G0 X175.771 Y105.740 F5400
G1 X164.292 Y94.260 E193.77320 F2400
G0 X163.726 Y94.260 F5400
G1 X175.205 Y105.740 E194.31314 F2400
G0 X174.640 Y105.740 F5400
G1 X163.161 Y94.260 E194.85308 F2400
G0 X162.595 Y94.260 F5400
G1 X174.074 Y105.740 E195.39300 F2400
G0 X173.508 Y105.740 F5400
G1 X162.029 Y94.260 E195.93294 F2400
G0 X161.464 Y94.260 F5400
G1 X172.943 Y105.740 E196.47286 F2400
G0 X172.377 Y105.740 F5400
G1 X160.898 Y94.260 E197.01280 F2400
G0 X160.332 Y94.260 F5400
G1 X171.811 Y105.740 E197.55274 F2400
G0 X171.246 Y105.740 F5400
G1 X159.767 Y94.260 E198.09266 F2400
G0 X159.201 Y94.260 F5400
G1 X170.680 Y105.740 E198.63260 F2400
G0 X170.114 Y105.740 F5400
G1 X158.635 Y94.260 E199.17254 F2400
G0 X158.069 Y94.260 F5400
G1 X169.549 Y105.740 E199.71246 F2400
G0 X168.983 Y105.739 F5400
G1 X157.504 Y94.260 E200.25240 F2400
G0 X156.938 Y94.260 F5400
G1 X168.417 Y105.740 E200.79232 F2400
G0 X167.851 Y105.740 F5400
G1 X156.372 Y94.260 E201.33226 F2400
G0 X155.807 Y94.260 F5400
G1 X167.286 Y105.739 E201.87220 F2400
G0 X166.720 Y105.739 F5400
G1 X155.241 Y94.260 E202.41212 F2400
G0 X154.675 Y94.260 F5400
G1 X166.154 Y105.739 E202.95206 F2400
G0 X165.589 Y105.739 F5400
G1 X154.110 Y94.260 E203.49198 F2400
G0 X153.544 Y94.260 F5400
G1 X165.023 Y105.739 E204.03192 F2400
G0 X164.457 Y105.739 F5400
G1 X152.978 Y94.260 E204.57186 F2400
G0 X152.413 Y94.260 F5400
G1 X163.892 Y105.739 E205.11178 F2400
G0 X163.326 Y105.739 F5400
G1 X151.847 Y94.260 E205.65172 F2400
G0 X151.281 Y94.260 F5400
G1 X162.760 Y105.739 E206.19166 F2400
G0 X162.195 Y105.739 F5400
G1 X150.716 Y94.260 E206.73158 F2400
G0 X150.150 Y94.260 F5400
G1 X161.629 Y105.739 E207.27152 F2400
G0 X161.063 Y105.739 F5400
G1 X149.584 Y94.260 E207.81144 F2400
G0 X149.019 Y94.260 F5400
G1 X160.498 Y105.739 E208.35138 F2400
G0 X159.932 Y105.739 F5400
G1 X148.453 Y94.260 E208.89132 F2400
G0 X147.887 Y94.260 F5400
G1 X159.366 Y105.739 E209.43124 F2400
G0 X158.800 Y105.739 F5400
G1 X147.321 Y94.260 E209.97118 F2400
G0 X146.756 Y94.260 F5400
G1 X158.235 Y105.739 E210.51110 F2400
G0 X157.669 Y105.739 F5400
G1 X146.190 Y94.260 E211.05104 F2400
G0 X145.624 Y94.260 F5400
G1 X157.103 Y105.739 E211.59098 F2400
G0 X156.538 Y105.739 F5400
G1 X145.059 Y94.260 E212.13090 F2400
G0 X144.493 Y94.260 F5400
G1 X155.972 Y105.739 E212.67084 F2400
G0 X155.406 Y105.739 F5400
G1 X143.927 Y94.260 E213.21076 F2400
G0 X143.362 Y94.260 F5400
G1 X154.841 Y105.739 E213.75070 F2400
G0 X154.275 Y105.739 F5400
G1 X142.796 Y94.260 E214.29064 F2400
G0 X142.230 Y94.260 F5400
G1 X153.709 Y105.739 E214.83056 F2400
G0 X153.144 Y105.739 F5400
G1 X141.665 Y94.260 E215.37050 F2400
G0 X141.099 Y94.260 F5400
G1 X152.578 Y105.739 E215.91044 F2400
G0 X152.012 Y105.739 F5400
G1 X140.533 Y94.260 E216.45036 F2400
G0 X139.968 Y94.260 F5400
G1 X151.447 Y105.739 E216.99030 F2400
G0 X150.881 Y105.739 F5400
G1 X139.402 Y94.260 E217.53022 F2400
G0 X138.836 Y94.260 F5400
G1 X150.315 Y105.739 E218.07016 F2400
G0 X149.749 Y105.739 F5400
G1 X138.270 Y94.260 E218.61010 F2400
G0 X137.705 Y94.260 F5400
G1 X149.184 Y105.739 E219.15002 F2400
G0 X148.618 Y105.739 F5400
G1 X137.139 Y94.260 E219.68996 F2400
G0 X136.573 Y94.260 F5400
G1 X148.052 Y105.739 E220.22988 F2400
G0 X147.487 Y105.739 F5400
G1 X136.008 Y94.260 E220.76982 F2400
G0 X135.442 Y94.260 F5400
G1 X146.921 Y105.739 E221.30976 F2400
G0 X146.355 Y105.739 F5400
G1 X134.876 Y94.260 E221.84968 F2400
G0 X134.311 Y94.260 F5400
G1 X145.790 Y105.739 E222.38962 F2400
G0 X145.224 Y105.739 F5400
G1 X133.745 Y94.260 E222.92956 F2400
G0 X133.179 Y94.260 F5400
G1 X144.658 Y105.739 E223.46948 F2400
G0 X144.093 Y105.739 F5400
G1 X132.614 Y94.260 E224.00942 F2400
G0 X132.048 Y94.260 F5400
G1 X143.527 Y105.739 E224.54934 F2400
G0 X142.961 Y105.739 F5400
G1 X131.482 Y94.260 E225.08928 F2400
G0 X130.917 Y94.260 F5400
G1 X142.396 Y105.739 E225.62922 F2400
G0 X141.830 Y105.739 F5400
G1 X130.351 Y94.260 E226.16914 F2400
G0 X129.785 Y94.260 F5400
G1 X141.264 Y105.739 E226.70908 F2400
G0 X140.698 Y105.739 F5400
G1 X129.219 Y94.260 E227.24900 F2400
G0 X128.654 Y94.260 F5400
G1 X140.133 Y105.739 E227.78894 F2400
G0 X139.567 Y105.739 F5400
G1 X128.088 Y94.260 E228.32888 F2400
G0 X127.522 Y94.260 F5400
G1 X139.001 Y105.739 E228.86880 F2400
G0 X138.436 Y105.739 F5400
G1 X126.957 Y94.260 E229.40874 F2400
G0 X126.391 Y94.260 F5400
G1 X137.870 Y105.739 E229.94866 F2400
G0 X137.304 Y105.739 F5400
G1 X125.825 Y94.260 E230.48860 F2400
G0 X125.260 Y94.260 F5400
G1 X136.739 Y105.739 E231.02854 F2400
G0 X136.173 Y105.739 F5400
G1 X124.694 Y94.260 E231.56846 F2400
G0 X124.128 Y94.260 F5400
G1 X135.607 Y105.739 E232.10840 F2400
G0 X135.042 Y105.739 F5400
G1 X123.563 Y94.260 E232.64834 F2400
G0 X122.997 Y94.260 F5400
G1 X134.476 Y105.739 E233.18826 F2400
G0 X133.910 Y105.739 F5400
G1 X122.431 Y94.260 E233.72820 F2400
G0 X121.866 Y94.260 F5400
G1 X133.345 Y105.739 E234.26812 F2400
G0 X132.779 Y105.739 F5400
G1 X121.300 Y94.260 E234.80806 F2400
G0 X120.734 Y94.260 F5400
G1 X132.213 Y105.739 E235.34800 F2400
G0 X131.647 Y105.739 F5400
G1 X120.169 Y94.260 E235.88792 F2400
G0 X119.603 Y94.260 F5400
G1 X131.082 Y105.739 E236.42786 F2400
G0 X130.516 Y105.739 F5400
G1 X119.037 Y94.260 E236.96778 F2400
G0 X118.472 Y94.260 F5400
G1 X129.950 Y105.739 E237.50772 F2400
G0 X129.385 Y105.739 F5400
G1 X117.906 Y94.260 E238.04766 F2400
G0 X117.340 Y94.260 F5400
G1 X128.819 Y105.739 E238.58758 F2400
G0 X128.253 Y105.739 F5400
G1 X116.774 Y94.260 E239.12752 F2400
G0 X116.209 Y94.260 F5400
G1 X127.688 Y105.739 E239.66744 F2400
G0 X127.122 Y105.739 F5400
G1 X115.643 Y94.260 E240.20738 F2400
G0 X115.077 Y94.260 F5400
G1 X126.556 Y105.739 E240.74732 F2400
G0 X125.991 Y105.739 F5400
G1 X114.512 Y94.260 E241.28724 F2400
G0 X113.946 Y94.260 F5400
G1 X125.425 Y105.739 E241.82718 F2400
G0 X124.859 Y105.739 F5400
G1 X113.380 Y94.260 E242.36712 F2400
G0 X112.815 Y94.260 F5400
G1 X124.294 Y105.739 E242.90704 F2400
G0 X123.728 Y105.739 F5400
G1 X112.249 Y94.260 E243.44698 F2400
G0 X111.683 Y94.260 F5400
G1 X123.162 Y105.739 E243.98690 F2400
G0 X122.597 Y105.739 F5400
G1 X111.118 Y94.260 E244.52684 F2400
G0 X110.552 Y94.260 F5400
G1 X122.031 Y105.739 E245.06678 F2400
G0 X121.465 Y105.739 F5400
G1 X109.986 Y94.260 E245.60670 F2400
G0 X109.421 Y94.260 F5400
G1 X120.899 Y105.739 E246.14664 F2400
G0 X120.334 Y105.739 F5400
G1 X108.855 Y94.260 E246.68656 F2400
G0 X108.289 Y94.260 F5400
G1 X119.768 Y105.739 E247.22650 F2400
G0 X119.202 Y105.739 F5400
G1 X107.724 Y94.260 E247.76644 F2400
G0 X107.158 Y94.260 F5400
G1 X118.637 Y105.739 E248.30636 F2400
G0 X118.071 Y105.739 F5400
G1 X106.592 Y94.260 E248.84630 F2400
G0 X106.026 Y94.260 F5400
G1 X117.505 Y105.739 E249.38624 F2400
G0 X116.940 Y105.739 F5400
G1 X105.461 Y94.260 E249.92616 F2400
G0 X104.895 Y94.260 F5400
G1 X116.374 Y105.739 E250.46610 F2400
G0 X115.808 Y105.739 F5400
G1 X104.329 Y94.261 E251.00602 F2400
G0 X103.764 Y94.261 F5400
G1 X115.243 Y105.739 E251.54596 F2400
G0 X114.677 Y105.739 F5400
G1 X103.198 Y94.261 E252.08590 F2400
G0 X102.632 Y94.261 F5400
G1 X114.111 Y105.739 E252.62582 F2400
G0 X113.546 Y105.739 F5400
G1 X102.067 Y94.261 E253.16576 F2400
G0 X101.501 Y94.261 F5400
G1 X112.980 Y105.739 E253.70568 F2400
G0 X112.414 Y105.739 F5400
G1 X100.935 Y94.261 E254.24562 F2400
G0 X100.370 Y94.261 F5400
G1 X111.849 Y105.739 E254.78556 F2400
G0 X111.283 Y105.739 F5400
G1 X99.804 Y94.261 E255.32548 F2400
G0 X99.238 Y94.261 F5400
G1 X110.717 Y105.739 E255.86542 F2400
G0 X110.151 Y105.739 F5400
G1 X98.673 Y94.261 E256.40536 F2400
G0 X98.107 Y94.261 F5400
G1 X109.586 Y105.739 E256.94532 F2400
G0 X109.020 Y105.739 F5400
G1 X97.541 Y94.261 E257.48526 F2400
G0 X96.976 Y94.261 F5400
G1 X108.454 Y105.739 E258.02520 F2400
G0 X107.889 Y105.739 F5400
G1 X96.410 Y94.261 E258.56516 F2400
G0 X95.844 Y94.261 F5400
G1 X107.323 Y105.739 E259.10510 F2400
G0 X106.757 Y105.739 F5400
G1 X95.278 Y94.261 E259.64506 F2400
G0 X94.713 Y94.261 F5400
G1 X106.192 Y105.739 E260.18500 F2400
G0 X105.626 Y105.739 F5400
G1 X94.147 Y94.261 E260.72494 F2400
G0 X93.581 Y94.261 F5400
G1 X105.060 Y105.739 E261.26490 F2400
G0 X104.495 Y105.739 F5400
G1 X93.016 Y94.261 E261.80484 F2400
G0 X92.450 Y94.261 F5400
G1 X103.929 Y105.739 E262.34478 F2400
G0 X103.363 Y105.739 F5400
G1 X91.884 Y94.261 E262.88474 F2400
G0 X91.319 Y94.261 F5400
G1 X102.798 Y105.739 E263.42468 F2400
G0 X102.232 Y105.739 F5400
G1 X90.753 Y94.261 E263.96464 F2400
G0 X90.187 Y94.261 F5400
G1 X101.666 Y105.739 E264.50458 F2400
G0 X101.101 Y105.739 F5400
G1 X89.622 Y94.261 E265.04452 F2400
G0 X89.056 Y94.261 F5400
G1 X100.535 Y105.739 E265.58448 F2400
G0 X99.969 Y105.739 F5400
G1 X88.490 Y94.261 E266.12442 F2400
G0 X87.925 Y94.261 F5400
G1 X99.403 Y105.739 E266.66436 F2400
G0 X98.838 Y105.739 F5400
G1 X87.359 Y94.261 E267.20432 F2400
G0 X86.793 Y94.261 F5400
G1 X98.272 Y105.739 E267.74426 F2400
G0 X97.706 Y105.739 F5400
G1 X86.227 Y94.261 E268.28422 F2400
G0 X85.662 Y94.261 F5400
G1 X97.141 Y105.739 E268.82416 F2400
G0 X96.575 Y105.739 F5400
G1 X85.096 Y94.261 E269.36410 F2400
G0 X84.530 Y94.261 F5400
G1 X96.009 Y105.739 E269.90406 F2400
G0 X95.444 Y105.739 F5400
G1 X83.965 Y94.261 E270.44400 F2400
G0 X83.399 Y94.261 F5400
G1 X94.878 Y105.739 E270.98394 F2400
G0 X94.312 Y105.739 F5400
G1 X82.833 Y94.261 E271.52390 F2400
G0 X82.268 Y94.261 F5400
G1 X93.747 Y105.739 E272.06384 F2400
G0 X93.181 Y105.739 F5400
G1 X81.702 Y94.261 E272.60380 F2400
G0 X81.136 Y94.261 F5400
G1 X92.615 Y105.739 E273.14374 F2400
G0 X92.050 Y105.739 F5400
G1 X80.571 Y94.261 E273.68368 F2400
G0 X80.005 Y94.261 F5400
G1 X91.484 Y105.739 E274.22364 F2400
G0 X90.918 Y105.739 F5400
G1 X79.439 Y94.261 E274.76358 F2400
G0 X78.874 Y94.261 F5400
G1 X90.353 Y105.739 E275.30352 F2400
G0 X89.787 Y105.739 F5400
G1 X78.308 Y94.261 E275.84348 F2400
G0 X77.742 Y94.261 F5400
G1 X89.221 Y105.739 E276.38342 F2400
G0 X88.655 Y105.739 F5400
G1 X77.177 Y94.261 E276.92338 F2400
G0 X76.611 Y94.261 F5400
G1 X88.090 Y105.739 E277.46332 F2400
G0 X87.524 Y105.739 F5400
G1 X76.045 Y94.261 E278.00326 F2400
G0 X75.479 Y94.261 F5400
G1 X86.958 Y105.739 E278.54322 F2400
G0 X86.393 Y105.739 F5400
G1 X74.914 Y94.261 E279.08316 F2400
G0 X74.348 Y94.261 F5400
G1 X85.827 Y105.739 E279.62310 F2400
G0 X85.261 Y105.739 F5400
G1 X73.782 Y94.261 E280.16306 F2400
G0 X73.217 Y94.261 F5400
G1 X84.696 Y105.739 E280.70300 F2400
G0 X84.130 Y105.739 F5400
G1 X72.651 Y94.261 E281.24296 F2400
G0 X72.085 Y94.261 F5400
G1 X83.564 Y105.739 E281.78290 F2400
G0 X82.999 Y105.739 F5400
G1 X71.520 Y94.261 E282.32284 F2400
G0 X70.954 Y94.261 F5400
G1 X82.433 Y105.739 E282.86280 F2400
G0 X81.867 Y105.739 F5400
G1 X70.388 Y94.261 E283.40274 F2400
G0 X69.823 Y94.261 F5400
G1 X81.302 Y105.739 E283.94268 F2400
G0 X80.736 Y105.739 F5400
G1 X69.257 Y94.261 E284.48264 F2400
G0 X68.691 Y94.261 F5400
G1 X80.170 Y105.739 E285.02258 F2400
G0 X79.605 Y105.739 F5400
G1 X68.126 Y94.261 E285.56254 F2400
G0 X67.560 Y94.261 F5400
G1 X79.039 Y105.739 E286.10248 F2400
G0 X78.473 Y105.740 F5400
G1 X66.994 Y94.261 E286.64242 F2400
G0 X66.429 Y94.261 F5400
G1 X77.907 Y105.739 E287.18238 F2400
G0 X77.342 Y105.740 F5400
G1 X65.863 Y94.261 E287.72232 F2400
G0 X65.297 Y94.261 F5400
G1 X76.776 Y105.739 E288.26226 F2400
G0 X76.210 Y105.740 F5400
G1 X64.731 Y94.261 E288.80222 F2400
G0 X64.166 Y94.261 F5400
G1 X75.645 Y105.739 E289.34216 F2400
G0 X75.079 Y105.739 F5400
G1 X63.600 Y94.261 E289.88212 F2400
G0 X63.034 Y94.261 F5400
G1 X74.513 Y105.739 E290.42206 F2400
G0 X73.948 Y105.739 F5400
G1 X62.469 Y94.261 E290.96200 F2400
G0 X61.903 Y94.261 F5400
G1 X73.382 Y105.739 E291.50196 F2400
G0 X72.816 Y105.739 F5400
G1 X61.337 Y94.261 E292.04190 F2400
G0 X60.772 Y94.261 F5400
G1 X72.251 Y105.739 E292.58184 F2400
G0 X71.685 Y105.739 F5400
G1 X60.206 Y94.261 E293.12180 F2400
G0 X59.640 Y94.261 F5400
G1 X71.119 Y105.739 E293.66174 F2400
G0 X70.554 Y105.739 F5400
G1 X59.075 Y94.261 E294.20170 F2400
G0 X58.509 Y94.261 F5400
G1 X69.988 Y105.739 E294.74164 F2400
G0 X69.422 Y105.739 F5400
G1 X57.943 Y94.261 E295.28158 F2400
G0 X57.378 Y94.261 F5400
G1 X68.857 Y105.739 E295.82154 F2400
G0 X68.291 Y105.739 F5400
G1 X56.812 Y94.261 E296.36148 F2400
G0 X56.246 Y94.261 F5400
G1 X67.725 Y105.739 E296.90142 F2400
G0 X67.159 Y105.739 F5400
G1 X55.680 Y94.261 E297.44138 F2400
G0 X55.115 Y94.261 F5400
G1 X66.594 Y105.739 E297.98132 F2400
G0 X66.028 Y105.739 F5400
G1 X54.549 Y94.261 E298.52128 F2400
G0 X53.983 Y94.261 F5400
G1 X65.462 Y105.739 E299.06122 F2400
G0 X64.897 Y105.739 F5400
G1 X53.418 Y94.261 E299.60116 F2400
G0 X52.852 Y94.261 F5400
G1 X64.331 Y105.739 E300.14112 F2400
G0 X63.765 Y105.739 F5400
G1 X52.286 Y94.261 E300.68106 F2400
G0 X51.721 Y94.261 F5400
G1 X63.200 Y105.739 E301.22100 F2400
G0 X62.634 Y105.739 F5400
G1 X51.155 Y94.261 E301.76096 F2400
G0 X50.589 Y94.261 F5400
G1 X62.068 Y105.739 E302.30090 F2400
G0 X61.503 Y105.739 F5400
G1 X50.024 Y94.261 E302.84086 F2400
G0 X49.458 Y94.261 F5400
G1 X60.937 Y105.739 E303.38080 F2400
G0 X60.371 Y105.739 F5400
G1 X48.892 Y94.261 E303.92074 F2400
G0 X48.327 Y94.261 F5400
G1 X59.806 Y105.739 E304.46070 F2400
G0 X59.240 Y105.739 F5400
G1 X47.761 Y94.261 E305.00064 F2400
G0 X47.195 Y94.261 F5400
G1 X58.674 Y105.739 E305.54058 F2400
G0 X58.108 Y105.739 F5400
G1 X46.630 Y94.261 E306.08054 F2400
G0 X46.064 Y94.261 F5400
G1 X57.543 Y105.739 E306.62048 F2400
G0 X56.977 Y105.739 F5400
G1 X45.498 Y94.261 E307.16044 F2400
G0 X44.932 Y94.261 F5400
G1 X56.411 Y105.739 E307.70038 F2400
G0 X55.846 Y105.739 F5400
G1 X44.367 Y94.261 E308.24032 F2400
G0 X43.801 Y94.261 F5400
G1 X55.280 Y105.739 E308.78028 F2400
G0 X54.714 Y105.739 F5400
G1 X43.235 Y94.261 E309.32022 F2400
G0 X42.670 Y94.261 F5400
G1 X54.149 Y105.739 E309.86016 F2400
G0 X53.583 Y105.739 F5400
G1 X42.104 Y94.261 E310.40012 F2400
G0 X41.538 Y94.261 F5400
G1 X53.017 Y105.739 E310.94006 F2400
G0 X52.452 Y105.739 F5400
G1 X40.973 Y94.261 E311.48002 F2400
G0 X40.407 Y94.261 F5400
G1 X51.886 Y105.739 E312.01996 F2400
G0 X51.320 Y105.739 F5400
G1 X39.841 Y94.261 E312.55990 F2400
G0 X39.276 Y94.261 F5400
G1 X50.755 Y105.739 E313.09986 F2400
G0 X50.189 Y105.739 F5400
G1 X42.634 Y98.184 E313.45524 F2400
G0 X42.914 Y99.030 F5400
G1 X49.623 Y105.739 E313.77082 F2400
G0 X49.058 Y105.739 F5400
G1 X43.005 Y99.687 E314.05552 F2400
G0 X43.010 Y100.257 F5400
G1 X48.492 Y105.739 E314.31338 F2400
G0 X47.926 Y105.739 F5400
G1 X42.964 Y100.778 E314.54678 F2400
G0 X42.846 Y101.225 F5400
G1 X47.360 Y105.739 E314.75916 F2400
G0 X46.795 Y105.739 F5400
G1 X42.709 Y101.654 E314.95132 F2400
G0 X42.529 Y102.040 F5400
G1 X46.229 Y105.739 E315.12536 F2400
G0 X45.663 Y105.739 F5400
G1 X42.326 Y102.403 E315.28232 F2400
G0 X42.093 Y102.735 F5400
G1 X45.098 Y105.739 E315.42364 F2400
G0 X44.532 Y105.739 F5400
G1 X41.836 Y103.043 E315.55048 F2400
G0 X41.553 Y103.326 F5400
G1 X43.966 Y105.739 E315.66400 F2400
G0 X43.401 Y105.739 F5400
G1 X41.244 Y103.583 E315.76544 F2400
G0 X40.911 Y103.816 F5400
G1 X42.835 Y105.739 E315.85592 F2400
G0 X42.269 Y105.739 F5400
G1 X40.547 Y104.018 E315.93692 F2400
G0 X40.162 Y104.197 F5400
G1 X41.704 Y105.739 E316.00946 F2400
G0 X32.788 Y100.218 F5400
G1 X34.406 Y101.836 E316.08554 F2400
G0 X34.120 Y100.984 F5400
G1 X32.790 Y99.654 E316.14810 F2400
G0 X32.849 Y99.148 F5400
G1 X34.026 Y100.325 E316.20346 F2400
G0 X34.019 Y99.752 F5400
G1 X32.943 Y98.676 E316.25406 F2400
G0 X33.064 Y98.232 F5400
G1 X34.065 Y99.232 E316.30112 F2400
G0 X34.182 Y98.784 F5400
G1 X33.215 Y97.817 E316.34658 F2400
G0 X33.396 Y97.432 F5400
G1 X34.318 Y98.353 E316.38992 F2400
G0 X34.497 Y97.968 F5400
G1 X33.593 Y97.063 E316.43250 F2400
G0 X33.817 Y96.721 F5400
G1 X34.699 Y97.604 E316.47400 F2400
G0 X34.932 Y97.271 F5400
G1 X34.060 Y96.399 E316.51502 F2400
G0 X34.319 Y96.092 F5400
G1 X35.189 Y96.962 E316.55596 F2400
G0 X35.472 Y96.679 F5400
G1 X34.607 Y95.814 E316.59664 F2400
G0 X34.906 Y95.547 F5400
G1 X35.780 Y96.422 E316.63776 F2400
G0 X36.113 Y96.189 F5400
G1 X35.230 Y95.306 E316.67926 F2400
G0 X35.575 Y95.085 F5400
G1 X36.475 Y95.986 E316.72162 F2400
G0 X36.861 Y95.806 F5400
G1 X35.933 Y94.878 E316.76526 F2400
G0 X36.328 Y94.707 F5400
G1 X37.290 Y95.669 E316.81054 F2400
G0 X37.738 Y95.551 F5400
G1 X36.740 Y94.553 E316.85746 F2400
G0 X37.175 Y94.423 F5400
G1 X38.258 Y95.505 E316.90836 F2400
G0 X38.828 Y95.510 F5400
G1 X37.655 Y94.337 E316.96356 F2400
G0 X38.168 Y94.284 F5400
G1 X39.485 Y95.601 E317.02552 F2400
G0 X40.331 Y95.882 F5400
G1 X38.710 Y94.261 E317.10174 F2400
G0 X288.586 Y94.670 F5400
G1 X291.814 Y97.897 E317.25358 F2400
G0 X292.066 Y98.715 F5400
G1 X287.761 Y94.410 E317.45606 F2400
G0 X274.601 Y94.260 F5400
G1 X282.550 Y102.210 E317.82998 F2400
G0 X282.163 Y101.257 F5400
G1 X275.166 Y94.260 E318.15908 F2400
G0 X275.732 Y94.260 F5400
G1 X282.015 Y100.544 E318.45466 F2400
G0 X281.973 Y99.936 F5400
G1 X276.298 Y94.260 E318.72162 F2400
G0 X276.863 Y94.260 F5400
G1 X282.019 Y99.416 E318.96412 F2400
G0 X282.110 Y98.941 F5400
G1 X277.429 Y94.260 E319.18430 F2400
G0 X277.995 Y94.260 F5400
G1 X282.229 Y98.495 E319.38348 F2400
G0 X282.404 Y98.104 F5400
G1 X278.560 Y94.260 E319.56428 F2400
G0 X279.126 Y94.260 F5400
G1 X282.587 Y97.721 E319.72706 F2400
G0 X282.820 Y97.389 F5400
G1 X279.692 Y94.260 E319.87420 F2400
G0 X280.257 Y94.260 F5400
G1 X283.059 Y97.062 E320.00598 F2400
G0 X283.342 Y96.779 F5400
G1 X280.823 Y94.260 E320.12446 F2400
G0 X281.389 Y94.260 F5400
G1 X283.632 Y96.504 E320.22998 F2400
G0 X283.965 Y96.271 F5400
G1 X281.954 Y94.260 E320.32456 F2400
G0 X282.520 Y94.260 F5400
G1 X284.309 Y96.049 E320.40870 F2400
G0 X284.695 Y95.869 F5400
G1 X283.086 Y94.260 E320.48438 F2400
G0 X283.652 Y94.260 F5400
G1 X285.103 Y95.712 E320.55264 F2400
G0 X285.549 Y95.592 F5400
G1 X284.217 Y94.260 E320.61530 F2400
G0 X284.783 Y94.260 F5400
G1 X286.044 Y95.521 E320.67462 F2400
G0 X286.579 Y95.491 F5400
G1 X285.349 Y94.260 E320.73252 F2400
G0 X285.914 Y94.260 F5400
G1 X287.199 Y95.545 E320.79296 F2400
G0 X287.955 Y95.735 F5400
G1 X286.483 Y94.263 E320.86218 F2400
G0 X287.084 Y94.298 F5400
G1 X289.176 Y96.391 E320.96058 F2400
G0 X291.143 Y96.661 F5400
G1 X289.842 Y95.360 E321.02176 F2400
G0 X290.094 Y97.308 F5400
G1 X292.180 Y99.395 E321.11990 F2400
G0 X292.212 Y99.992 F5400
G1 X290.750 Y98.530 E321.18866 F2400
G0 X290.940 Y99.286 F5400
G1 X292.188 Y100.534 E321.24738 F2400
G0 X292.125 Y101.037 F5400
G1 X290.994 Y99.906 E321.30056 F2400
G0 X290.964 Y100.441 F5400
G1 X292.016 Y101.494 E321.35006 F2400
G0 X291.880 Y101.923 F5400
G1 X290.893 Y100.936 E321.39648 F2400
G0 X290.773 Y101.382 F5400
G1 X291.723 Y102.332 E321.44114 F2400
G0 X291.534 Y102.708 F5400
G1 X290.615 Y101.790 E321.48432 F2400
G0 X290.436 Y102.176 F5400
G1 X291.324 Y103.064 E321.52610 F2400
G0 X291.100 Y103.405 F5400
G1 X290.214 Y102.520 E321.56774 F2400
; ------------------------------------
; Layer #1
; ------------------------------------
G92 E0 ;reset extr
G0 F3000 E-1.00000
G0 F600 Z0.400
G0 X288.679 Y102.529 F7200
G0 X288.640 Y102.569
G0 X288.161 Y102.904
G0 X287.632 Y103.151
G0 X287.067 Y103.302
G0 X286.485 Y103.353
G0 X285.903 Y103.302
G0 X285.338 Y103.150
G0 X284.809 Y102.903
G0 X284.330 Y102.568
G0 X284.317 Y102.555
G0 X36.495 Y104.024
G0 F3000 E0.00000
;segType:HShell
G1 X35.593 Y104.926 E0.04244 F3600
G0 X35.247 Y104.706 F7200
G1 X36.130 Y103.823 E0.08397 F3600
G0 X35.797 Y103.591 F7200
G1 X34.923 Y104.465 E0.12511 F3600
G0 X34.622 Y104.200 F7200
G1 X35.486 Y103.336 E0.16578 F3600
G0 X35.204 Y103.053 F7200
G1 X34.332 Y103.924 E0.20678 F3600
G0 X34.074 Y103.617 F7200
G1 X34.944 Y102.746 E0.24773 F3600
G0 X34.711 Y102.414 F7200
G1 X33.829 Y103.296 E0.28925 F3600
G0 X33.604 Y102.955 F7200
G1 X34.507 Y102.052 E0.33171 F3600
G0 X34.327 Y101.667 F7200
G1 X33.406 Y102.587 E0.37502 F3600
G0 X32.191 Y103.283 F7200
;segType:Perimeter
G1 X31.792 Y102.835 E0.39498 F2159
G1 X31.523 Y102.093 E0.42121
G1 X31.327 Y101.268 E0.44944
G1 X31.228 Y100.424 E0.47768
G1 X31.228 Y99.576 E0.50591
G1 X31.327 Y98.732 E0.53414
G1 X31.523 Y97.907 E0.56237
G1 X31.813 Y97.109 E0.59061
G1 X32.194 Y96.350 E0.61884
G1 X32.660 Y95.641 E0.64707
G1 X33.206 Y94.991 E0.67530
G1 X33.823 Y94.408 E0.70354
G1 X34.504 Y93.902 E0.73177
G1 X35.239 Y93.477 E0.76000
G1 X36.019 Y93.141 E0.78823
G1 X36.832 Y92.897 E0.81646
G1 X37.668 Y92.750 E0.84469
G1 X38.521 Y92.700 E0.87312
G1 X286.479 Y92.700 E9.12025
G1 X287.332 Y92.750 E9.14868
G1 X288.168 Y92.897 E9.17691
G1 X288.982 Y93.141 E9.20514
G1 X289.760 Y93.477 E9.23335
G1 X290.496 Y93.902 E9.26160
G1 X291.177 Y94.409 E9.28984
G1 X291.794 Y94.991 E9.31807
G1 X292.340 Y95.641 E9.34631
G1 X292.807 Y96.351 E9.37456
G1 X293.187 Y97.108 E9.40275
G1 X293.477 Y97.907 E9.43100
G1 X293.674 Y98.733 E9.45925
G1 X293.772 Y99.576 E9.48747
G1 X293.772 Y100.424 E9.51568
G1 X293.673 Y101.268 E9.54393
G1 X293.477 Y102.094 E9.57217
G1 X293.187 Y102.891 E9.60040
G1 X292.807 Y103.649 E9.62860
G1 X292.340 Y104.359 E9.65686
G1 X291.794 Y105.009 E9.68510
G1 X291.177 Y105.592 E9.71332
G1 X290.496 Y106.098 E9.74155
G1 X289.761 Y106.523 E9.76977
G1 X288.981 Y106.859 E9.79802
G1 X288.168 Y107.103 E9.82625
G1 X287.332 Y107.250 E9.85448
G1 X286.479 Y107.300 E9.88291
G1 X38.521 Y107.300 E18.13003
G1 X37.668 Y107.250 E18.15846
G1 X36.832 Y107.103 E18.18669
G1 X36.019 Y106.859 E18.21492
G1 X35.239 Y106.523 E18.24315
G1 X34.504 Y106.098 E18.27139
G1 X33.823 Y105.592 E18.29962
G1 X33.206 Y105.009 E18.32786
G1 X32.660 Y104.359 E18.35608
G1 X32.194 Y103.650 E18.38432
G1 X31.840 Y102.945 E18.41056
G0 X31.792 Y102.835 F7200
G0 X31.523 Y102.093
G0 X31.335 Y101.304
G0 X31.721 Y101.198
G0 X31.854 Y101.757
;segType:Loop
G1 X31.721 Y101.198 E18.42965 F3600
G1 X31.628 Y100.401 E18.45634
G1 X31.628 Y99.599 E18.48302
G1 X31.721 Y98.802 E18.50970
G1 X31.906 Y98.022 E18.53638
G1 X32.180 Y97.268 E18.56307
G1 X32.541 Y96.551 E18.58975
G1 X32.981 Y95.880 E18.61643
G1 X33.497 Y95.266 E18.64311
G1 X34.081 Y94.715 E18.66980
G1 X34.724 Y94.236 E18.69648
G1 X35.419 Y93.835 E18.72317
G1 X36.156 Y93.518 E18.74984
G1 X36.924 Y93.287 E18.77653
G1 X37.714 Y93.148 E18.80321
G1 X38.533 Y93.100 E18.83048
G1 X286.468 Y93.100 E27.07683
G1 X287.286 Y93.148 E27.10410
G1 X288.076 Y93.287 E27.13077
G1 X288.844 Y93.518 E27.15746
G1 X289.581 Y93.835 E27.18412
G1 X290.276 Y94.236 E27.21081
G1 X290.919 Y94.715 E27.23751
G1 X291.503 Y95.266 E27.26418
G1 X292.018 Y95.880 E27.29086
G1 X292.460 Y96.552 E27.31758
G1 X292.819 Y97.267 E27.34421
G1 X293.094 Y98.022 E27.37093
G1 X293.279 Y98.802 E27.39760
G1 X293.372 Y99.599 E27.42429
G1 X293.372 Y100.400 E27.45093
G1 X293.279 Y101.198 E27.47765
G1 X293.093 Y101.979 E27.50435
G1 X292.819 Y102.733 E27.53102
G1 X292.460 Y103.448 E27.55766
G1 X292.018 Y104.120 E27.58438
G1 X291.503 Y104.734 E27.61107
G1 X290.919 Y105.285 E27.63774
G1 X290.276 Y105.763 E27.66441
G1 X289.582 Y106.165 E27.69109
G1 X288.844 Y106.483 E27.71779
G1 X288.076 Y106.713 E27.74447
G1 X287.286 Y106.852 E27.77115
G1 X286.467 Y106.900 E27.79842
G1 X38.533 Y106.900 E36.04477
G1 X37.714 Y106.852 E36.07204
G1 X36.924 Y106.713 E36.09872
G1 X36.156 Y106.482 E36.12540
G1 X35.419 Y106.165 E36.15208
G1 X34.724 Y105.764 E36.17877
G1 X34.081 Y105.285 E36.20545
G1 X33.497 Y104.734 E36.23213
G1 X32.982 Y104.120 E36.25881
G1 X32.541 Y103.449 E36.28550
G1 X32.180 Y102.732 E36.31218
G1 X31.906 Y101.978 E36.33886
G1 X31.900 Y101.951 E36.33979
G0 X32.058 Y100.629 F7200
G1 X32.028 Y100.378 E36.34821 F3600
G1 X32.028 Y99.622 E36.37335
G1 X32.116 Y98.872 E36.39848
G1 X32.290 Y98.136 E36.42361
G1 X32.548 Y97.426 E36.44874
G1 X32.888 Y96.751 E36.47387
G1 X33.303 Y96.120 E36.49901
G1 X33.789 Y95.541 E36.52414
G1 X34.338 Y95.022 E36.54927
G1 X34.944 Y94.571 E36.57440
G1 X35.599 Y94.193 E36.59954
G1 X36.293 Y93.894 E36.62467
G1 X37.016 Y93.677 E36.64980
G1 X37.760 Y93.546 E36.67493
G1 X38.544 Y93.500 E36.70104
G1 X286.456 Y93.500 E44.94662
G1 X287.240 Y93.546 E44.97273
G1 X287.984 Y93.677 E44.99785
G1 X288.707 Y93.894 E45.02299
G1 X289.401 Y94.193 E45.04810
G1 X290.056 Y94.571 E45.07325
G1 X290.662 Y95.022 E45.09838
G1 X291.211 Y95.541 E45.12351
G1 X291.697 Y96.120 E45.14865
G1 X292.113 Y96.752 E45.17383
G1 X292.451 Y97.425 E45.19889
G1 X292.710 Y98.137 E45.22407
G1 X292.884 Y98.871 E45.24918
G1 X292.972 Y99.622 E45.27433
G1 X292.972 Y100.377 E45.29942
G1 X292.884 Y101.129 E45.32460
G1 X292.710 Y101.864 E45.34974
G1 X292.451 Y102.574 E45.37487
G1 X292.113 Y103.248 E45.39995
G1 X291.697 Y103.881 E45.42513
G1 X291.211 Y104.459 E45.45026
G1 X290.662 Y104.978 E45.47539
G1 X290.056 Y105.428 E45.50049
G1 X289.402 Y105.807 E45.52564
G1 X288.707 Y106.106 E45.55079
G1 X287.984 Y106.323 E45.57591
G1 X287.239 Y106.454 E45.60104
G1 X286.456 Y106.500 E45.62716
G1 X38.544 Y106.500 E53.87273
G1 X37.761 Y106.454 E53.89884
G1 X37.016 Y106.323 E53.92396
G1 X36.293 Y106.106 E53.94910
G1 X35.599 Y105.807 E53.97422
G1 X34.944 Y105.429 E53.99936
G1 X34.338 Y104.978 E54.02449
G1 X33.789 Y104.459 E54.04963
G1 X33.303 Y103.880 E54.07475
G1 X32.888 Y103.249 E54.09989
G1 X32.548 Y102.574 E54.12503
G1 X32.290 Y101.864 E54.15016
G1 X32.116 Y101.128 E54.17529
G1 X32.081 Y100.828 E54.18535
G0 X32.440 Y99.546 F7200
G1 X32.510 Y98.941 E54.20560 F3600
G1 X32.674 Y98.251 E54.22919
G1 X32.916 Y97.585 E54.25277
G1 X33.235 Y96.952 E54.27635
G1 X33.624 Y96.359 E54.29994
G1 X34.080 Y95.816 E54.32351
G1 X34.596 Y95.329 E54.34710
G1 X35.165 Y94.906 E54.37068
G1 X35.779 Y94.551 E54.39427
G1 X36.430 Y94.271 E54.41785
G1 X37.109 Y94.067 E54.44143
G1 X37.807 Y93.944 E54.46501
G1 X38.556 Y93.900 E54.48996
G1 X286.444 Y93.900 E62.73476
G1 X287.193 Y93.944 E62.75971
G1 X287.891 Y94.067 E62.78329
G1 X288.570 Y94.270 E62.80686
G1 X289.221 Y94.551 E62.83042
G1 X289.835 Y94.906 E62.85403
G1 X290.404 Y95.329 E62.87761
G1 X290.920 Y95.816 E62.90120
G1 X291.376 Y96.359 E62.92477
G1 X291.766 Y96.952 E62.94841
G1 X292.083 Y97.584 E62.97191
G1 X292.326 Y98.252 E62.99555
G1 X292.490 Y98.941 E63.01910
G1 X292.572 Y99.646 E63.04270
G1 X292.572 Y100.353 E63.06624
G1 X292.490 Y101.059 E63.08988
G1 X292.326 Y101.749 E63.11347
G1 X292.083 Y102.416 E63.13705
G1 X291.766 Y103.048 E63.16057
G1 X291.376 Y103.641 E63.18421
G1 X290.920 Y104.184 E63.20779
G1 X290.404 Y104.671 E63.23137
G1 X289.836 Y105.094 E63.25492
G1 X289.221 Y105.449 E63.27853
G1 X288.570 Y105.730 E63.30212
G1 X287.891 Y105.933 E63.32569
G1 X287.193 Y106.056 E63.34928
G1 X286.444 Y106.100 E63.37423
G1 X38.556 Y106.100 E71.61902
G1 X37.807 Y106.056 E71.64397
G1 X37.109 Y105.933 E71.66755
G1 X36.430 Y105.729 E71.69113
G1 X35.779 Y105.449 E71.71472
G1 X35.165 Y105.094 E71.73831
G1 X34.596 Y104.671 E71.76189
G1 X34.080 Y104.184 E71.78547
G1 X33.624 Y103.641 E71.80905
G1 X33.235 Y103.048 E71.83264
G1 X32.916 Y102.415 E71.85623
G1 X32.674 Y101.749 E71.87981
G1 X32.510 Y101.059 E71.90339
G1 X32.428 Y100.355 E71.92697
G1 X32.428 Y99.745 E71.94724
G0 F3000 E70.94724
G0 X38.739 Y105.739 F7200
G0 F3000 E71.94724
;segType:HShell
G1 X40.386 Y104.093 E72.02469 F3600
G0 X39.525 Y104.388 F7200
G1 X38.195 Y105.718 E72.08724 F3600
G0 X37.680 Y105.668 F7200
G1 X38.861 Y104.487 E72.14278 F3600
G0 X38.285 Y104.497 F7200
G1 X37.199 Y105.583 E72.19387 F3600
G0 X36.763 Y105.453 F7200
G1 X37.765 Y104.452 E72.24098 F3600
G0 X37.314 Y104.337 F7200
G1 X36.348 Y105.302 E72.28639 F3600
G0 X35.953 Y105.132 F7200
G1 X36.881 Y104.203 E72.33006 F3600
G0 X36.839 Y102.904 F7200
G0 X36.961 Y102.678
;segType:Perimeter
G1 X36.575 Y102.218 E72.35002 F2159
G1 X36.254 Y101.897 E72.36513
G1 X35.959 Y101.476 E72.38224
G1 X35.742 Y101.009 E72.39935
G1 X35.609 Y100.513 E72.41646
G1 X35.564 Y100.000 E72.43357
G1 X35.609 Y99.487 E72.45069
G1 X35.742 Y98.991 E72.46780
G1 X35.959 Y98.524 E72.48491
G1 X36.254 Y98.103 E72.50202
G1 X36.618 Y97.739 E72.51912
G1 X37.039 Y97.444 E72.53623
G1 X37.506 Y97.227 E72.55335
G1 X38.003 Y97.094 E72.57046
G1 X38.515 Y97.049 E72.58757
G1 X39.028 Y97.094 E72.60469
G1 X39.524 Y97.227 E72.62180
G1 X39.991 Y97.444 E72.63891
G1 X40.412 Y97.739 E72.65602
G1 X40.776 Y98.103 E72.67313
G1 X41.071 Y98.524 E72.69023
G1 X41.288 Y98.991 E72.70735
G1 X41.421 Y99.488 E72.72446
G1 X41.466 Y100.000 E72.74157
G1 X41.421 Y100.512 E72.75868
G1 X41.288 Y101.009 E72.77580
G1 X41.071 Y101.476 E72.79291
G1 X40.776 Y101.897 E72.81002
G1 X40.412 Y102.261 E72.82713
G1 X39.991 Y102.556 E72.84423
G1 X39.524 Y102.773 E72.86135
G1 X39.028 Y102.906 E72.87846
G1 X38.515 Y102.951 E72.89557
G1 X38.003 Y102.906 E72.91268
G1 X37.506 Y102.773 E72.92980
G1 X37.039 Y102.556 E72.94691
G1 X36.667 Y102.295 E72.96203
G0 X36.575 Y102.218 F7200
G0 X36.254 Y101.897
G0 X35.959 Y101.476
G0 X35.742 Y101.009
G0 X35.712 Y100.896
G0 X35.365 Y101.147
G0 X35.569 Y101.586
;segType:Loop
G1 X35.365 Y101.147 E72.97814 F3600
G1 X35.213 Y100.582 E72.99758
G1 X35.162 Y100.000 E73.01702
G1 X35.213 Y99.418 E73.03646
G1 X35.365 Y98.853 E73.05590
G1 X35.612 Y98.324 E73.07534
G1 X35.947 Y97.845 E73.09477
G1 X36.360 Y97.432 E73.11421
G1 X36.839 Y97.097 E73.13365
G1 X37.368 Y96.850 E73.15309
G1 X37.933 Y96.698 E73.17253
G1 X38.515 Y96.647 E73.19197
G1 X39.097 Y96.698 E73.21141
G1 X39.662 Y96.850 E73.23085
G1 X40.192 Y97.097 E73.25029
G1 X40.670 Y97.432 E73.26972
G1 X41.083 Y97.845 E73.28916
G1 X41.419 Y98.324 E73.30859
G1 X41.666 Y98.853 E73.32803
G1 X41.817 Y99.418 E73.34747
G1 X41.868 Y100.000 E73.36691
G1 X41.817 Y100.582 E73.38635
G1 X41.666 Y101.147 E73.40579
G1 X41.419 Y101.677 E73.42523
G1 X41.083 Y102.155 E73.44466
G1 X40.670 Y102.568 E73.46410
G1 X40.192 Y102.903 E73.48353
G1 X39.662 Y103.151 E73.50297
G1 X39.097 Y103.302 E73.52241
G1 X38.515 Y103.353 E73.54185
G1 X37.933 Y103.302 E73.56129
G1 X37.368 Y103.151 E73.58073
G1 X36.839 Y102.904 E73.60017
G1 X36.360 Y102.568 E73.61962
G1 X35.947 Y102.155 E73.63905
G1 X35.669 Y101.758 E73.65515
G0 X34.819 Y100.656 F7200
G1 X34.818 Y100.652 E73.65528 F3600
G1 X34.761 Y100.000 E73.67706
G1 X34.818 Y99.348 E73.69883
G1 X34.987 Y98.716 E73.72060
G1 X35.264 Y98.123 E73.74237
G1 X35.639 Y97.587 E73.76412
G1 X36.102 Y97.124 E73.78588
G1 X36.638 Y96.749 E73.80765
G1 X37.231 Y96.472 E73.82942
G1 X37.863 Y96.303 E73.85118
G1 X38.515 Y96.246 E73.87295
G1 X39.167 Y96.303 E73.89472
G1 X39.799 Y96.472 E73.91648
G1 X40.392 Y96.749 E73.93826
G1 X40.928 Y97.124 E73.96002
G1 X41.391 Y97.587 E73.98178
G1 X41.766 Y98.123 E74.00353
G1 X42.043 Y98.716 E74.02531
G1 X42.212 Y99.348 E74.04708
G1 X42.269 Y100.000 E74.06884
G1 X42.212 Y100.652 E74.09061
G1 X42.043 Y101.284 E74.11238
G1 X41.766 Y101.877 E74.13415
G1 X41.391 Y102.413 E74.15591
G1 X40.928 Y102.876 E74.17767
G1 X40.392 Y103.251 E74.19943
G1 X39.799 Y103.528 E74.22120
G1 X39.167 Y103.697 E74.24297
G1 X38.515 Y103.754 E74.26473
G1 X37.863 Y103.697 E74.28649
G1 X37.231 Y103.528 E74.30826
G1 X36.638 Y103.251 E74.33003
G1 X36.102 Y102.876 E74.35180
G1 X35.639 Y102.413 E74.37356
G1 X35.264 Y101.877 E74.39531
G1 X34.987 Y101.284 E74.41708
G1 X34.871 Y100.849 E74.43206
G0 X34.401 Y99.525 F7200
G1 X34.422 Y99.278 E74.44032 F3600
G1 X34.610 Y98.578 E74.46441
G1 X34.916 Y97.922 E74.48851
G1 X35.332 Y97.329 E74.51258
G1 X35.843 Y96.817 E74.53667
G1 X36.437 Y96.401 E74.56078
G1 X37.094 Y96.095 E74.58487
G1 X37.793 Y95.907 E74.60897
G1 X38.515 Y95.844 E74.63306
G1 X39.237 Y95.907 E74.65715
G1 X39.936 Y96.095 E74.68125
G1 X40.593 Y96.401 E74.70535
G1 X41.186 Y96.817 E74.72943
G1 X41.698 Y97.329 E74.75352
G1 X42.114 Y97.922 E74.77761
G1 X42.420 Y98.579 E74.80171
G1 X42.608 Y99.278 E74.82580
G1 X42.671 Y100.000 E74.84989
G1 X42.608 Y100.722 E74.87399
G1 X42.420 Y101.421 E74.89808
G1 X42.114 Y102.078 E74.92218
G1 X41.698 Y102.671 E74.94627
G1 X41.186 Y103.183 E74.97035
G1 X40.593 Y103.599 E74.99444
G1 X39.936 Y103.905 E75.01855
G1 X39.237 Y104.093 E75.04264
G1 X38.515 Y104.156 E75.06674
G1 X37.794 Y104.093 E75.09082
G1 X37.094 Y103.905 E75.11492
G1 X36.437 Y103.599 E75.13902
G1 X35.843 Y103.183 E75.16312
G1 X35.332 Y102.671 E75.18720
G1 X34.916 Y102.078 E75.21128
G1 X34.610 Y101.422 E75.23538
G1 X34.422 Y100.722 E75.25947
G1 X34.359 Y100.000 E75.28357
G1 X34.383 Y99.725 E75.29277
G0 F3000 E74.29277
G0 X35.187 Y99.721 F7200
G0 X35.213 Y99.418
G0 X35.365 Y98.853
G0 X35.612 Y98.324
G0 X35.947 Y97.845
G0 X36.360 Y97.432
G0 X36.839 Y97.097
G0 X37.368 Y96.850
G0 X37.933 Y96.698
G0 X38.515 Y96.647
G0 X39.097 Y96.698
G0 X39.662 Y96.850
G0 X40.192 Y97.097
G0 X40.670 Y97.432
G0 X41.083 Y97.845
G0 X41.419 Y98.324
G0 X41.666 Y98.853
G0 X41.817 Y99.418
G0 X41.841 Y99.690
G0 X283.467 Y98.570
G0 X283.581 Y98.324
G0 X283.917 Y97.845
G0 X284.330 Y97.432
G0 X284.809 Y97.096
G0 X285.338 Y96.850
G0 X285.903 Y96.698
G0 X286.485 Y96.647
G0 X287.067 Y96.698
G0 X287.632 Y96.849
G0 X288.161 Y97.097
G0 X288.640 Y97.432
G0 X289.053 Y97.845
G0 X289.388 Y98.324
G0 X289.490 Y98.542
G0 X292.022 Y98.530
G0 F3000 E75.29277
;segType:HShell
G1 X290.966 Y99.586 E75.34243 F3600
G0 X290.991 Y100.126 F7200
G1 X292.130 Y98.987 E75.39601 F3600
G0 X292.191 Y99.492 F7200
G1 X290.937 Y100.746 E75.45501 F3600
G0 X290.739 Y101.510 F7200
G1 X292.212 Y100.037 E75.52428 F3600
G0 X292.176 Y100.639 F7200
G1 X290.025 Y102.790 E75.62547 F3600
G0 X288.852 Y101.995 F7200
;segType:Perimeter
G1 X288.333 Y102.295 E75.64543 F2159
G1 X287.961 Y102.556 E75.66054
G1 X287.494 Y102.773 E75.67765
G1 X286.997 Y102.906 E75.69476
G1 X286.485 Y102.951 E75.71187
G1 X285.972 Y102.906 E75.72898
G1 X285.475 Y102.773 E75.74610
G1 X285.009 Y102.556 E75.76320
G1 X284.588 Y102.261 E75.78031
G1 X284.224 Y101.897 E75.79743
G1 X283.929 Y101.476 E75.81453
G1 X283.712 Y101.009 E75.83164
G1 X283.579 Y100.512 E75.84875
G1 X283.534 Y100.000 E75.86586
G1 X283.579 Y99.488 E75.88296
G1 X283.712 Y98.991 E75.90007
G1 X283.929 Y98.524 E75.91719
G1 X284.224 Y98.103 E75.93429
G1 X284.588 Y97.739 E75.95140
G1 X285.010 Y97.444 E75.96852
G1 X285.475 Y97.227 E75.98561
G1 X285.972 Y97.094 E76.00273
G1 X286.485 Y97.049 E76.01984
G1 X286.997 Y97.094 E76.03695
G1 X287.494 Y97.227 E76.05406
G1 X287.961 Y97.444 E76.07118
G1 X288.382 Y97.739 E76.08828
G1 X288.746 Y98.103 E76.10539
G1 X289.041 Y98.524 E76.12250
G1 X289.258 Y98.991 E76.13963
G1 X289.391 Y99.488 E76.15673
G1 X289.436 Y100.000 E76.17384
G1 X289.391 Y100.513 E76.19095
G1 X289.258 Y101.009 E76.20806
G1 X289.041 Y101.476 E76.22518
G1 X288.746 Y101.897 E76.24228
G1 X288.424 Y102.218 E76.25740
G0 X288.333 Y102.295 F7200
G0 X287.961 Y102.556
G0 X287.494 Y102.773
G0 X286.997 Y102.906
G0 X286.881 Y102.916
G0 X287.067 Y103.302
G0 X287.535 Y103.176
;segType:Loop
G1 X287.067 Y103.302 E76.27350 F3600
G1 X286.485 Y103.353 E76.29294
G1 X285.903 Y103.302 E76.31238
G1 X285.338 Y103.150 E76.33183
G1 X284.809 Y102.903 E76.35126
G1 X284.330 Y102.568 E76.37069
G1 X283.917 Y102.155 E76.39013
G1 X283.581 Y101.676 E76.40957
G1 X283.334 Y101.147 E76.42900
G1 X283.183 Y100.582 E76.44844
G1 X283.132 Y100.000 E76.46789
G1 X283.183 Y99.418 E76.48731
G1 X283.334 Y98.853 E76.50675
G1 X283.581 Y98.324 E76.52619
G1 X283.917 Y97.845 E76.54563
G1 X284.330 Y97.432 E76.56507
G1 X284.809 Y97.096 E76.58451
G1 X285.338 Y96.850 E76.60393
G1 X285.903 Y96.698 E76.62338
G1 X286.485 Y96.647 E76.64282
G1 X287.067 Y96.698 E76.66226
G1 X287.632 Y96.849 E76.68169
G1 X288.161 Y97.097 E76.70114
G1 X288.640 Y97.432 E76.72057
G1 X289.053 Y97.845 E76.74001
G1 X289.388 Y98.324 E76.75944
G1 X289.636 Y98.853 E76.77889
G1 X289.787 Y99.418 E76.79833
G1 X289.838 Y100.000 E76.81775
G1 X289.787 Y100.582 E76.83719
G1 X289.635 Y101.147 E76.85663
G1 X289.388 Y101.676 E76.87607
G1 X289.053 Y102.155 E76.89550
G1 X288.640 Y102.569 E76.91495
G1 X288.161 Y102.904 E76.93438
G1 X287.722 Y103.108 E76.95050
G0 X286.489 Y103.754 F7200
G1 X286.485 Y103.754 E76.95062 F3600
G1 X285.833 Y103.697 E76.97238
G1 X285.201 Y103.528 E76.99416
G1 X284.608 Y103.251 E77.01592
G1 X284.072 Y102.876 E77.03768
G1 X283.609 Y102.413 E77.05944
G1 X283.234 Y101.877 E77.08121
G1 X282.957 Y101.284 E77.10297
G1 X282.788 Y100.652 E77.12473
G1 X282.731 Y100.000 E77.14652
G1 X282.788 Y99.348 E77.16826
G1 X282.957 Y98.716 E77.19004
G1 X283.234 Y98.123 E77.21180
G1 X283.609 Y97.587 E77.23356
G1 X284.072 Y97.124 E77.25533
G1 X284.608 Y96.749 E77.27710
G1 X285.201 Y96.472 E77.29885
G1 X285.833 Y96.303 E77.32063
G1 X286.485 Y96.246 E77.34239
G1 X287.137 Y96.303 E77.36415
G1 X287.769 Y96.472 E77.38591
G1 X288.362 Y96.749 E77.40769
G1 X288.898 Y97.124 E77.42945
G1 X289.361 Y97.587 E77.45122
G1 X289.736 Y98.123 E77.47298
G1 X290.013 Y98.716 E77.49475
G1 X290.182 Y99.348 E77.51652
G1 X290.239 Y100.000 E77.53827
G1 X290.182 Y100.652 E77.56004
G1 X290.013 Y101.284 E77.58181
G1 X289.736 Y101.877 E77.60357
G1 X289.361 Y102.413 E77.62532
G1 X288.898 Y102.876 E77.64710
G1 X288.362 Y103.251 E77.66886
G1 X287.769 Y103.528 E77.69064
G1 X287.137 Y103.697 E77.71240
G1 X286.688 Y103.736 E77.72739
G0 X285.303 Y103.969 F7200
G1 X285.063 Y103.905 E77.73564 F3600
G1 X284.407 Y103.599 E77.75971
G1 X283.814 Y103.183 E77.78382
G1 X283.302 Y102.671 E77.80789
G1 X282.886 Y102.078 E77.83200
G1 X282.580 Y101.422 E77.85609
G1 X282.393 Y100.722 E77.88018
G1 X282.329 Y100.000 E77.90430
G1 X282.392 Y99.279 E77.92837
G1 X282.580 Y98.579 E77.95247
G1 X282.886 Y97.922 E77.97657
G1 X283.302 Y97.329 E78.00067
G1 X283.814 Y96.817 E78.02475
G1 X284.407 Y96.401 E78.04885
G1 X285.063 Y96.095 E78.07292
G1 X285.764 Y95.907 E78.09703
G1 X286.485 Y95.844 E78.12112
G1 X287.207 Y95.907 E78.14521
G1 X287.906 Y96.095 E78.16929
G1 X288.563 Y96.401 E78.19341
G1 X289.156 Y96.816 E78.21749
G1 X289.668 Y97.329 E78.24159
G1 X290.084 Y97.922 E78.26568
G1 X290.390 Y98.579 E78.28978
G1 X290.578 Y99.279 E78.31388
G1 X290.641 Y100.000 E78.33795
G1 X290.578 Y100.722 E78.36205
G1 X290.390 Y101.422 E78.38615
G1 X290.084 Y102.078 E78.41024
G1 X289.669 Y102.671 E78.43431
G1 X289.156 Y103.184 E78.45842
G1 X288.563 Y103.599 E78.48251
G1 X287.906 Y103.905 E78.50662
G1 X287.207 Y104.093 E78.53070
G1 X286.485 Y104.156 E78.55479
G1 X285.764 Y104.093 E78.57888
G1 X285.496 Y104.021 E78.58809
G0 F3000 E77.58809
G0 X291.087 Y103.425 F7200
G0 F3000 E78.58809
;segType:HShell
G1 X289.957 Y104.554 E78.64121 F3600
G0 X292.057 Y101.324 F7200
G1 X287.796 Y105.584 E78.84159 F3600
G0 X288.638 Y105.308 F7200
G1 X291.797 Y102.149 E78.99019 F3600
G0 F3000 E77.99019
G0 X289.116 Y102.066 F7200
G0 X289.053 Y102.155
G0 X288.640 Y102.569
G0 X288.161 Y102.904
G0 X287.632 Y103.151
G0 X287.067 Y103.302
G0 X286.485 Y103.353
G0 X285.903 Y103.302
G0 X285.338 Y103.150
G0 X284.809 Y102.903
G0 X284.330 Y102.568
G0 X283.917 Y102.155
G0 X283.737 Y101.898
G0 X38.325 Y94.275
G0 F3000 E78.99019
G1 X36.734 Y95.865 E79.06500 F3600
G0 X37.571 Y95.594 F7200
G1 X38.905 Y94.261 E79.12773 F3600
G0 X39.470 Y94.261 F7200
G1 X38.222 Y95.508 E79.18643 F3600
G0 X38.790 Y95.507 F7200
G1 X40.036 Y94.261 E79.24506 F3600
G0 X40.602 Y94.261 F7200
G1 X39.308 Y95.554 E79.30590 F3600
G0 X39.755 Y95.673 F7200
G1 X41.167 Y94.261 E79.37235 F3600
G0 X41.733 Y94.261 F7200
G1 X40.182 Y95.812 E79.44532 F3600
G0 X40.567 Y95.992 F7200
G1 X42.299 Y94.261 E79.52676 F3600
G0 X42.864 Y94.261 F7200
G1 X40.929 Y96.196 E79.61782 F3600
G0 X41.261 Y96.429 F7200
G1 X43.430 Y94.261 E79.71984 F3600
G0 X43.996 Y94.261 F7200
G1 X41.568 Y96.689 E79.83405 F3600
G0 X41.850 Y96.972 F7200
G1 X44.561 Y94.261 E79.96157 F3600
G0 X45.127 Y94.261 F7200
G1 X42.105 Y97.282 E80.10369 F3600
G0 X42.339 Y97.615 F7200
G1 X45.693 Y94.261 E80.26147 F3600
G0 X46.259 Y94.261 F7200
G1 X42.539 Y97.980 E80.43644 F3600
G0 X42.718 Y98.366 F7200
G1 X46.824 Y94.261 E80.62956 F3600
G0 X47.390 Y94.261 F7200
G1 X42.852 Y98.799 E80.84302 F3600
G0 X42.967 Y99.250 F7200
G1 X47.956 Y94.261 E81.07768 F3600
G0 X48.521 Y94.261 F7200
G1 X43.012 Y99.770 E81.33683 F3600
G0 X43.002 Y100.345 F7200
G1 X49.087 Y94.261 E81.62304 F3600
G0 X49.653 Y94.261 F7200
G1 X42.903 Y101.010 E81.94052 F3600
G0 X42.608 Y101.871 F7200
G1 X50.218 Y94.261 E82.29849 F3600
G0 X36.096 Y94.807 F7200
G1 X33.321 Y97.581 E82.42898 F3600
G0 X32.990 Y98.478 F7200
G1 X36.989 Y94.479 E82.61707 F3600
G0 X37.706 Y94.328 F7200
G1 X32.844 Y99.190 E82.84577 F3600
G0 X32.788 Y99.811 F7200
G1 X34.380 Y98.219 E82.92065 F3600
G0 X34.109 Y99.056 F7200
G1 X32.793 Y100.372 E82.98255 F3600
G0 X32.852 Y100.879 F7200
G1 X34.023 Y99.708 E83.03765 F3600
G0 X34.022 Y100.275 F7200
G1 X32.949 Y101.348 E83.08810 F3600
G0 X33.072 Y101.790 F7200
G1 X34.069 Y100.794 E83.13497 F3600
G0 X34.188 Y101.240 F7200
G1 X33.223 Y102.205 E83.18037 F3600
G0 X39.305 Y105.739 F7200
G1 X50.784 Y94.261 E83.72030 F3600
G0 X51.350 Y94.261 F7200
G1 X39.871 Y105.739 E84.26023 F3600
G0 X40.436 Y105.739 F7200
G1 X51.915 Y94.261 E84.80016 F3600
G0 X52.481 Y94.261 F7200
G1 X41.002 Y105.739 E85.34010 F3600
G0 X41.568 Y105.739 F7200
G1 X53.047 Y94.261 E85.88003 F3600
G0 X53.612 Y94.261 F7200
G1 X42.133 Y105.739 E86.41996 F3600
G0 X42.699 Y105.739 F7200
G1 X54.178 Y94.261 E86.95989 F3600
G0 X54.744 Y94.261 F7200
G1 X43.265 Y105.739 E87.49982 F3600
G0 X43.831 Y105.739 F7200
G1 X55.309 Y94.261 E88.03976 F3600
G0 X55.875 Y94.261 F7200
G1 X44.396 Y105.739 E88.57969 F3600
G0 X44.962 Y105.739 F7200
G1 X56.441 Y94.261 E89.11962 F3600
G0 X57.007 Y94.261 F7200
G1 X45.528 Y105.739 E89.65955 F3600
G0 X46.093 Y105.739 F7200
G1 X57.572 Y94.261 E90.19949 F3600
G0 X58.138 Y94.261 F7200
G1 X46.659 Y105.739 E90.73942 F3600
G0 X47.225 Y105.739 F7200
G1 X58.704 Y94.261 E91.27935 F3600
G0 X59.269 Y94.261 F7200
G1 X47.790 Y105.739 E91.81928 F3600
G0 X48.356 Y105.739 F7200
G1 X59.835 Y94.261 E92.35921 F3600
G0 X60.401 Y94.261 F7200
G1 X48.922 Y105.739 E92.89915 F3600
G0 X49.487 Y105.739 F7200
G1 X60.966 Y94.261 E93.43908 F3600
G0 X61.532 Y94.261 F7200
G1 X50.053 Y105.739 E93.97901 F3600
G0 X50.619 Y105.739 F7200
G1 X62.098 Y94.261 E94.51894 F3600
G0 X62.663 Y94.261 F7200
G1 X51.184 Y105.739 E95.05888 F3600
G0 X51.750 Y105.739 F7200
G1 X63.229 Y94.261 E95.59881 F3600
G0 X63.795 Y94.261 F7200
G1 X52.316 Y105.739 E96.13874 F3600
G0 X52.881 Y105.739 F7200
G1 X64.360 Y94.261 E96.67867 F3600
G0 X64.926 Y94.261 F7200
G1 X53.447 Y105.739 E97.21861 F3600
G0 X54.013 Y105.739 F7200
G1 X65.492 Y94.261 E97.75854 F3600
G0 X66.058 Y94.261 F7200
G1 X54.579 Y105.739 E98.29847 F3600
G0 X55.144 Y105.739 F7200
G1 X66.623 Y94.261 E98.83840 F3600
G0 X67.189 Y94.261 F7200
G1 X55.710 Y105.739 E99.37833 F3600
G0 X56.276 Y105.739 F7200
G1 X67.755 Y94.261 E99.91827 F3600
G0 X68.320 Y94.261 F7200
G1 X56.841 Y105.739 E100.45820 F3600
G0 X57.407 Y105.739 F7200
G1 X68.886 Y94.261 E100.99813 F3600
G0 X69.452 Y94.261 F7200
G1 X57.973 Y105.739 E101.53806 F3600
G0 X58.538 Y105.739 F7200
G1 X70.017 Y94.261 E102.07800 F3600
G0 X70.583 Y94.261 F7200
G1 X59.104 Y105.739 E102.61793 F3600
G0 X59.670 Y105.739 F7200
G1 X71.149 Y94.261 E103.15786 F3600
G0 X71.714 Y94.261 F7200
G1 X60.235 Y105.739 E103.69779 F3600
G0 X60.801 Y105.739 F7200
G1 X72.280 Y94.261 E104.23772 F3600
G0 X72.846 Y94.261 F7200
G1 X61.367 Y105.739 E104.77766 F3600
G0 X61.932 Y105.739 F7200
G1 X73.411 Y94.261 E105.31759 F3600
G0 X73.977 Y94.261 F7200
G1 X62.498 Y105.739 E105.85752 F3600
G0 X63.064 Y105.739 F7200
G1 X74.543 Y94.261 E106.39745 F3600
G0 X75.108 Y94.261 F7200
G1 X63.630 Y105.739 E106.93739 F3600
G0 X64.195 Y105.739 F7200
G1 X75.674 Y94.261 E107.47732 F3600
G0 X76.240 Y94.261 F7200
G1 X64.761 Y105.739 E108.01725 F3600
G0 X65.327 Y105.739 F7200
G1 X76.806 Y94.261 E108.55718 F3600
G0 X77.371 Y94.261 F7200
G1 X65.892 Y105.739 E109.09711 F3600
G0 X66.458 Y105.739 F7200
G1 X77.937 Y94.261 E109.63705 F3600
G0 X78.503 Y94.261 F7200
G1 X67.024 Y105.739 E110.17698 F3600
G0 X67.589 Y105.739 F7200
G1 X79.068 Y94.261 E110.71691 F3600
G0 X79.634 Y94.261 F7200
G1 X68.155 Y105.739 E111.25684 F3600
G0 X68.721 Y105.739 F7200
G1 X80.200 Y94.261 E111.79678 F3600
G0 X80.765 Y94.261 F7200
G1 X69.286 Y105.739 E112.33671 F3600
G0 X69.852 Y105.739 F7200
G1 X81.331 Y94.261 E112.87664 F3600
G0 X81.897 Y94.261 F7200
G1 X70.418 Y105.739 E113.41657 F3600
G0 X70.983 Y105.739 F7200
G1 X82.462 Y94.261 E113.95650 F3600
G0 X83.028 Y94.261 F7200
G1 X71.549 Y105.739 E114.49644 F3600
G0 X72.115 Y105.739 F7200
G1 X83.594 Y94.261 E115.03637 F3600
G0 X84.159 Y94.261 F7200
G1 X72.680 Y105.739 E115.57630 F3600
G0 X73.246 Y105.739 F7200
G1 X84.725 Y94.261 E116.11623 F3600
G0 X85.291 Y94.261 F7200
G1 X73.812 Y105.739 E116.65617 F3600
G0 X74.378 Y105.739 F7200
G1 X85.856 Y94.261 E117.19610 F3600
G0 X86.422 Y94.261 F7200
G1 X74.943 Y105.739 E117.73603 F3600
G0 X75.509 Y105.739 F7200
G1 X86.988 Y94.261 E118.27596 F3600
G0 X87.554 Y94.261 F7200
G1 X76.075 Y105.739 E118.81590 F3600
G0 X76.640 Y105.739 F7200
G1 X88.119 Y94.261 E119.35583 F3600
G0 X88.685 Y94.261 F7200
G1 X77.206 Y105.739 E119.89576 F3600
G0 X77.772 Y105.739 F7200
G1 X89.251 Y94.261 E120.43569 F3600
G0 X89.816 Y94.261 F7200
G1 X78.337 Y105.739 E120.97562 F3600
G0 X78.903 Y105.739 F7200
G1 X90.382 Y94.261 E121.51556 F3600
G0 X90.948 Y94.261 F7200
G1 X79.469 Y105.739 E122.05549 F3600
G0 X80.034 Y105.739 F7200
G1 X91.513 Y94.261 E122.59542 F3600
G0 X92.079 Y94.261 F7200
G1 X80.600 Y105.739 E123.13535 F3600
G0 X81.166 Y105.739 F7200
G1 X92.645 Y94.261 E123.67529 F3600
G0 X93.210 Y94.261 F7200
G1 X81.731 Y105.739 E124.21522 F3600
G0 X82.297 Y105.740 F7200
G1 X93.776 Y94.261 E124.75515 F3600
G0 X94.342 Y94.261 F7200
G1 X82.863 Y105.740 E125.29508 F3600
G0 X83.428 Y105.740 F7200
G1 X94.907 Y94.261 E125.83501 F3600
G0 X95.473 Y94.261 F7200
G1 X83.994 Y105.740 E126.37495 F3600
G0 X84.560 Y105.740 F7200
G1 X96.039 Y94.261 E126.91488 F3600
G0 X96.604 Y94.261 F7200
G1 X85.126 Y105.740 E127.45481 F3600
G0 X85.691 Y105.740 F7200
G1 X97.170 Y94.261 E127.99474 F3600
G0 X97.736 Y94.261 F7200
G1 X86.257 Y105.740 E128.53468 F3600
G0 X86.823 Y105.740 F7200
G1 X98.302 Y94.261 E129.07462 F3600
G0 X98.867 Y94.261 F7200
G1 X87.388 Y105.740 E129.61455 F3600
G0 X87.954 Y105.740 F7200
G1 X99.433 Y94.261 E130.15448 F3600
G0 X99.999 Y94.261 F7200
G1 X88.520 Y105.740 E130.69441 F3600
G0 X89.085 Y105.740 F7200
G1 X100.564 Y94.261 E131.23434 F3600
G0 X101.130 Y94.261 F7200
G1 X89.651 Y105.740 E131.77428 F3600
G0 X90.217 Y105.740 F7200
G1 X101.696 Y94.261 E132.31421 F3600
G0 X102.261 Y94.261 F7200
G1 X90.782 Y105.740 E132.85414 F3600
G0 X91.348 Y105.740 F7200
G1 X102.827 Y94.261 E133.39407 F3600
G0 X103.393 Y94.261 F7200
G1 X91.914 Y105.740 E133.93401 F3600
G0 X92.479 Y105.740 F7200
G1 X103.958 Y94.261 E134.47394 F3600
G0 X104.524 Y94.261 F7200
G1 X93.045 Y105.740 E135.01387 F3600
G0 X93.611 Y105.740 F7200
G1 X105.090 Y94.261 E135.55380 F3600
G0 X105.655 Y94.261 F7200
G1 X94.176 Y105.740 E136.09373 F3600
G0 X94.742 Y105.740 F7200
G1 X106.221 Y94.261 E136.63367 F3600
G0 X106.787 Y94.261 F7200
G1 X95.308 Y105.740 E137.17360 F3600
G0 X95.874 Y105.740 F7200
G1 X107.352 Y94.261 E137.71353 F3600
G0 X107.918 Y94.261 F7200
G1 X96.439 Y105.740 E138.25346 F3600
G0 X97.005 Y105.740 F7200
G1 X108.484 Y94.261 E138.79340 F3600
G0 X109.050 Y94.261 F7200
G1 X97.571 Y105.740 E139.33333 F3600
G0 X98.136 Y105.740 F7200
G1 X109.615 Y94.261 E139.87326 F3600
G0 X110.181 Y94.261 F7200
G1 X98.702 Y105.740 E140.41319 F3600
G0 X99.268 Y105.740 F7200
G1 X110.747 Y94.261 E140.95312 F3600
G0 X111.312 Y94.261 F7200
G1 X99.833 Y105.740 E141.49306 F3600
G0 X100.399 Y105.740 F7200
G1 X111.878 Y94.261 E142.03299 F3600
G0 X112.444 Y94.261 F7200
G1 X100.965 Y105.740 E142.57292 F3600
G0 X101.530 Y105.740 F7200
G1 X113.009 Y94.261 E143.11285 F3600
G0 X113.575 Y94.261 F7200
G1 X102.096 Y105.740 E143.65279 F3600
G0 X102.662 Y105.740 F7200
G1 X114.141 Y94.261 E144.19272 F3600
G0 X114.706 Y94.261 F7200
G1 X103.227 Y105.740 E144.73265 F3600
G0 X103.793 Y105.740 F7200
G1 X115.272 Y94.261 E145.27258 F3600
G0 X115.838 Y94.261 F7200
G1 X104.359 Y105.740 E145.81252 F3600
G0 X104.924 Y105.740 F7200
G1 X116.403 Y94.261 E146.35245 F3600
G0 X116.969 Y94.261 F7200
G1 X105.490 Y105.740 E146.89238 F3600
G0 X106.056 Y105.740 F7200
G1 X117.535 Y94.261 E147.43231 F3600
G0 X118.100 Y94.261 F7200
G1 X106.622 Y105.740 E147.97224 F3600
G0 X107.187 Y105.740 F7200
G1 X118.666 Y94.261 E148.51218 F3600
G0 X119.232 Y94.261 F7200
G1 X107.753 Y105.740 E149.05211 F3600
G0 X108.319 Y105.740 F7200
G1 X119.798 Y94.261 E149.59204 F3600
G0 X120.363 Y94.261 F7200
G1 X108.884 Y105.740 E150.13197 F3600
G0 X109.450 Y105.740 F7200
G1 X120.929 Y94.261 E150.67191 F3600
G0 X121.495 Y94.261 F7200
G1 X110.016 Y105.740 E151.21184 F3600
G0 X110.581 Y105.740 F7200
G1 X122.060 Y94.261 E151.75177 F3600
G0 X122.626 Y94.261 F7200
G1 X111.147 Y105.740 E152.29170 F3600
G0 X111.713 Y105.740 F7200
G1 X123.192 Y94.261 E152.83163 F3600
G0 X123.757 Y94.261 F7200
G1 X112.278 Y105.740 E153.37157 F3600
G0 X112.844 Y105.740 F7200
G1 X124.323 Y94.261 E153.91150 F3600
G0 X124.889 Y94.261 F7200
G1 X113.410 Y105.740 E154.45143 F3600
G0 X113.975 Y105.740 F7200
G1 X125.454 Y94.261 E154.99136 F3600
G0 X126.020 Y94.261 F7200
G1 X114.541 Y105.740 E155.53130 F3600
G0 X115.107 Y105.740 F7200
G1 X126.586 Y94.261 E156.07123 F3600
G0 X127.151 Y94.261 F7200
G1 X115.672 Y105.740 E156.61116 F3600
G0 X116.238 Y105.740 F7200
G1 X127.717 Y94.261 E157.15109 F3600
G0 X128.283 Y94.261 F7200
G1 X116.804 Y105.740 E157.69102 F3600
G0 X117.370 Y105.740 F7200
G1 X128.849 Y94.261 E158.23096 F3600
G0 X129.414 Y94.261 F7200
G1 X117.935 Y105.740 E158.77089 F3600
G0 X118.501 Y105.740 F7200
G1 X129.980 Y94.261 E159.31082 F3600
G0 X130.546 Y94.261 F7200
G1 X119.067 Y105.740 E159.85075 F3600
G0 X119.632 Y105.740 F7200
G1 X131.111 Y94.261 E160.39069 F3600
G0 X131.677 Y94.261 F7200
G1 X120.198 Y105.740 E160.93062 F3600
G0 X120.764 Y105.740 F7200
G1 X132.243 Y94.261 E161.47055 F3600
G0 X132.808 Y94.261 F7200
G1 X121.329 Y105.740 E162.01048 F3600
G0 X121.895 Y105.740 F7200
G1 X133.374 Y94.261 E162.55042 F3600
G0 X133.940 Y94.261 F7200
G1 X122.461 Y105.740 E163.09035 F3600
G0 X123.026 Y105.740 F7200
G1 X134.505 Y94.261 E163.63028 F3600
G0 X135.071 Y94.261 F7200
G1 X123.592 Y105.740 E164.17021 F3600
G0 X124.158 Y105.740 F7200
G1 X135.637 Y94.261 E164.71014 F3600
G0 X136.202 Y94.261 F7200
G1 X124.723 Y105.740 E165.25008 F3600
G0 X125.289 Y105.740 F7200
G1 X136.768 Y94.261 E165.79001 F3600
G0 X137.334 Y94.261 F7200
G1 X125.855 Y105.740 E166.32994 F3600
G0 X126.421 Y105.740 F7200
G1 X137.900 Y94.261 E166.86987 F3600
G0 X138.465 Y94.261 F7200
G1 X126.986 Y105.740 E167.40981 F3600
G0 X127.552 Y105.740 F7200
G1 X139.031 Y94.261 E167.94974 F3600
G0 X139.597 Y94.261 F7200
G1 X128.118 Y105.740 E168.48966 F3600
G0 X128.683 Y105.740 F7200
G1 X140.162 Y94.261 E169.02960 F3600
G0 X140.728 Y94.261 F7200
G1 X129.249 Y105.740 E169.56954 F3600
G0 X129.815 Y105.740 F7200
G1 X141.294 Y94.261 E170.10946 F3600
G0 X141.859 Y94.261 F7200
G1 X130.380 Y105.740 E170.64940 F3600
G0 X130.946 Y105.740 F7200
G1 X142.425 Y94.261 E171.18934 F3600
G0 X142.991 Y94.261 F7200
G1 X131.512 Y105.740 E171.72926 F3600
G0 X132.077 Y105.740 F7200
G1 X143.556 Y94.261 E172.26920 F3600
G0 X144.122 Y94.261 F7200
G1 X132.643 Y105.740 E172.80912 F3600
G0 X133.209 Y105.740 F7200
G1 X144.688 Y94.261 E173.34906 F3600
G0 X145.253 Y94.261 F7200
G1 X133.774 Y105.740 E173.88900 F3600
G0 X134.340 Y105.740 F7200
G1 X145.819 Y94.261 E174.42892 F3600
G0 X146.385 Y94.261 F7200
G1 X134.906 Y105.740 E174.96886 F3600
G0 X135.472 Y105.740 F7200
G1 X146.951 Y94.261 E175.50878 F3600
G0 X147.516 Y94.261 F7200
G1 X136.037 Y105.740 E176.04872 F3600
G0 X136.603 Y105.740 F7200
G1 X148.082 Y94.261 E176.58866 F3600
G0 X148.648 Y94.261 F7200
G1 X137.169 Y105.740 E177.12858 F3600
G0 X137.734 Y105.740 F7200
G1 X149.213 Y94.261 E177.66852 F3600
G0 X149.779 Y94.261 F7200
G1 X138.300 Y105.740 E178.20846 F3600
G0 X138.866 Y105.740 F7200
G1 X150.345 Y94.261 E178.74838 F3600
G0 X150.910 Y94.261 F7200
G1 X139.431 Y105.740 E179.28832 F3600
G0 X139.997 Y105.740 F7200
G1 X151.476 Y94.261 E179.82824 F3600
G0 X152.042 Y94.261 F7200
G1 X140.563 Y105.740 E180.36818 F3600
G0 X141.128 Y105.740 F7200
G1 X152.607 Y94.261 E180.90812 F3600
G0 X153.173 Y94.261 F7200
G1 X141.694 Y105.740 E181.44804 F3600
G0 X142.260 Y105.740 F7200
G1 X153.739 Y94.261 E181.98798 F3600
G0 X154.304 Y94.261 F7200
G1 X142.825 Y105.740 E182.52790 F3600
G0 X143.391 Y105.740 F7200
G1 X154.870 Y94.261 E183.06784 F3600
G0 X155.436 Y94.261 F7200
G1 X143.957 Y105.740 E183.60778 F3600
G0 X144.522 Y105.740 F7200
G1 X156.002 Y94.261 E184.14770 F3600
G0 X156.567 Y94.261 F7200
G1 X145.088 Y105.740 E184.68764 F3600
G0 X145.654 Y105.740 F7200
G1 X157.133 Y94.261 E185.22756 F3600
G0 X157.699 Y94.260 F7200
G1 X146.220 Y105.740 E185.76750 F3600
G0 X146.785 Y105.740 F7200
G1 X158.264 Y94.260 E186.30744 F3600
G0 X158.830 Y94.260 F7200
G1 X147.351 Y105.740 E186.84736 F3600
G0 X147.917 Y105.740 F7200
G1 X159.396 Y94.260 E187.38730 F3600
G0 X159.961 Y94.260 F7200
G1 X148.482 Y105.740 E187.92724 F3600
G0 X149.048 Y105.740 F7200
G1 X160.527 Y94.260 E188.46716 F3600
G0 X161.093 Y94.260 F7200
G1 X149.614 Y105.740 E189.00710 F3600
G0 X150.179 Y105.740 F7200
G1 X161.658 Y94.260 E189.54702 F3600
G0 X162.224 Y94.260 F7200
G1 X150.745 Y105.740 E190.08696 F3600
G0 X151.311 Y105.740 F7200
G1 X162.790 Y94.260 E190.62690 F3600
G0 X163.355 Y94.260 F7200
G1 X151.876 Y105.740 E191.16682 F3600
G0 X152.442 Y105.740 F7200
G1 X163.921 Y94.260 E191.70676 F3600
G0 X164.487 Y94.260 F7200
G1 X153.008 Y105.740 E192.24668 F3600
G0 X153.573 Y105.740 F7200
G1 X165.053 Y94.260 E192.78662 F3600
G0 X165.618 Y94.260 F7200
G1 X154.139 Y105.740 E193.32656 F3600
G0 X154.705 Y105.739 F7200
G1 X166.184 Y94.260 E193.86648 F3600
G0 X166.750 Y94.260 F7200
G1 X155.271 Y105.740 E194.40642 F3600
G0 X155.836 Y105.740 F7200
G1 X167.315 Y94.260 E194.94636 F3600
G0 X167.881 Y94.260 F7200
G1 X156.402 Y105.739 E195.48628 F3600
G0 X156.968 Y105.739 F7200
G1 X168.447 Y94.260 E196.02622 F3600
G0 X169.012 Y94.260 F7200
G1 X157.533 Y105.739 E196.56614 F3600
G0 X158.099 Y105.739 F7200
G1 X169.578 Y94.260 E197.10608 F3600
G0 X170.144 Y94.260 F7200
G1 X158.665 Y105.739 E197.64602 F3600
G0 X159.230 Y105.739 F7200
G1 X170.709 Y94.260 E198.18594 F3600
G0 X171.275 Y94.260 F7200
G1 X159.796 Y105.739 E198.72588 F3600
G0 X160.362 Y105.739 F7200
G1 X171.841 Y94.260 E199.26580 F3600
G0 X172.406 Y94.260 F7200
G1 X160.927 Y105.739 E199.80574 F3600
G0 X161.493 Y105.739 F7200
G1 X172.972 Y94.260 E200.34568 F3600
G0 X173.538 Y94.260 F7200
G1 X162.059 Y105.739 E200.88560 F3600
G0 X162.624 Y105.739 F7200
G1 X174.104 Y94.260 E201.42554 F3600
G0 X174.669 Y94.260 F7200
G1 X163.190 Y105.739 E201.96546 F3600
G0 X163.756 Y105.739 F7200
G1 X175.235 Y94.260 E202.50540 F3600
G0 X175.801 Y94.260 F7200
G1 X164.322 Y105.739 E203.04534 F3600
G0 X164.887 Y105.739 F7200
G1 X176.366 Y94.260 E203.58526 F3600
G0 X176.932 Y94.260 F7200
G1 X165.453 Y105.739 E204.12520 F3600
G0 X166.019 Y105.739 F7200
G1 X177.498 Y94.260 E204.66514 F3600
G0 X178.063 Y94.260 F7200
G1 X166.584 Y105.739 E205.20506 F3600
G0 X167.150 Y105.739 F7200
G1 X178.629 Y94.260 E205.74500 F3600
G0 X179.195 Y94.260 F7200
G1 X167.716 Y105.739 E206.28492 F3600
G0 X168.281 Y105.739 F7200
G1 X179.760 Y94.260 E206.82486 F3600
G0 X180.326 Y94.260 F7200
G1 X168.847 Y105.739 E207.36480 F3600
G0 X169.413 Y105.739 F7200
G1 X180.892 Y94.260 E207.90472 F3600
G0 X181.457 Y94.260 F7200
G1 X169.978 Y105.739 E208.44466 F3600
G0 X170.544 Y105.739 F7200
G1 X182.023 Y94.260 E208.98458 F3600
G0 X182.589 Y94.260 F7200
G1 X171.110 Y105.739 E209.52452 F3600
G0 X171.675 Y105.739 F7200
G1 X183.155 Y94.260 E210.06446 F3600
G0 X183.720 Y94.260 F7200
G1 X172.241 Y105.739 E210.60438 F3600
G0 X172.807 Y105.739 F7200
G1 X184.286 Y94.260 E211.14432 F3600
G0 X184.852 Y94.260 F7200
G1 X173.373 Y105.739 E211.68424 F3600
G0 X173.938 Y105.739 F7200
G1 X185.417 Y94.260 E212.22418 F3600
G0 X185.983 Y94.260 F7200
G1 X174.504 Y105.739 E212.76412 F3600
G0 X175.070 Y105.739 F7200
G1 X186.549 Y94.260 E213.30404 F3600
G0 X187.114 Y94.260 F7200
G1 X175.635 Y105.739 E213.84398 F3600
G0 X176.201 Y105.739 F7200
G1 X187.680 Y94.260 E214.38392 F3600
G0 X188.246 Y94.260 F7200
G1 X176.767 Y105.739 E214.92384 F3600
G0 X177.332 Y105.739 F7200
G1 X188.811 Y94.260 E215.46378 F3600
G0 X189.377 Y94.260 F7200
G1 X177.898 Y105.739 E216.00370 F3600
G0 X178.464 Y105.739 F7200
G1 X189.943 Y94.260 E216.54364 F3600
G0 X190.508 Y94.260 F7200
G1 X179.029 Y105.739 E217.08358 F3600
G0 X179.595 Y105.739 F7200
G1 X191.074 Y94.260 E217.62350 F3600
G0 X191.640 Y94.260 F7200
G1 X180.161 Y105.739 E218.16344 F3600
G0 X180.726 Y105.739 F7200
G1 X192.205 Y94.260 E218.70336 F3600
G0 X192.771 Y94.260 F7200
G1 X181.292 Y105.739 E219.24330 F3600
G0 X181.858 Y105.739 F7200
G1 X193.337 Y94.260 E219.78324 F3600
G0 X193.903 Y94.260 F7200
G1 X182.424 Y105.739 E220.32316 F3600
G0 X182.989 Y105.739 F7200
G1 X194.468 Y94.260 E220.86310 F3600
G0 X195.034 Y94.260 F7200
G1 X183.555 Y105.739 E221.40304 F3600
G0 X184.121 Y105.739 F7200
G1 X195.600 Y94.260 E221.94296 F3600
G0 X196.165 Y94.260 F7200
G1 X184.686 Y105.739 E222.48290 F3600
G0 X185.252 Y105.739 F7200
G1 X196.731 Y94.260 E223.02282 F3600
G0 X197.297 Y94.260 F7200
G1 X185.818 Y105.739 E223.56276 F3600
G0 X186.383 Y105.739 F7200
G1 X197.862 Y94.260 E224.10270 F3600
G0 X198.428 Y94.260 F7200
G1 X186.949 Y105.739 E224.64262 F3600
G0 X187.515 Y105.739 F7200
G1 X198.994 Y94.260 E225.18256 F3600
G0 X199.559 Y94.260 F7200
G1 X188.080 Y105.739 E225.72248 F3600
G0 X188.646 Y105.739 F7200
G1 X200.125 Y94.260 E226.26242 F3600
G0 X200.691 Y94.260 F7200
G1 X189.212 Y105.739 E226.80236 F3600
G0 X189.777 Y105.739 F7200
G1 X201.256 Y94.260 E227.34228 F3600
G0 X201.822 Y94.260 F7200
G1 X190.343 Y105.739 E227.88222 F3600
G0 X190.909 Y105.739 F7200
G1 X202.388 Y94.260 E228.42214 F3600
G0 X202.954 Y94.260 F7200
G1 X191.475 Y105.739 E228.96208 F3600
G0 X192.040 Y105.739 F7200
G1 X203.519 Y94.260 E229.50202 F3600
G0 X204.085 Y94.260 F7200
G1 X192.606 Y105.739 E230.04194 F3600
G0 X193.172 Y105.739 F7200
G1 X204.651 Y94.260 E230.58188 F3600
G0 X205.216 Y94.260 F7200
G1 X193.737 Y105.739 E231.12182 F3600
G0 X194.303 Y105.739 F7200
G1 X205.782 Y94.260 E231.66174 F3600
G0 X206.348 Y94.260 F7200
G1 X194.869 Y105.739 E232.20168 F3600
G0 X195.434 Y105.739 F7200
G1 X206.913 Y94.260 E232.74160 F3600
G0 X207.479 Y94.260 F7200
G1 X196.000 Y105.739 E233.28154 F3600
G0 X196.566 Y105.739 F7200
G1 X208.045 Y94.260 E233.82148 F3600
G0 X208.610 Y94.260 F7200
G1 X197.131 Y105.739 E234.36140 F3600
G0 X197.697 Y105.739 F7200
G1 X209.176 Y94.260 E234.90134 F3600
G0 X209.742 Y94.260 F7200
G1 X198.263 Y105.739 E235.44126 F3600
G0 X198.828 Y105.739 F7200
G1 X210.307 Y94.260 E235.98120 F3600
G0 X210.873 Y94.260 F7200
G1 X199.394 Y105.739 E236.52114 F3600
G0 X199.960 Y105.739 F7200
G1 X211.439 Y94.260 E237.06106 F3600
G0 X212.004 Y94.260 F7200
G1 X200.526 Y105.739 E237.60100 F3600
G0 X201.091 Y105.739 F7200
G1 X212.570 Y94.260 E238.14094 F3600
G0 X213.136 Y94.260 F7200
G1 X201.657 Y105.739 E238.68086 F3600
G0 X202.223 Y105.739 F7200
G1 X213.702 Y94.260 E239.22080 F3600
G0 X214.267 Y94.260 F7200
G1 X202.788 Y105.739 E239.76072 F3600
G0 X203.354 Y105.739 F7200
G1 X214.833 Y94.260 E240.30066 F3600
G0 X215.399 Y94.260 F7200
G1 X203.920 Y105.739 E240.84060 F3600
G0 X204.485 Y105.739 F7200
G1 X215.964 Y94.260 E241.38052 F3600
G0 X216.530 Y94.260 F7200
G1 X205.051 Y105.739 E241.92046 F3600
G0 X205.617 Y105.739 F7200
G1 X217.096 Y94.260 E242.46038 F3600
G0 X217.661 Y94.260 F7200
G1 X206.182 Y105.739 E243.00032 F3600
G0 X206.748 Y105.739 F7200
G1 X218.227 Y94.260 E243.54026 F3600
G0 X218.793 Y94.260 F7200
G1 X207.314 Y105.739 E244.08018 F3600
G0 X207.879 Y105.739 F7200
G1 X219.358 Y94.260 E244.62012 F3600
G0 X219.924 Y94.260 F7200
G1 X208.445 Y105.739 E245.16004 F3600
G0 X209.011 Y105.739 F7200
G1 X220.490 Y94.260 E245.69998 F3600
G0 X221.055 Y94.260 F7200
G1 X209.577 Y105.739 E246.23992 F3600
G0 X210.142 Y105.739 F7200
G1 X221.621 Y94.260 E246.77984 F3600
G0 X222.187 Y94.260 F7200
G1 X210.708 Y105.739 E247.31978 F3600
G0 X211.274 Y105.739 F7200
G1 X222.752 Y94.260 E247.85972 F3600
G0 X223.318 Y94.260 F7200
G1 X211.839 Y105.739 E248.39964 F3600
G0 X212.405 Y105.739 F7200
G1 X223.884 Y94.260 E248.93958 F3600
G0 X224.449 Y94.260 F7200
G1 X212.971 Y105.739 E249.47950 F3600
G0 X213.536 Y105.739 F7200
G1 X225.015 Y94.260 E250.01944 F3600
G0 X225.581 Y94.261 F7200
G1 X214.102 Y105.739 E250.55938 F3600
G0 X214.668 Y105.739 F7200
G1 X226.147 Y94.261 E251.09930 F3600
G0 X226.712 Y94.261 F7200
G1 X215.233 Y105.739 E251.63924 F3600
G0 X215.799 Y105.739 F7200
G1 X227.278 Y94.261 E252.17916 F3600
G0 X227.844 Y94.261 F7200
G1 X216.365 Y105.739 E252.71910 F3600
G0 X216.930 Y105.739 F7200
G1 X228.409 Y94.261 E253.25904 F3600
G0 X228.975 Y94.261 F7200
G1 X217.496 Y105.739 E253.79896 F3600
G0 X218.062 Y105.739 F7200
G1 X229.541 Y94.261 E254.33890 F3600
G0 X230.106 Y94.261 F7200
G1 X218.627 Y105.739 E254.87882 F3600
G0 X219.193 Y105.739 F7200
G1 X230.672 Y94.261 E255.41876 F3600
G0 X231.238 Y94.261 F7200
G1 X219.759 Y105.739 E255.95870 F3600
G0 X220.325 Y105.739 F7200
G1 X231.803 Y94.261 E256.49862 F3600
G0 X232.369 Y94.261 F7200
G1 X220.890 Y105.739 E257.03854 F3600
G0 X221.456 Y105.739 F7200
G1 X232.935 Y94.261 E257.57846 F3600
G0 X233.500 Y94.261 F7200
G1 X222.022 Y105.739 E258.11838 F3600
G0 X222.587 Y105.739 F7200
G1 X234.066 Y94.261 E258.65830 F3600
G0 X234.632 Y94.261 F7200
G1 X223.153 Y105.739 E259.19822 F3600
G0 X223.719 Y105.739 F7200
G1 X235.197 Y94.261 E259.73812 F3600
G0 X235.763 Y94.261 F7200
G1 X224.284 Y105.739 E260.27804 F3600
G0 X224.850 Y105.739 F7200
G1 X236.329 Y94.261 E260.81796 F3600
G0 X236.894 Y94.261 F7200
G1 X225.416 Y105.739 E261.35788 F3600
G0 X225.981 Y105.739 F7200
G1 X237.460 Y94.261 E261.89780 F3600
G0 X238.026 Y94.261 F7200
G1 X226.547 Y105.739 E262.43772 F3600
G0 X227.113 Y105.739 F7200
G1 X238.592 Y94.261 E262.97764 F3600
G0 X239.157 Y94.261 F7200
G1 X227.678 Y105.739 E263.51754 F3600
G0 X228.244 Y105.739 F7200
G1 X239.723 Y94.261 E264.05746 F3600
G0 X240.289 Y94.261 F7200
G1 X228.810 Y105.739 E264.59738 F3600
G0 X229.375 Y105.739 F7200
G1 X240.854 Y94.261 E265.13730 F3600
G0 X241.420 Y94.261 F7200
G1 X229.941 Y105.739 E265.67722 F3600
G0 X230.507 Y105.739 F7200
G1 X241.986 Y94.261 E266.21714 F3600
G0 X242.551 Y94.261 F7200
G1 X231.072 Y105.739 E266.75704 F3600
G0 X231.638 Y105.739 F7200
G1 X243.117 Y94.261 E267.29696 F3600
G0 X243.683 Y94.261 F7200
G1 X232.204 Y105.739 E267.83688 F3600
G0 X232.770 Y105.739 F7200
G1 X244.248 Y94.261 E268.37680 F3600
G0 X244.814 Y94.261 F7200
G1 X233.335 Y105.739 E268.91672 F3600
G0 X233.901 Y105.739 F7200
G1 X245.380 Y94.261 E269.45664 F3600
G0 X245.945 Y94.261 F7200
G1 X234.467 Y105.739 E269.99656 F3600
G0 X235.032 Y105.739 F7200
G1 X246.511 Y94.261 E270.53646 F3600
G0 X247.077 Y94.261 F7200
G1 X235.598 Y105.739 E271.07638 F3600
G0 X236.164 Y105.739 F7200
G1 X247.642 Y94.261 E271.61630 F3600
G0 X248.208 Y94.261 F7200
G1 X236.729 Y105.739 E272.15622 F3600
G0 X237.295 Y105.739 F7200
G1 X248.774 Y94.261 E272.69614 F3600
G0 X249.339 Y94.261 F7200
G1 X237.861 Y105.739 E273.23606 F3600
G0 X238.426 Y105.739 F7200
G1 X249.905 Y94.261 E273.77598 F3600
G0 X250.471 Y94.261 F7200
G1 X238.992 Y105.739 E274.31588 F3600
G0 X239.558 Y105.739 F7200
G1 X251.037 Y94.261 E274.85580 F3600
G0 X251.602 Y94.261 F7200
G1 X240.123 Y105.739 E275.39572 F3600
G0 X240.689 Y105.739 F7200
G1 X252.168 Y94.261 E275.93564 F3600
G0 X252.734 Y94.261 F7200
G1 X241.255 Y105.740 E276.47556 F3600
G0 X241.820 Y105.740 F7200
G1 X253.299 Y94.261 E277.01548 F3600
G0 X253.865 Y94.261 F7200
G1 X242.386 Y105.740 E277.55538 F3600
G0 X242.952 Y105.740 F7200
G1 X254.431 Y94.261 E278.09530 F3600
G0 X254.996 Y94.261 F7200
G1 X243.517 Y105.740 E278.63522 F3600
G0 X244.083 Y105.740 F7200
G1 X255.562 Y94.261 E279.17514 F3600
G0 X256.128 Y94.261 F7200
G1 X244.649 Y105.740 E279.71506 F3600
G0 X245.215 Y105.740 F7200
G1 X256.693 Y94.261 E280.25498 F3600
G0 X257.259 Y94.261 F7200
G1 X245.780 Y105.740 E280.79490 F3600
G0 X246.346 Y105.740 F7200
G1 X257.825 Y94.261 E281.33480 F3600
G0 X258.390 Y94.261 F7200
G1 X246.912 Y105.740 E281.87472 F3600
G0 X247.477 Y105.740 F7200
G1 X258.956 Y94.261 E282.41464 F3600
G0 X259.522 Y94.261 F7200
G1 X248.043 Y105.740 E282.95456 F3600
G0 X248.609 Y105.740 F7200
G1 X260.087 Y94.261 E283.49448 F3600
G0 X260.653 Y94.261 F7200
G1 X249.174 Y105.740 E284.03440 F3600
G0 X249.740 Y105.740 F7200
G1 X261.219 Y94.261 E284.57432 F3600
G0 X261.784 Y94.261 F7200
G1 X250.306 Y105.740 E285.11422 F3600
G0 X250.871 Y105.740 F7200
G1 X262.350 Y94.261 E285.65414 F3600
G0 X262.916 Y94.261 F7200
G1 X251.437 Y105.740 E286.19406 F3600
G0 X252.003 Y105.740 F7200
G1 X263.482 Y94.261 E286.73398 F3600
G0 X264.047 Y94.261 F7200
G1 X252.568 Y105.740 E287.27390 F3600
G0 X253.134 Y105.740 F7200
G1 X264.613 Y94.261 E287.81382 F3600
G0 X265.179 Y94.261 F7200
G1 X253.700 Y105.740 E288.35372 F3600
G0 X254.265 Y105.740 F7200
G1 X265.744 Y94.261 E288.89364 F3600
G0 X266.310 Y94.261 F7200
G1 X254.831 Y105.740 E289.43356 F3600
G0 X255.397 Y105.740 F7200
