; #disp params :
; Printmode:0
; Layer:10
; Xmin:27.629 mm
; Xmax:291.999 mm
; XDimension:264.37 mm
; Ymin:87.449 mm
; Ymax:111.09 mm
; YDimension:23.641 mm
; Zmax:2 mm
; E0diam:0.4 mm
; E0len:1.64268 m
; E0temp:215 C
; Bedtemp:215 C
; Time:29.6242 min
; #params end
; GCode generated by CraftWare

G28 X Y ; home horizontally
G28 Z ; home vertically


M104 S215 ;set head temp (no wait)
M190 S60 ;set bed temp (wait)
M109 S215 ;set head temp (wait)
; ------------------------------------
; Layer #0
; ------------------------------------
M106 S0 ;turn off fan
G21 ; mm
G90 ; abs
G92 E0 ;reset extr
G0 F600 Z0.200
;segType:Skirt
G0 F3000 E-1.00000
G0 X34.668 Y111.289 F5400
G0 F3000 E0.00000
G1 X34.336 Y111.090 E0.01287 F2400
G1 X29.289 Y106.043 E0.25026
G1 X29.090 Y105.711 E0.26315
G1 X28.824 Y105.445 E0.27564
G1 X28.691 Y105.047 E0.28961
G1 X28.293 Y104.383 E0.31537
G1 X27.894 Y103.188 E0.35727
G1 X27.894 Y102.922 E0.36611
G1 X27.761 Y102.789 E0.37236
G1 X27.761 Y101.992 E0.39886
G1 X27.629 Y101.859 E0.40511
G1 X27.629 Y98.672 E0.51112
G1 X27.894 Y96.813 E0.57359
G1 X28.027 Y96.680 E0.57984
G1 X28.094 Y96.215 E0.59547
G1 X28.293 Y95.883 E0.60834
G1 X28.293 Y95.617 E0.61717
G1 X29.090 Y94.289 E0.66869
G1 X29.621 Y93.758 E0.69367
G1 X29.820 Y93.426 E0.70656
G1 X33.539 Y89.707 E0.88148
G1 X33.871 Y89.508 E0.89435
G1 X34.402 Y88.977 E0.91934
G1 X35.066 Y88.578 E0.94510
G1 X35.531 Y88.246 E0.96411
G1 X35.797 Y88.246 E0.97294
G1 X36.461 Y87.847 E0.99870
G1 X37.391 Y87.715 E1.02994
G1 X37.523 Y87.582 E1.03618
G1 X38.055 Y87.582 E1.05385
G1 X38.188 Y87.449 E1.06010
G1 X174.188 Y87.449 E5.58348
G1 X286.281 Y87.449 E9.31173
G1 X286.962 Y87.546 E9.33462
G0 F3000 E8.33462
G0 X286.395 Y92.897 F5400
G0 X285.559 Y92.750
G0 X284.706 Y92.700
G0 X40.987 Y95.544
G0 F3000 E9.33462
;segType:HShell
G1 X39.739 Y94.296 E9.39333 F2400
G0 X39.246 Y94.369 F5400
G1 X40.367 Y95.490 E9.44607 F2400
G0 X39.834 Y95.523 F5400
G1 X38.784 Y94.472 E9.49546 F2400
G0 X38.349 Y94.603 F5400
G1 X39.341 Y95.595 E9.54213 F2400
G0 X38.895 Y95.715 F5400
G1 X37.952 Y94.771 E9.58651 F2400
G0 X37.571 Y94.956 F5400
G1 X38.489 Y95.874 E9.62968 F2400
G0 X38.103 Y96.054 F5400
G1 X37.212 Y95.163 E9.67157 F2400
G0 X36.502 Y94.019 F5400
;segType:Perimeter
G1 X37.068 Y93.453 E9.69818 F1439
G1 X37.792 Y93.141 E9.72442
G1 X38.605 Y92.897 E9.75265
G1 X39.441 Y92.750 E9.78088
G1 X40.294 Y92.700 E9.80930
G1 X284.706 Y92.700 E17.93847
G1 X285.559 Y92.750 E17.96689
G1 X286.395 Y92.897 E17.99512
G1 X287.208 Y93.141 E18.02334
G1 X287.988 Y93.477 E18.05160
G1 X288.722 Y93.902 E18.07981
G1 X289.404 Y94.409 E18.10806
G1 X290.021 Y94.991 E18.13627
G1 X290.566 Y95.641 E18.16450
G1 X291.033 Y96.351 E18.19276
G1 X291.414 Y97.109 E18.22097
G1 X291.704 Y97.907 E18.24922
G1 X291.900 Y98.733 E18.27745
G1 X291.999 Y99.576 E18.30567
G1 X291.999 Y100.424 E18.33390
G1 X291.900 Y101.267 E18.36213
G1 X291.704 Y102.093 E18.39036
G1 X291.414 Y102.891 E18.41861
G1 X291.033 Y103.649 E18.44681
G1 X290.566 Y104.359 E18.47508
G1 X290.021 Y105.009 E18.50331
G1 X289.403 Y105.591 E18.53153
G1 X288.722 Y106.098 E18.55977
G1 X287.988 Y106.523 E18.58798
G1 X287.208 Y106.859 E18.61624
G1 X286.395 Y107.103 E18.64446
G1 X285.559 Y107.250 E18.67269
G1 X284.706 Y107.300 E18.70112
G1 X40.294 Y107.300 E26.83028
G1 X39.441 Y107.250 E26.85870
G1 X38.605 Y107.103 E26.88693
G1 X37.792 Y106.859 E26.91516
G1 X37.013 Y106.523 E26.94340
G1 X36.278 Y106.098 E26.97163
G1 X35.597 Y105.592 E26.99986
G1 X34.979 Y105.009 E27.02809
G1 X34.434 Y104.359 E27.05632
G1 X33.967 Y103.650 E27.08456
G1 X33.586 Y102.891 E27.11279
G1 X33.296 Y102.093 E27.14102
G1 X33.100 Y101.268 E27.16925
G1 X33.002 Y100.424 E27.19749
G1 X33.002 Y99.576 E27.22572
G1 X33.100 Y98.732 E27.25395
G1 X33.296 Y97.907 E27.28218
G1 X33.586 Y97.109 E27.31042
G1 X33.967 Y96.350 E27.33865
G1 X34.434 Y95.641 E27.36689
G1 X34.979 Y94.991 E27.39511
G1 X35.597 Y94.408 E27.42335
G1 X36.278 Y93.902 E27.45158
G1 X36.961 Y93.507 E27.47781
G0 X37.068 Y93.453 F5400
G0 X37.792 Y93.141
G0 X38.569 Y92.908
G0 X38.147 Y93.452
;segType:Loop
G1 X38.698 Y93.287 E27.49692 F2400
G1 X39.488 Y93.148 E27.52360
G1 X40.306 Y93.100 E27.55086
G1 X284.694 Y93.100 E35.67925
G1 X285.512 Y93.148 E35.70651
G1 X286.302 Y93.287 E35.73319
G1 X287.071 Y93.517 E35.75986
G1 X287.808 Y93.835 E35.78655
G1 X288.502 Y94.236 E35.81323
G1 X289.146 Y94.716 E35.83993
G1 X289.729 Y95.266 E35.86659
G1 X290.245 Y95.880 E35.89326
G1 X290.686 Y96.551 E35.91998
G1 X291.046 Y97.268 E35.94665
G1 X291.320 Y98.022 E35.97334
G1 X291.505 Y98.802 E36.00002
G1 X291.599 Y99.599 E36.02669
G1 X291.599 Y100.401 E36.05337
G1 X291.505 Y101.198 E36.08005
G1 X291.320 Y101.978 E36.10672
G1 X291.046 Y102.733 E36.13343
G1 X290.686 Y103.448 E36.16007
G1 X290.245 Y104.120 E36.18680
G1 X289.729 Y104.734 E36.21348
G1 X289.146 Y105.285 E36.24015
G1 X288.502 Y105.763 E36.26682
G1 X287.808 Y106.165 E36.29351
G1 X287.071 Y106.483 E36.32020
G1 X286.302 Y106.713 E36.34688
G1 X285.512 Y106.852 E36.37356
G1 X284.694 Y106.900 E36.40083
G1 X40.306 Y106.900 E44.52921
G1 X39.488 Y106.852 E44.55647
G1 X38.698 Y106.713 E44.58315
G1 X37.929 Y106.482 E44.60984
G1 X37.192 Y106.165 E44.63652
G1 X36.498 Y105.764 E44.66320
G1 X35.854 Y105.285 E44.68988
G1 X35.271 Y104.734 E44.71657
G1 X34.755 Y104.120 E44.74324
G1 X34.314 Y103.449 E44.76993
G1 X33.954 Y102.732 E44.79661
G1 X33.680 Y101.978 E44.82329
G1 X33.495 Y101.198 E44.84997
G1 X33.402 Y100.401 E44.87666
G1 X33.402 Y99.599 E44.90334
G1 X33.495 Y98.802 E44.93003
G1 X33.680 Y98.022 E44.95670
G1 X33.954 Y97.268 E44.98339
G1 X34.314 Y96.551 E45.01007
G1 X34.755 Y95.880 E45.03676
G1 X35.271 Y95.266 E45.06343
G1 X35.854 Y94.715 E45.09012
G1 X36.498 Y94.236 E45.11680
G1 X37.192 Y93.835 E45.14348
G1 X37.929 Y93.518 E45.17017
G1 X37.956 Y93.510 E45.17110
G0 X39.285 Y93.590 F5400
G1 X39.534 Y93.546 E45.17952 F2400
G1 X40.318 Y93.500 E45.20563
G1 X284.683 Y93.500 E53.33324
G1 X285.466 Y93.546 E53.35934
G1 X286.210 Y93.677 E53.38447
G1 X286.934 Y93.894 E53.40959
G1 X287.628 Y94.193 E53.43474
G1 X288.282 Y94.571 E53.45987
G1 X288.889 Y95.023 E53.48502
G1 X289.438 Y95.541 E53.51012
G1 X289.923 Y96.119 E53.53523
G1 X290.339 Y96.752 E53.56042
G1 X290.678 Y97.427 E53.58554
G1 X290.937 Y98.137 E53.61067
G1 X291.111 Y98.872 E53.63581
G1 X291.199 Y99.622 E53.66093
G1 X291.199 Y100.378 E53.68606
G1 X291.111 Y101.128 E53.71118
G1 X290.937 Y101.863 E53.73631
G1 X290.678 Y102.574 E53.76148
G1 X290.339 Y103.248 E53.78656
G1 X289.924 Y103.880 E53.81174
G1 X289.438 Y104.459 E53.83687
G1 X288.888 Y104.978 E53.86200
G1 X288.282 Y105.429 E53.88712
G1 X287.628 Y105.807 E53.91226
G1 X286.934 Y106.106 E53.93740
G1 X286.210 Y106.323 E53.96252
G1 X285.466 Y106.454 E53.98765
G1 X284.682 Y106.500 E54.01376
G1 X40.318 Y106.500 E62.14136
G1 X39.534 Y106.454 E62.16746
G1 X38.790 Y106.323 E62.19259
G1 X38.066 Y106.106 E62.21773
G1 X37.372 Y105.807 E62.24286
G1 X36.718 Y105.429 E62.26798
G1 X36.112 Y104.978 E62.29312
G1 X35.562 Y104.459 E62.31826
G1 X35.076 Y103.880 E62.34338
G1 X34.661 Y103.249 E62.36852
G1 X34.322 Y102.574 E62.39365
G1 X34.064 Y101.864 E62.41878
G1 X33.889 Y101.128 E62.44392
G1 X33.802 Y100.378 E62.46905
G1 X33.802 Y99.622 E62.49418
G1 X33.889 Y98.872 E62.51932
G1 X34.064 Y98.136 E62.54444
G1 X34.322 Y97.426 E62.56958
G1 X34.661 Y96.751 E62.59471
G1 X35.076 Y96.120 E62.61985
G1 X35.562 Y95.541 E62.64498
G1 X36.112 Y95.022 E62.67011
G1 X36.718 Y94.571 E62.69525
G1 X37.372 Y94.193 E62.72037
G1 X38.066 Y93.894 E62.74550
G1 X38.790 Y93.677 E62.77064
G1 X39.088 Y93.625 E62.78069
G0 X40.429 Y93.900 F5400
G1 X284.671 Y93.900 E70.90421 F2400
G1 X285.419 Y93.944 E70.92914
G1 X286.118 Y94.067 E70.95272
G1 X286.796 Y94.270 E70.97628
G1 X287.448 Y94.551 E70.99988
G1 X288.062 Y94.906 E71.02347
G1 X288.631 Y95.330 E71.04708
G1 X289.146 Y95.816 E71.07062
G1 X289.602 Y96.358 E71.09419
G1 X289.992 Y96.952 E71.11782
G1 X290.310 Y97.585 E71.14139
G1 X290.553 Y98.251 E71.16497
G1 X290.716 Y98.942 E71.18857
G1 X290.799 Y99.645 E71.21213
G1 X290.799 Y100.354 E71.23571
G1 X290.716 Y101.058 E71.25928
G1 X290.553 Y101.748 E71.28286
G1 X290.310 Y102.415 E71.30648
G1 X289.992 Y103.048 E71.33001
G1 X289.602 Y103.641 E71.35364
G1 X289.146 Y104.185 E71.37723
G1 X288.631 Y104.671 E71.40080
G1 X288.062 Y105.094 E71.42438
G1 X287.448 Y105.449 E71.44795
G1 X286.796 Y105.730 E71.47156
G1 X286.118 Y105.933 E71.49513
G1 X285.419 Y106.056 E71.51870
G1 X284.671 Y106.100 E71.54365
G1 X40.329 Y106.100 E79.67047
G1 X39.581 Y106.056 E79.69541
G1 X38.882 Y105.933 E79.71900
G1 X38.203 Y105.729 E79.74258
G1 X37.552 Y105.449 E79.76616
G1 X36.938 Y105.094 E79.78974
G1 X36.369 Y104.671 E79.81332
G1 X35.854 Y104.184 E79.83691
G1 X35.398 Y103.641 E79.86049
G1 X35.008 Y103.048 E79.88408
G1 X34.690 Y102.415 E79.90766
G1 X34.447 Y101.749 E79.93124
G1 X34.284 Y101.059 E79.95482
G1 X34.202 Y100.354 E79.97841
G1 X34.202 Y99.646 E80.00199
G1 X34.284 Y98.941 E80.02558
G1 X34.447 Y98.251 E80.04916
G1 X34.690 Y97.585 E80.07274
G1 X35.008 Y96.952 E80.09632
G1 X35.398 Y96.359 E80.11991
G1 X35.854 Y95.816 E80.14348
G1 X36.369 Y95.329 E80.16706
G1 X36.938 Y94.906 E80.19065
G1 X37.552 Y94.551 E80.21423
G1 X38.203 Y94.271 E80.23781
G1 X38.882 Y94.067 E80.26139
G1 X39.581 Y93.944 E80.28498
G1 X40.229 Y93.906 E80.30659
G0 F3000 E79.30659
G0 X52.314 Y105.739 F5400
G0 F3000 E80.30659
;segType:HShell
G1 X43.932 Y97.357 E80.70088 F2400
G0 X42.549 Y98.103 F5400
G0 X42.664 Y98.015
;segType:Perimeter
G1 X42.870 Y98.579 E80.72084 F1439
G1 X43.062 Y98.991 E80.73595
G1 X43.195 Y99.487 E80.75305
G1 X43.240 Y100.000 E80.77017
G1 X43.195 Y100.513 E80.78728
G1 X43.062 Y101.009 E80.80439
G1 X42.844 Y101.476 E80.82150
G1 X42.549 Y101.897 E80.83860
G1 X42.186 Y102.261 E80.85572
G1 X41.764 Y102.556 E80.87283
G1 X41.298 Y102.773 E80.88994
G1 X40.801 Y102.906 E80.90705
G1 X40.288 Y102.951 E80.92417
G1 X39.776 Y102.906 E80.94128
G1 X39.279 Y102.773 E80.95838
G1 X38.813 Y102.556 E80.97550
G1 X38.392 Y102.261 E80.99261
G1 X38.028 Y101.897 E81.00972
G1 X37.733 Y101.476 E81.02683
G1 X37.515 Y101.009 E81.04394
G1 X37.382 Y100.512 E81.06105
G1 X37.337 Y100.000 E81.07817
G1 X37.382 Y99.488 E81.09528
G1 X37.515 Y98.991 E81.11239
G1 X37.733 Y98.524 E81.12950
G1 X38.028 Y98.103 E81.14661
G1 X38.392 Y97.739 E81.16372
G1 X38.813 Y97.444 E81.18083
G1 X39.279 Y97.227 E81.19795
G1 X39.776 Y97.094 E81.21504
G1 X40.288 Y97.049 E81.23216
G1 X40.801 Y97.094 E81.24927
G1 X41.298 Y97.227 E81.26638
G1 X41.764 Y97.444 E81.28350
G1 X42.186 Y97.739 E81.30061
G1 X42.549 Y98.103 E81.31772
G1 X42.810 Y98.475 E81.33283
G0 X42.870 Y98.579 F5400
G0 X43.062 Y98.991
G0 X43.195 Y99.487
G0 X43.240 Y100.000
G0 X43.230 Y100.116
G0 X43.599 Y99.517
;segType:Loop
G1 X43.641 Y100.000 E81.34895 F2400
G1 X43.590 Y100.582 E81.36839
G1 X43.439 Y101.147 E81.38782
G1 X43.192 Y101.676 E81.40725
G1 X42.857 Y102.155 E81.42669
G1 X42.444 Y102.568 E81.44613
G1 X41.965 Y102.904 E81.46557
G1 X41.435 Y103.151 E81.48501
G1 X40.871 Y103.302 E81.50445
G1 X40.288 Y103.353 E81.52389
G1 X39.706 Y103.302 E81.54333
G1 X39.142 Y103.150 E81.56276
G1 X38.612 Y102.904 E81.58220
G1 X38.133 Y102.568 E81.60164
G1 X37.720 Y102.155 E81.62108
G1 X37.385 Y101.677 E81.64051
G1 X37.138 Y101.147 E81.65996
G1 X36.987 Y100.582 E81.67940
G1 X36.936 Y100.000 E81.69884
G1 X36.987 Y99.418 E81.71828
G1 X37.138 Y98.853 E81.73772
G1 X37.385 Y98.324 E81.75716
G1 X37.720 Y97.845 E81.77659
G1 X38.133 Y97.432 E81.79603
G1 X38.612 Y97.097 E81.81547
G1 X39.142 Y96.850 E81.83491
G1 X39.706 Y96.698 E81.85434
G1 X40.288 Y96.647 E81.87378
G1 X40.871 Y96.698 E81.89322
G1 X41.435 Y96.850 E81.91266
G1 X41.965 Y97.097 E81.93210
G1 X42.444 Y97.432 E81.95154
G1 X42.857 Y97.845 E81.97098
G1 X43.192 Y98.324 E81.99042
G1 X43.439 Y98.853 E82.00985
G1 X43.564 Y99.321 E82.02596
G0 X43.986 Y100.648 F5400
G1 X43.986 Y100.652 E82.02610 F2400
G1 X43.816 Y101.284 E82.04785
G1 X43.540 Y101.877 E82.06961
G1 X43.164 Y102.413 E82.09138
G1 X42.702 Y102.876 E82.11315
G1 X42.166 Y103.251 E82.13491
G1 X41.572 Y103.528 E82.15668
G1 X40.940 Y103.697 E82.17845
G1 X40.288 Y103.754 E82.20021
G1 X39.637 Y103.697 E82.22197
G1 X39.005 Y103.528 E82.24373
G1 X38.412 Y103.251 E82.26550
G1 X37.875 Y102.876 E82.28726
G1 X37.413 Y102.413 E82.30903
G1 X37.037 Y101.877 E82.33079
G1 X36.761 Y101.284 E82.35256
G1 X36.591 Y100.652 E82.37433
G1 X36.534 Y100.000 E82.39609
G1 X36.591 Y99.348 E82.41786
G1 X36.761 Y98.716 E82.43962
G1 X37.037 Y98.123 E82.46140
G1 X37.413 Y97.587 E82.48316
G1 X37.875 Y97.124 E82.50492
G1 X38.412 Y96.749 E82.52669
G1 X39.005 Y96.472 E82.54846
G1 X39.637 Y96.303 E82.57022
G1 X40.288 Y96.246 E82.59198
G1 X40.940 Y96.303 E82.61375
G1 X41.572 Y96.472 E82.63552
G1 X42.166 Y96.749 E82.65728
G1 X42.702 Y97.124 E82.67905
G1 X43.164 Y97.587 E82.70082
G1 X43.540 Y98.123 E82.72258
G1 X43.816 Y98.716 E82.74435
G1 X43.986 Y99.348 E82.76611
G1 X44.043 Y100.000 E82.78788
G1 X44.004 Y100.449 E82.80287
G0 X43.992 Y101.853 F5400
G1 X43.888 Y102.078 E82.81111 F2400
G1 X43.472 Y102.671 E82.83521
G1 X42.960 Y103.183 E82.85930
G1 X42.366 Y103.599 E82.88339
G1 X41.710 Y103.905 E82.90749
G1 X41.010 Y104.093 E82.93158
G1 X40.288 Y104.156 E82.95567
G1 X39.567 Y104.093 E82.97976
G1 X38.867 Y103.905 E83.00385
G1 X38.211 Y103.599 E83.02794
G1 X37.617 Y103.183 E83.05203
G1 X37.105 Y102.671 E83.07613
G1 X36.690 Y102.078 E83.10021
G1 X36.383 Y101.421 E83.12432
G1 X36.196 Y100.722 E83.14842
G1 X36.133 Y100.000 E83.17250
G1 X36.196 Y99.278 E83.19659
G1 X36.383 Y98.579 E83.22068
G1 X36.690 Y97.922 E83.24478
G1 X37.105 Y97.329 E83.26887
G1 X37.617 Y96.817 E83.29296
G1 X38.211 Y96.401 E83.31706
G1 X38.867 Y96.095 E83.34115
G1 X39.567 Y95.907 E83.36524
G1 X40.288 Y95.844 E83.38933
G1 X41.010 Y95.907 E83.41342
G1 X41.710 Y96.095 E83.43752
G1 X42.366 Y96.401 E83.46162
G1 X42.960 Y96.817 E83.48571
G1 X43.472 Y97.329 E83.50981
G1 X43.888 Y97.922 E83.53391
G1 X44.194 Y98.579 E83.55800
G1 X44.381 Y99.278 E83.58208
G1 X44.444 Y100.000 E83.60618
G1 X44.381 Y100.722 E83.63028
G1 X44.193 Y101.421 E83.65437
G1 X44.077 Y101.672 E83.66356
G0 F3000 E82.66356
G0 X287.287 Y103.690 F5400
G0 F3000 E83.66356
;segType:HShell
G1 X288.165 Y104.568 E83.70487 F2400
G0 X288.480 Y104.318 F5400
G1 X287.619 Y103.457 E83.74538 F2400
G0 X287.902 Y103.174 F5400
G1 X288.771 Y104.043 E83.78627 F2400
G0 X289.042 Y103.748 F5400
G1 X288.182 Y102.889 E83.82671 F2400
G0 X288.415 Y102.556 F5400
G1 X289.300 Y103.441 E83.86833 F2400
G0 X289.526 Y103.101 F5400
G1 X288.643 Y102.218 E83.90987 F2400
G0 X288.823 Y101.832 F5400
G1 X289.739 Y102.749 E83.95300 F2400
G0 X289.929 Y102.372 F5400
G1 X288.987 Y101.431 E83.99728 F2400
G0 X287.485 Y101.009 F5400
G0 X287.619 Y101.065
;segType:Perimeter
G1 X287.233 Y101.525 E84.01724 F1439
G1 X286.972 Y101.897 E84.03236
G1 X286.608 Y102.261 E84.04948
G1 X286.187 Y102.556 E84.06658
G1 X285.721 Y102.773 E84.08370
G1 X285.224 Y102.906 E84.10081
G1 X284.712 Y102.951 E84.11790
G1 X284.199 Y102.906 E84.13501
G1 X283.702 Y102.773 E84.15212
G1 X283.236 Y102.556 E84.16923
G1 X282.815 Y102.261 E84.18634
G1 X282.451 Y101.897 E84.20346
G1 X282.156 Y101.476 E84.22057
G1 X281.938 Y101.010 E84.23767
G1 X281.805 Y100.512 E84.25478
G1 X281.760 Y100.000 E84.27190
G1 X281.805 Y99.488 E84.28900
G1 X281.938 Y98.991 E84.30611
G1 X282.156 Y98.524 E84.32322
G1 X282.451 Y98.103 E84.34032
G1 X282.815 Y97.739 E84.35744
G1 X283.236 Y97.444 E84.37455
G1 X283.702 Y97.227 E84.39166
G1 X284.199 Y97.094 E84.40877
G1 X284.712 Y97.049 E84.42588
G1 X285.224 Y97.094 E84.44298
G1 X285.721 Y97.227 E84.46008
G1 X286.187 Y97.444 E84.47720
G1 X286.608 Y97.739 E84.49431
G1 X286.972 Y98.103 E84.51142
G1 X287.267 Y98.524 E84.52853
G1 X287.485 Y98.991 E84.54565
G1 X287.618 Y99.488 E84.56275
G1 X287.663 Y100.000 E84.57986
G1 X287.618 Y100.512 E84.59697
G1 X287.485 Y101.009 E84.61407
G1 X287.293 Y101.421 E84.62920
G0 X287.233 Y101.525 F5400
G0 X286.972 Y101.897
G0 X286.608 Y102.261
G0 X286.187 Y102.556
G0 X286.081 Y102.605
G0 X286.784 Y102.626
;segType:Loop
G1 X286.388 Y102.903 E84.64529 F2400
G1 X285.858 Y103.151 E84.66475
G1 X285.294 Y103.302 E84.68417
G1 X284.712 Y103.353 E84.70361
G1 X284.130 Y103.302 E84.72305
G1 X283.565 Y103.150 E84.74249
G1 X283.035 Y102.904 E84.76192
G1 X282.557 Y102.568 E84.78136
G1 X282.143 Y102.155 E84.80080
G1 X281.808 Y101.676 E84.82024
G1 X281.561 Y101.147 E84.83967
G1 X281.410 Y100.582 E84.85912
G1 X281.359 Y100.000 E84.87856
G1 X281.410 Y99.418 E84.89798
G1 X281.561 Y98.853 E84.91743
G1 X281.808 Y98.324 E84.93687
G1 X282.143 Y97.845 E84.95630
G1 X282.557 Y97.432 E84.97575
G1 X283.035 Y97.097 E84.99518
G1 X283.565 Y96.850 E85.01462
G1 X284.130 Y96.698 E85.03406
G1 X284.712 Y96.647 E85.05350
G1 X285.294 Y96.698 E85.07292
G1 X285.858 Y96.849 E85.09235
G1 X286.388 Y97.097 E85.11180
G1 X286.866 Y97.432 E85.13123
G1 X287.280 Y97.845 E85.15068
G1 X287.615 Y98.323 E85.17010
G1 X287.862 Y98.854 E85.18957
G1 X288.013 Y99.418 E85.20900
G1 X288.064 Y100.000 E85.22842
G1 X288.013 Y100.582 E85.24786
G1 X287.862 Y101.147 E85.26730
G1 X287.615 Y101.676 E85.28674
G1 X287.280 Y102.155 E85.30618
G1 X286.937 Y102.498 E85.32230
G0 X285.999 Y103.526 F5400
G1 X285.995 Y103.528 E85.32243 F2400
G1 X285.363 Y103.697 E85.34418
G1 X284.712 Y103.754 E85.36593
G1 X284.060 Y103.697 E85.38770
G1 X283.428 Y103.528 E85.40946
G1 X282.835 Y103.251 E85.43122
G1 X282.298 Y102.876 E85.45299
G1 X281.836 Y102.413 E85.47476
G1 X281.460 Y101.877 E85.49652
G1 X281.184 Y101.284 E85.51830
G1 X281.014 Y100.652 E85.54006
G1 X280.957 Y100.000 E85.56184
G1 X281.014 Y99.348 E85.58358
G1 X281.184 Y98.716 E85.60535
G1 X281.460 Y98.123 E85.62712
G1 X281.836 Y97.587 E85.64888
G1 X282.299 Y97.124 E85.67066
G1 X282.834 Y96.749 E85.69241
G1 X283.427 Y96.472 E85.71417
G1 X284.060 Y96.303 E85.73595
G1 X284.712 Y96.246 E85.75771
G1 X285.363 Y96.303 E85.77946
G1 X285.995 Y96.472 E85.80122
G1 X286.589 Y96.749 E85.82300
G1 X287.124 Y97.124 E85.84474
G1 X287.588 Y97.587 E85.86654
G1 X287.963 Y98.123 E85.88828
G1 X288.240 Y98.717 E85.91008
G1 X288.409 Y99.348 E85.93183
G1 X288.466 Y100.000 E85.95358
G1 X288.409 Y100.652 E85.97535
G1 X288.240 Y101.284 E85.99711
G1 X287.963 Y101.877 E86.01889
G1 X287.587 Y102.413 E86.04066
G1 X287.124 Y102.876 E86.06243
G1 X286.589 Y103.251 E86.08418
G1 X286.180 Y103.442 E86.09918
G0 X284.958 Y104.134 F5400
G1 X284.712 Y104.156 E86.10740 F2400
G1 X283.990 Y104.093 E86.13148
G1 X283.290 Y103.905 E86.15559
G1 X282.634 Y103.599 E86.17967
G1 X282.040 Y103.184 E86.20377
G1 X281.528 Y102.671 E86.22787
G1 X281.113 Y102.078 E86.25196
G1 X280.806 Y101.421 E86.27606
G1 X280.619 Y100.721 E86.30016
G1 X280.556 Y100.000 E86.32426
G1 X280.619 Y99.279 E86.34833
G1 X280.806 Y98.579 E86.37244
G1 X281.113 Y97.922 E86.39654
G1 X281.528 Y97.329 E86.42062
G1 X282.041 Y96.816 E86.44473
G1 X282.633 Y96.401 E86.46880
G1 X283.290 Y96.095 E86.49290
G1 X283.990 Y95.907 E86.51700
G1 X284.712 Y95.844 E86.54108
G1 X285.433 Y95.907 E86.56516
G1 X286.133 Y96.095 E86.58925
G1 X286.789 Y96.401 E86.61335
G1 X287.382 Y96.816 E86.63742
G1 X287.895 Y97.329 E86.66154
G1 X288.310 Y97.922 E86.68562
G1 X288.617 Y98.579 E86.70975
G1 X288.804 Y99.279 E86.73383
G1 X288.867 Y100.000 E86.75790
G1 X288.804 Y100.721 E86.78199
G1 X288.617 Y101.421 E86.80608
G1 X288.311 Y102.078 E86.83019
G1 X287.895 Y102.671 E86.85429
G1 X287.382 Y103.184 E86.87839
G1 X286.789 Y103.599 E86.90246
G1 X286.132 Y103.905 E86.92658
G1 X285.433 Y104.093 E86.95066
G1 X285.157 Y104.117 E86.95988
G0 X286.952 Y103.921 F5400
;segType:HShell
G1 X287.838 Y104.807 E87.00159 F2400
G0 X287.480 Y105.014 F5400
G1 X286.566 Y104.100 E87.04458 F2400
G0 X286.168 Y104.268 F5400
G1 X287.104 Y105.205 E87.08862 F2400
G0 X286.709 Y105.375 F5400
G1 X285.722 Y104.388 E87.13505 F2400
G0 X285.239 Y104.471 F5400
G1 X286.277 Y105.509 E87.18388 F2400
G0 X285.822 Y105.619 F5400
G1 X284.719 Y104.517 E87.23575 F2400
G0 X284.101 Y104.464 F5400
G1 X285.337 Y105.700 E87.29390 F2400
G0 X284.802 Y105.731 F5400
G1 X283.371 Y104.299 E87.36124 F2400
G0 X282.335 Y103.829 F5400
G1 X284.245 Y105.739 E87.45109 F2400
G0 X283.679 Y105.739 F5400
G1 X272.200 Y94.261 E87.99101 F2400
G0 X271.635 Y94.261 F5400
G1 X283.114 Y105.739 E88.53094 F2400
G0 X282.548 Y105.739 F5400
G1 X271.069 Y94.261 E89.07086 F2400
G0 X270.503 Y94.261 F5400
G1 X281.982 Y105.739 E89.61079 F2400
G0 X281.417 Y105.739 F5400
G1 X269.938 Y94.261 E90.15071 F2400
G0 X269.372 Y94.261 F5400
G1 X280.851 Y105.739 E90.69064 F2400
G0 X280.285 Y105.739 F5400
G1 X268.806 Y94.261 E91.23056 F2400
G0 X268.241 Y94.261 F5400
G1 X279.719 Y105.739 E91.77048 F2400
G0 X279.154 Y105.739 F5400
G1 X267.675 Y94.261 E92.31041 F2400
G0 X267.109 Y94.261 F5400
G1 X278.588 Y105.739 E92.85033 F2400
G0 X278.022 Y105.739 F5400
G1 X266.544 Y94.261 E93.39026 F2400
G0 X265.978 Y94.261 F5400
G1 X277.457 Y105.739 E93.93018 F2400
G0 X276.891 Y105.739 F5400
G1 X265.412 Y94.261 E94.47011 F2400
G0 X264.847 Y94.261 F5400
G1 X276.325 Y105.739 E95.01003 F2400
G0 X275.760 Y105.739 F5400
G1 X264.281 Y94.261 E95.54996 F2400
G0 X263.715 Y94.261 F5400
G1 X275.194 Y105.739 E96.08988 F2400
G0 X274.628 Y105.739 F5400
G1 X263.150 Y94.261 E96.62981 F2400
G0 X262.584 Y94.261 F5400
G1 X274.063 Y105.739 E97.16973 F2400
G0 X273.497 Y105.739 F5400
G1 X262.018 Y94.261 E97.70966 F2400
G0 X261.452 Y94.261 F5400
G1 X272.931 Y105.739 E98.24958 F2400
G0 X272.366 Y105.739 F5400
G1 X260.887 Y94.261 E98.78951 F2400
G0 X260.321 Y94.261 F5400
G1 X271.800 Y105.739 E99.32943 F2400
G0 X271.234 Y105.739 F5400
G1 X259.755 Y94.261 E99.86935 F2400
G0 X259.190 Y94.261 F5400
G1 X270.669 Y105.739 E100.40928 F2400
G0 X270.103 Y105.740 F5400
G1 X258.624 Y94.261 E100.94920 F2400
G0 X258.058 Y94.261 F5400
G1 X269.537 Y105.739 E101.48913 F2400
G0 X268.972 Y105.740 F5400
G1 X257.493 Y94.261 E102.02905 F2400
G0 X256.927 Y94.261 F5400
G1 X268.406 Y105.740 E102.56898 F2400
G0 X267.840 Y105.740 F5400
G1 X256.361 Y94.261 E103.10890 F2400
G0 X255.796 Y94.261 F5400
G1 X267.274 Y105.740 E103.64883 F2400
G0 X266.709 Y105.740 F5400
G1 X255.230 Y94.261 E104.18875 F2400
G0 X254.664 Y94.261 F5400
G1 X266.143 Y105.740 E104.72868 F2400
G0 X265.577 Y105.740 F5400
G1 X254.099 Y94.261 E105.26860 F2400
G0 X253.533 Y94.261 F5400
G1 X265.012 Y105.740 E105.80853 F2400
G0 X264.446 Y105.740 F5400
G1 X252.967 Y94.261 E106.34845 F2400
G0 X252.402 Y94.261 F5400
G1 X263.880 Y105.740 E106.88837 F2400
G0 X263.315 Y105.740 F5400
G1 X251.836 Y94.261 E107.42830 F2400
G0 X251.270 Y94.261 F5400
G1 X262.749 Y105.740 E107.96822 F2400
G0 X262.183 Y105.740 F5400
G1 X250.705 Y94.261 E108.50815 F2400
G0 X250.139 Y94.261 F5400
G1 X261.618 Y105.740 E109.04807 F2400
G0 X261.052 Y105.740 F5400
G1 X249.573 Y94.261 E109.58800 F2400
G0 X249.008 Y94.261 F5400
G1 X260.486 Y105.740 E110.12792 F2400
G0 X259.921 Y105.740 F5400
G1 X248.442 Y94.261 E110.66785 F2400
G0 X247.876 Y94.261 F5400
G1 X259.355 Y105.740 E111.20777 F2400
G0 X258.789 Y105.740 F5400
G1 X247.310 Y94.261 E111.74770 F2400
G0 X246.745 Y94.261 F5400
G1 X258.224 Y105.740 E112.28762 F2400
G0 X257.658 Y105.740 F5400
G1 X246.179 Y94.261 E112.82755 F2400
G0 X245.613 Y94.261 F5400
G1 X257.092 Y105.740 E113.36747 F2400
G0 X256.527 Y105.740 F5400
G1 X245.048 Y94.261 E113.90739 F2400
G0 X244.482 Y94.261 F5400
G1 X255.961 Y105.740 E114.44732 F2400
G0 X255.395 Y105.740 F5400
G1 X243.916 Y94.261 E114.98724 F2400
G0 X243.351 Y94.261 F5400
G1 X254.830 Y105.740 E115.52717 F2400
G0 X254.264 Y105.740 F5400
G1 X242.785 Y94.261 E116.06709 F2400
G0 X242.219 Y94.261 F5400
G1 X253.698 Y105.740 E116.60702 F2400
G0 X253.132 Y105.740 F5400
G1 X241.654 Y94.261 E117.14694 F2400
G0 X241.088 Y94.261 F5400
G1 X252.567 Y105.740 E117.68687 F2400
G0 X252.001 Y105.740 F5400
G1 X240.522 Y94.261 E118.22679 F2400
G0 X239.957 Y94.261 F5400
G1 X251.435 Y105.740 E118.76672 F2400
G0 X250.870 Y105.740 F5400
G1 X239.391 Y94.261 E119.30664 F2400
G0 X238.825 Y94.261 F5400
G1 X250.304 Y105.740 E119.84657 F2400
G0 X249.738 Y105.740 F5400
G1 X238.260 Y94.261 E120.38649 F2400
G0 X237.694 Y94.261 F5400
G1 X249.173 Y105.740 E120.92641 F2400
G0 X248.607 Y105.740 F5400
G1 X237.128 Y94.261 E121.46634 F2400
G0 X236.563 Y94.261 F5400
G1 X248.041 Y105.740 E122.00626 F2400
G0 X247.476 Y105.740 F5400
G1 X235.997 Y94.261 E122.54619 F2400
G0 X235.431 Y94.261 F5400
G1 X246.910 Y105.740 E123.08611 F2400
G0 X246.344 Y105.740 F5400
G1 X234.865 Y94.261 E123.62604 F2400
G0 X234.300 Y94.261 F5400
G1 X245.779 Y105.740 E124.16596 F2400
G0 X245.213 Y105.740 F5400
G1 X233.734 Y94.261 E124.70589 F2400
G0 X233.168 Y94.261 F5400
G1 X244.647 Y105.740 E125.24583 F2400
G0 X244.082 Y105.740 F5400
G1 X232.603 Y94.261 E125.78576 F2400
G0 X232.037 Y94.261 F5400
G1 X243.516 Y105.740 E126.32569 F2400
G0 X242.950 Y105.740 F5400
G1 X231.471 Y94.261 E126.86562 F2400
G0 X230.906 Y94.261 F5400
G1 X242.385 Y105.740 E127.40556 F2400
G0 X241.819 Y105.740 F5400
G1 X230.340 Y94.261 E127.94549 F2400
G0 X229.774 Y94.261 F5400
G1 X241.253 Y105.740 E128.48541 F2400
G0 X240.687 Y105.740 F5400
G1 X229.209 Y94.261 E129.02534 F2400
G0 X228.643 Y94.261 F5400
G1 X240.122 Y105.740 E129.56528 F2400
G0 X239.556 Y105.740 F5400
G1 X228.077 Y94.261 E130.10521 F2400
G0 X227.512 Y94.261 F5400
G1 X238.990 Y105.740 E130.64514 F2400
G0 X238.425 Y105.740 F5400
G1 X226.946 Y94.261 E131.18507 F2400
G0 X226.380 Y94.261 F5400
G1 X237.859 Y105.740 E131.72501 F2400
G0 X237.293 Y105.740 F5400
G1 X225.814 Y94.261 E132.26494 F2400
G0 X225.249 Y94.261 F5400
G1 X236.728 Y105.740 E132.80487 F2400
G0 X236.162 Y105.740 F5400
G1 X224.683 Y94.261 E133.34480 F2400
G0 X224.117 Y94.261 F5400
G1 X235.596 Y105.740 E133.88474 F2400
G0 X235.031 Y105.740 F5400
G1 X223.552 Y94.261 E134.42467 F2400
G0 X222.986 Y94.261 F5400
G1 X234.465 Y105.740 E134.96460 F2400
G0 X233.899 Y105.740 F5400
G1 X222.420 Y94.261 E135.50453 F2400
G0 X221.855 Y94.261 F5400
G1 X233.334 Y105.740 E136.04446 F2400
G0 X232.768 Y105.740 F5400
G1 X221.289 Y94.261 E136.58440 F2400
G0 X220.723 Y94.261 F5400
G1 X232.202 Y105.740 E137.12433 F2400
G0 X231.637 Y105.740 F5400
G1 X220.158 Y94.261 E137.66426 F2400
G0 X219.592 Y94.261 F5400
G1 X231.071 Y105.740 E138.20419 F2400
G0 X230.505 Y105.740 F5400
G1 X219.026 Y94.261 E138.74413 F2400
G0 X218.461 Y94.261 F5400
G1 X229.940 Y105.740 E139.28406 F2400
G0 X229.374 Y105.740 F5400
G1 X217.895 Y94.261 E139.82399 F2400
G0 X217.329 Y94.261 F5400
G1 X228.808 Y105.740 E140.36392 F2400
G0 X228.243 Y105.740 F5400
G1 X216.763 Y94.261 E140.90385 F2400
G0 X216.198 Y94.261 F5400
G1 X227.677 Y105.740 E141.44379 F2400
G0 X227.111 Y105.740 F5400
G1 X215.632 Y94.261 E141.98372 F2400
G0 X215.066 Y94.261 F5400
G1 X226.545 Y105.740 E142.52365 F2400
G0 X225.980 Y105.740 F5400
G1 X214.501 Y94.261 E143.06358 F2400
G0 X213.935 Y94.261 F5400
G1 X225.414 Y105.740 E143.60352 F2400
G0 X224.848 Y105.740 F5400
G1 X213.369 Y94.261 E144.14345 F2400
G0 X212.804 Y94.261 F5400
G1 X224.283 Y105.740 E144.68338 F2400
G0 X223.717 Y105.740 F5400
G1 X212.238 Y94.261 E145.22331 F2400
G0 X211.672 Y94.261 F5400
G1 X223.151 Y105.740 E145.76324 F2400
G0 X222.586 Y105.740 F5400
G1 X211.107 Y94.261 E146.30318 F2400
G0 X210.541 Y94.261 F5400
G1 X222.020 Y105.740 E146.84311 F2400
G0 X221.454 Y105.740 F5400
G1 X209.975 Y94.261 E147.38304 F2400
G0 X209.410 Y94.261 F5400
G1 X220.889 Y105.740 E147.92297 F2400
G0 X220.323 Y105.740 F5400
G1 X208.844 Y94.261 E148.46291 F2400
G0 X208.278 Y94.261 F5400
G1 X219.757 Y105.740 E149.00284 F2400
G0 X219.192 Y105.740 F5400
G1 X207.712 Y94.261 E149.54277 F2400
G0 X207.147 Y94.261 F5400
G1 X218.626 Y105.740 E150.08270 F2400
G0 X218.060 Y105.740 F5400
G1 X206.581 Y94.261 E150.62263 F2400
G0 X206.015 Y94.261 F5400
G1 X217.494 Y105.740 E151.16257 F2400
G0 X216.929 Y105.740 F5400
G1 X205.450 Y94.261 E151.70250 F2400
G0 X204.884 Y94.261 F5400
G1 X216.363 Y105.740 E152.24243 F2400
G0 X215.797 Y105.740 F5400
G1 X204.318 Y94.261 E152.78236 F2400
G0 X203.753 Y94.261 F5400
G1 X215.232 Y105.740 E153.32230 F2400
G0 X214.666 Y105.740 F5400
G1 X203.187 Y94.261 E153.86223 F2400
G0 X202.621 Y94.261 F5400
G1 X214.100 Y105.740 E154.40216 F2400
G0 X213.535 Y105.740 F5400
G1 X202.056 Y94.261 E154.94209 F2400
G0 X201.490 Y94.261 F5400
G1 X212.969 Y105.740 E155.48203 F2400
G0 X212.403 Y105.740 F5400
G1 X200.924 Y94.261 E156.02196 F2400
G0 X200.359 Y94.261 F5400
G1 X211.838 Y105.740 E156.56189 F2400
G0 X211.272 Y105.740 F5400
G1 X199.793 Y94.261 E157.10182 F2400
G0 X199.227 Y94.261 F5400
G1 X210.706 Y105.740 E157.64175 F2400
G0 X210.141 Y105.740 F5400
G1 X198.662 Y94.261 E158.18169 F2400
G0 X198.096 Y94.261 F5400
G1 X209.575 Y105.740 E158.72162 F2400
G0 X209.009 Y105.740 F5400
G1 X197.530 Y94.261 E159.26155 F2400
G0 X196.964 Y94.261 F5400
G1 X208.443 Y105.740 E159.80148 F2400
G0 X207.878 Y105.740 F5400
G1 X196.399 Y94.261 E160.34142 F2400
G0 X195.833 Y94.261 F5400
G1 X207.312 Y105.740 E160.88135 F2400
G0 X206.746 Y105.740 F5400
G1 X195.267 Y94.261 E161.42128 F2400
G0 X194.702 Y94.261 F5400
G1 X206.181 Y105.740 E161.96121 F2400
G0 X205.615 Y105.740 F5400
G1 X194.136 Y94.261 E162.50114 F2400
G0 X193.570 Y94.261 F5400
G1 X205.049 Y105.740 E163.04108 F2400
G0 X204.484 Y105.740 F5400
G1 X193.005 Y94.261 E163.58101 F2400
G0 X192.439 Y94.261 F5400
G1 X203.918 Y105.740 E164.12094 F2400
G0 X203.352 Y105.740 F5400
G1 X191.873 Y94.261 E164.66087 F2400
G0 X191.308 Y94.261 F5400
G1 X202.787 Y105.740 E165.20081 F2400
G0 X202.221 Y105.740 F5400
G1 X190.742 Y94.261 E165.74074 F2400
G0 X190.176 Y94.261 F5400
G1 X201.655 Y105.740 E166.28067 F2400
G0 X201.090 Y105.740 F5400
G1 X189.611 Y94.261 E166.82060 F2400
G0 X189.045 Y94.261 F5400
G1 X200.524 Y105.740 E167.36053 F2400
G0 X199.958 Y105.740 F5400
G1 X188.479 Y94.261 E167.90046 F2400
G0 X187.913 Y94.261 F5400
G1 X199.392 Y105.740 E168.44040 F2400
G0 X198.827 Y105.740 F5400
G1 X187.348 Y94.261 E168.98034 F2400
G0 X186.782 Y94.261 F5400
G1 X198.261 Y105.740 E169.52026 F2400
G0 X197.695 Y105.740 F5400
G1 X186.216 Y94.261 E170.06020 F2400
G0 X185.651 Y94.261 F5400
G1 X197.130 Y105.740 E170.60012 F2400
G0 X196.564 Y105.740 F5400
G1 X185.085 Y94.261 E171.14006 F2400
G0 X184.519 Y94.261 F5400
G1 X195.998 Y105.740 E171.68000 F2400
G0 X195.433 Y105.740 F5400
G1 X183.954 Y94.261 E172.21992 F2400
G0 X183.388 Y94.261 F5400
G1 X194.867 Y105.740 E172.75986 F2400
G0 X194.301 Y105.740 F5400
G1 X182.822 Y94.261 E173.29978 F2400
G0 X182.257 Y94.261 F5400
G1 X193.736 Y105.740 E173.83972 F2400
G0 X193.170 Y105.740 F5400
G1 X181.691 Y94.261 E174.37966 F2400
G0 X181.125 Y94.261 F5400
G1 X192.604 Y105.740 E174.91958 F2400
G0 X192.039 Y105.740 F5400
G1 X180.560 Y94.261 E175.45952 F2400
G0 X179.994 Y94.261 F5400
G1 X191.473 Y105.740 E175.99946 F2400
G0 X190.907 Y105.740 F5400
G1 X179.428 Y94.261 E176.53938 F2400
G0 X178.862 Y94.261 F5400
G1 X190.341 Y105.740 E177.07932 F2400
G0 X189.776 Y105.740 F5400
G1 X178.297 Y94.261 E177.61924 F2400
G0 X177.731 Y94.261 F5400
G1 X189.210 Y105.740 E178.15918 F2400
G0 X188.644 Y105.740 F5400
G1 X177.165 Y94.261 E178.69912 F2400
G0 X176.600 Y94.261 F5400
G1 X188.079 Y105.740 E179.23904 F2400
G0 X187.513 Y105.740 F5400
G1 X176.034 Y94.261 E179.77898 F2400
G0 X175.468 Y94.261 F5400
G1 X186.947 Y105.740 E180.31890 F2400
G0 X186.382 Y105.740 F5400
G1 X174.903 Y94.261 E180.85884 F2400
G0 X174.337 Y94.261 F5400
G1 X185.816 Y105.740 E181.39878 F2400
G0 X185.250 Y105.740 F5400
G1 X173.771 Y94.261 E181.93870 F2400
G0 X173.206 Y94.261 F5400
G1 X184.685 Y105.740 E182.47864 F2400
G0 X184.119 Y105.740 F5400
G1 X172.640 Y94.261 E183.01856 F2400
G0 X172.074 Y94.261 F5400
G1 X183.553 Y105.740 E183.55850 F2400
G0 X182.988 Y105.740 F5400
G1 X171.509 Y94.261 E184.09844 F2400
G0 X170.943 Y94.261 F5400
G1 X182.422 Y105.740 E184.63836 F2400
G0 X181.856 Y105.740 F5400
G1 X170.377 Y94.261 E185.17830 F2400
G0 X169.811 Y94.261 F5400
G1 X181.290 Y105.740 E185.71824 F2400
G0 X180.725 Y105.740 F5400
G1 X169.246 Y94.261 E186.25816 F2400
G0 X168.680 Y94.261 F5400
G1 X180.159 Y105.740 E186.79810 F2400
G0 X179.593 Y105.740 F5400
G1 X168.114 Y94.261 E187.33802 F2400
G0 X167.549 Y94.261 F5400
G1 X179.028 Y105.740 E187.87796 F2400
G0 X178.462 Y105.740 F5400
G1 X166.983 Y94.261 E188.41790 F2400
G0 X166.417 Y94.261 F5400
G1 X177.896 Y105.740 E188.95782 F2400
G0 X177.331 Y105.740 F5400
G1 X165.852 Y94.261 E189.49776 F2400
G0 X165.286 Y94.261 F5400
G1 X176.765 Y105.740 E190.03768 F2400
G0 X176.199 Y105.740 F5400
G1 X164.720 Y94.261 E190.57762 F2400
G0 X164.155 Y94.261 F5400
G1 X175.634 Y105.740 E191.11756 F2400
G0 X175.068 Y105.740 F5400
G1 X163.589 Y94.261 E191.65748 F2400
G0 X163.023 Y94.261 F5400
G1 X174.502 Y105.740 E192.19742 F2400
G0 X173.937 Y105.740 F5400
G1 X162.458 Y94.261 E192.73736 F2400
G0 X161.892 Y94.261 F5400
G1 X173.371 Y105.740 E193.27728 F2400
G0 X172.805 Y105.740 F5400
G1 X161.326 Y94.261 E193.81722 F2400
G0 X160.761 Y94.261 F5400
G1 X172.240 Y105.740 E194.35714 F2400
G0 X171.674 Y105.740 F5400
G1 X160.195 Y94.261 E194.89708 F2400
G0 X159.629 Y94.261 F5400
G1 X171.108 Y105.740 E195.43702 F2400
G0 X170.542 Y105.740 F5400
G1 X159.063 Y94.261 E195.97694 F2400
G0 X158.498 Y94.261 F5400
G1 X169.977 Y105.740 E196.51688 F2400
G0 X169.411 Y105.740 F5400
G1 X157.932 Y94.261 E197.05680 F2400
G0 X157.366 Y94.261 F5400
G1 X168.845 Y105.740 E197.59674 F2400
G0 X168.280 Y105.740 F5400
G1 X156.801 Y94.261 E198.13668 F2400
G0 X156.235 Y94.261 F5400
G1 X167.714 Y105.740 E198.67660 F2400
G0 X167.148 Y105.740 F5400
G1 X155.669 Y94.261 E199.21654 F2400
G0 X155.104 Y94.261 F5400
G1 X166.583 Y105.740 E199.75646 F2400
G0 X166.017 Y105.740 F5400
G1 X154.538 Y94.261 E200.29640 F2400
G0 X153.972 Y94.261 F5400
G1 X165.451 Y105.740 E200.83634 F2400
G0 X164.886 Y105.740 F5400
G1 X153.407 Y94.261 E201.37626 F2400
G0 X152.841 Y94.261 F5400
G1 X164.320 Y105.740 E201.91620 F2400
G0 X163.754 Y105.740 F5400
G1 X152.275 Y94.261 E202.45614 F2400
G0 X151.710 Y94.261 F5400
G1 X163.189 Y105.740 E202.99606 F2400
G0 X162.623 Y105.740 F5400
G1 X151.144 Y94.261 E203.53600 F2400
G0 X150.578 Y94.261 F5400
G1 X162.057 Y105.740 E204.07592 F2400
G0 X161.491 Y105.740 F5400
G1 X150.012 Y94.261 E204.61586 F2400
G0 X149.447 Y94.261 F5400
G1 X160.926 Y105.740 E205.15580 F2400
G0 X160.360 Y105.740 F5400
G1 X148.881 Y94.261 E205.69572 F2400
G0 X148.315 Y94.261 F5400
G1 X159.794 Y105.740 E206.23566 F2400
G0 X159.229 Y105.740 F5400
G1 X147.750 Y94.261 E206.77558 F2400
G0 X147.184 Y94.261 F5400
G1 X158.663 Y105.740 E207.31552 F2400
G0 X158.097 Y105.740 F5400
G1 X146.618 Y94.261 E207.85546 F2400
G0 X146.053 Y94.261 F5400
G1 X157.532 Y105.740 E208.39538 F2400
G0 X156.966 Y105.740 F5400
G1 X145.487 Y94.261 E208.93532 F2400
G0 X144.921 Y94.261 F5400
G1 X156.400 Y105.740 E209.47526 F2400
G0 X155.835 Y105.740 F5400
G1 X144.356 Y94.261 E210.01518 F2400
G0 X143.790 Y94.261 F5400
G1 X155.269 Y105.740 E210.55512 F2400
G0 X154.703 Y105.740 F5400
G1 X143.224 Y94.261 E211.09504 F2400
G0 X142.659 Y94.261 F5400
G1 X154.138 Y105.740 E211.63498 F2400
G0 X153.572 Y105.740 F5400
G1 X142.093 Y94.261 E212.17492 F2400
G0 X141.527 Y94.261 F5400
G1 X153.006 Y105.740 E212.71484 F2400
G0 X152.440 Y105.740 F5400
G1 X140.961 Y94.261 E213.25478 F2400
G0 X140.396 Y94.261 F5400
G1 X151.875 Y105.740 E213.79470 F2400
G0 X151.309 Y105.740 F5400
G1 X139.830 Y94.261 E214.33464 F2400
G0 X139.264 Y94.261 F5400
G1 X150.743 Y105.740 E214.87458 F2400
G0 X150.178 Y105.740 F5400
G1 X138.699 Y94.261 E215.41450 F2400
G0 X138.133 Y94.261 F5400
G1 X149.612 Y105.740 E215.95444 F2400
G0 X149.046 Y105.740 F5400
G1 X137.567 Y94.261 E216.49436 F2400
G0 X137.002 Y94.261 F5400
G1 X148.481 Y105.740 E217.03430 F2400
G0 X147.915 Y105.740 F5400
G1 X136.436 Y94.261 E217.57424 F2400
G0 X135.870 Y94.261 F5400
G1 X147.349 Y105.740 E218.11416 F2400
G0 X146.784 Y105.740 F5400
G1 X135.305 Y94.261 E218.65410 F2400
G0 X134.739 Y94.261 F5400
G1 X146.218 Y105.740 E219.19404 F2400
G0 X145.652 Y105.740 F5400
G1 X134.173 Y94.261 E219.73396 F2400
G0 X133.608 Y94.261 F5400
G1 X145.087 Y105.740 E220.27390 F2400
G0 X144.521 Y105.740 F5400
G1 X133.042 Y94.261 E220.81382 F2400
G0 X132.476 Y94.261 F5400
G1 X143.955 Y105.740 E221.35376 F2400
G0 X143.390 Y105.740 F5400
G1 X131.910 Y94.261 E221.89370 F2400
G0 X131.345 Y94.261 F5400
G1 X142.824 Y105.740 E222.43362 F2400
G0 X142.258 Y105.740 F5400
G1 X130.779 Y94.261 E222.97356 F2400
G0 X130.213 Y94.261 F5400
G1 X141.692 Y105.740 E223.51348 F2400
G0 X141.127 Y105.740 F5400
G1 X129.648 Y94.261 E224.05342 F2400
G0 X129.082 Y94.261 F5400
G1 X140.561 Y105.740 E224.59336 F2400
G0 X139.995 Y105.740 F5400
G1 X128.516 Y94.261 E225.13328 F2400
G0 X127.951 Y94.261 F5400
G1 X139.430 Y105.740 E225.67322 F2400
G0 X138.864 Y105.740 F5400
G1 X127.385 Y94.261 E226.21316 F2400
G0 X126.819 Y94.261 F5400
G1 X138.298 Y105.740 E226.75308 F2400
G0 X137.733 Y105.740 F5400
G1 X126.254 Y94.261 E227.29302 F2400
G0 X125.688 Y94.261 F5400
G1 X137.167 Y105.740 E227.83294 F2400
G0 X136.601 Y105.740 F5400
G1 X125.122 Y94.261 E228.37288 F2400
G0 X124.557 Y94.261 F5400
G1 X136.036 Y105.740 E228.91282 F2400
G0 X135.470 Y105.740 F5400
G1 X123.991 Y94.261 E229.45274 F2400
G0 X123.425 Y94.261 F5400
G1 X134.904 Y105.740 E229.99268 F2400
G0 X134.339 Y105.740 F5400
G1 X122.859 Y94.261 E230.53260 F2400
G0 X122.294 Y94.261 F5400
G1 X133.773 Y105.740 E231.07254 F2400
G0 X133.207 Y105.740 F5400
G1 X121.728 Y94.261 E231.61248 F2400
G0 X121.162 Y94.261 F5400
G1 X132.641 Y105.740 E232.15240 F2400
G0 X132.076 Y105.740 F5400
G1 X120.597 Y94.261 E232.69234 F2400
G0 X120.031 Y94.261 F5400
G1 X131.510 Y105.740 E233.23226 F2400
G0 X130.944 Y105.740 F5400
G1 X119.465 Y94.261 E233.77220 F2400
G0 X118.900 Y94.261 F5400
G1 X130.379 Y105.740 E234.31214 F2400
G0 X129.813 Y105.740 F5400
G1 X118.334 Y94.261 E234.85206 F2400
G0 X117.768 Y94.261 F5400
G1 X129.247 Y105.740 E235.39200 F2400
G0 X128.682 Y105.740 F5400
G1 X117.203 Y94.261 E235.93194 F2400
G0 X116.637 Y94.261 F5400
G1 X128.116 Y105.740 E236.47186 F2400
G0 X127.550 Y105.740 F5400
G1 X116.071 Y94.261 E237.01180 F2400
G0 X115.506 Y94.261 F5400
G1 X126.985 Y105.740 E237.55172 F2400
G0 X126.419 Y105.740 F5400
G1 X114.940 Y94.261 E238.09166 F2400
G0 X114.374 Y94.261 F5400
G1 X125.853 Y105.740 E238.63160 F2400
G0 X125.288 Y105.740 F5400
G1 X113.808 Y94.261 E239.17152 F2400
G0 X113.243 Y94.261 F5400
G1 X124.722 Y105.740 E239.71146 F2400
G0 X124.156 Y105.740 F5400
G1 X112.677 Y94.261 E240.25138 F2400
G0 X112.111 Y94.261 F5400
G1 X123.590 Y105.740 E240.79132 F2400
G0 X123.025 Y105.740 F5400
G1 X111.546 Y94.261 E241.33126 F2400
G0 X110.980 Y94.261 F5400
G1 X122.459 Y105.740 E241.87118 F2400
G0 X121.893 Y105.740 F5400
G1 X110.414 Y94.261 E242.41112 F2400
G0 X109.849 Y94.261 F5400
G1 X121.328 Y105.740 E242.95104 F2400
G0 X120.762 Y105.740 F5400
G1 X109.283 Y94.261 E243.49098 F2400
G0 X108.717 Y94.261 F5400
G1 X120.196 Y105.740 E244.03092 F2400
G0 X119.631 Y105.740 F5400
G1 X108.152 Y94.261 E244.57084 F2400
G0 X107.586 Y94.261 F5400
G1 X119.065 Y105.740 E245.11078 F2400
G0 X118.499 Y105.740 F5400
G1 X107.020 Y94.261 E245.65072 F2400
G0 X106.455 Y94.261 F5400
G1 X117.934 Y105.740 E246.19064 F2400
G0 X117.368 Y105.740 F5400
G1 X105.889 Y94.261 E246.73058 F2400
G0 X105.323 Y94.261 F5400
G1 X116.802 Y105.740 E247.27050 F2400
G0 X116.237 Y105.740 F5400
G1 X104.758 Y94.261 E247.81044 F2400
G0 X104.192 Y94.261 F5400
G1 X115.671 Y105.740 E248.35038 F2400
G0 X115.105 Y105.740 F5400
G1 X103.626 Y94.261 E248.89030 F2400
G0 X103.060 Y94.261 F5400
G1 X114.539 Y105.740 E249.43024 F2400
G0 X113.974 Y105.740 F5400
G1 X102.495 Y94.261 E249.97016 F2400
G0 X101.929 Y94.261 F5400
G1 X113.408 Y105.740 E250.51010 F2400
G0 X112.842 Y105.740 F5400
G1 X101.363 Y94.261 E251.05004 F2400
G0 X100.798 Y94.261 F5400
G1 X112.277 Y105.740 E251.58996 F2400
G0 X111.711 Y105.740 F5400
G1 X100.232 Y94.261 E252.12990 F2400
G0 X99.666 Y94.261 F5400
G1 X111.145 Y105.740 E252.66984 F2400
G0 X110.580 Y105.740 F5400
G1 X99.101 Y94.261 E253.20976 F2400
G0 X98.535 Y94.261 F5400
G1 X110.014 Y105.740 E253.74970 F2400
G0 X109.448 Y105.740 F5400
G1 X97.969 Y94.261 E254.28962 F2400
G0 X97.404 Y94.261 F5400
G1 X108.883 Y105.740 E254.82956 F2400
G0 X108.317 Y105.740 F5400
G1 X96.838 Y94.261 E255.36950 F2400
G0 X96.272 Y94.261 F5400
G1 X107.751 Y105.740 E255.90942 F2400
G0 X107.186 Y105.740 F5400
G1 X95.707 Y94.261 E256.44938 F2400
G0 X95.141 Y94.261 F5400
G1 X106.620 Y105.740 E256.98932 F2400
G0 X106.054 Y105.740 F5400
G1 X94.575 Y94.261 E257.52926 F2400
G0 X94.009 Y94.261 F5400
G1 X105.488 Y105.740 E258.06922 F2400
G0 X104.923 Y105.740 F5400
G1 X93.444 Y94.261 E258.60916 F2400
G0 X92.878 Y94.261 F5400
G1 X104.357 Y105.740 E259.14910 F2400
G0 X103.791 Y105.740 F5400
G1 X92.312 Y94.261 E259.68906 F2400
G0 X91.747 Y94.261 F5400
G1 X103.226 Y105.740 E260.22900 F2400
G0 X102.660 Y105.740 F5400
G1 X91.181 Y94.261 E260.76896 F2400
G0 X90.615 Y94.261 F5400
G1 X102.094 Y105.740 E261.30890 F2400
G0 X101.529 Y105.740 F5400
G1 X90.050 Y94.261 E261.84884 F2400
G0 X89.484 Y94.261 F5400
G1 X100.963 Y105.740 E262.38880 F2400
G0 X100.397 Y105.740 F5400
G1 X88.918 Y94.261 E262.92874 F2400
G0 X88.353 Y94.261 F5400
G1 X99.832 Y105.740 E263.46868 F2400
G0 X99.266 Y105.740 F5400
G1 X87.787 Y94.261 E264.00864 F2400
G0 X87.221 Y94.261 F5400
G1 X98.700 Y105.740 E264.54858 F2400
G0 X98.135 Y105.740 F5400
G1 X86.656 Y94.261 E265.08854 F2400
G0 X86.090 Y94.261 F5400
G1 X97.569 Y105.740 E265.62848 F2400
G0 X97.003 Y105.740 F5400
G1 X85.524 Y94.261 E266.16842 F2400
G0 X84.958 Y94.261 F5400
G1 X96.437 Y105.740 E266.70838 F2400
G0 X95.872 Y105.740 F5400
G1 X84.393 Y94.261 E267.24832 F2400
G0 X83.827 Y94.261 F5400
G1 X95.306 Y105.740 E267.78826 F2400
G0 X94.740 Y105.740 F5400
G1 X83.261 Y94.261 E268.32822 F2400
G0 X82.696 Y94.261 F5400
G1 X94.175 Y105.740 E268.86816 F2400
G0 X93.609 Y105.740 F5400
G1 X82.130 Y94.261 E269.40812 F2400
G0 X81.564 Y94.261 F5400
G1 X93.043 Y105.740 E269.94806 F2400
G0 X92.478 Y105.740 F5400
G1 X80.999 Y94.261 E270.48800 F2400
G0 X80.433 Y94.261 F5400
G1 X91.912 Y105.740 E271.02796 F2400
G0 X91.346 Y105.740 F5400
G1 X79.867 Y94.261 E271.56790 F2400
G0 X79.302 Y94.261 F5400
G1 X90.781 Y105.740 E272.10784 F2400
G0 X90.215 Y105.740 F5400
G1 X78.736 Y94.261 E272.64780 F2400
G0 X78.170 Y94.261 F5400
G1 X89.649 Y105.740 E273.18774 F2400
G0 X89.084 Y105.740 F5400
G1 X77.605 Y94.261 E273.72770 F2400
G0 X77.039 Y94.261 F5400
G1 X88.518 Y105.740 E274.26764 F2400
G0 X87.952 Y105.740 F5400
G1 X76.473 Y94.261 E274.80758 F2400
G0 X75.908 Y94.261 F5400
G1 X87.386 Y105.740 E275.34754 F2400
G0 X86.821 Y105.739 F5400
G1 X75.342 Y94.261 E275.88748 F2400
G0 X74.776 Y94.261 F5400
G1 X86.255 Y105.740 E276.42742 F2400
G0 X85.689 Y105.739 F5400
G1 X74.210 Y94.261 E276.96738 F2400
G0 X73.645 Y94.261 F5400
G1 X85.124 Y105.739 E277.50732 F2400
G0 X84.558 Y105.739 F5400
G1 X73.079 Y94.261 E278.04728 F2400
G0 X72.513 Y94.261 F5400
G1 X83.992 Y105.739 E278.58722 F2400
G0 X83.427 Y105.739 F5400
G1 X71.948 Y94.261 E279.12716 F2400
G0 X71.382 Y94.261 F5400
G1 X82.861 Y105.739 E279.66712 F2400
G0 X82.295 Y105.739 F5400
G1 X70.816 Y94.261 E280.20706 F2400
G0 X70.251 Y94.261 F5400
G1 X81.730 Y105.739 E280.74700 F2400
G0 X81.164 Y105.739 F5400
G1 X69.685 Y94.261 E281.28696 F2400
G0 X69.119 Y94.261 F5400
G1 X80.598 Y105.739 E281.82690 F2400
G0 X80.033 Y105.739 F5400
G1 X68.554 Y94.261 E282.36686 F2400
G0 X67.988 Y94.261 F5400
G1 X79.467 Y105.739 E282.90680 F2400
G0 X78.901 Y105.739 F5400
G1 X67.422 Y94.261 E283.44674 F2400
G0 X66.857 Y94.261 F5400
G1 X78.336 Y105.739 E283.98670 F2400
G0 X77.770 Y105.739 F5400
G1 X66.291 Y94.261 E284.52664 F2400
G0 X65.725 Y94.261 F5400
G1 X77.204 Y105.739 E285.06658 F2400
G0 X76.638 Y105.739 F5400
G1 X65.159 Y94.261 E285.60654 F2400
G0 X64.594 Y94.261 F5400
G1 X76.073 Y105.739 E286.14648 F2400
G0 X75.507 Y105.739 F5400
G1 X64.028 Y94.261 E286.68644 F2400
G0 X63.462 Y94.261 F5400
G1 X74.941 Y105.739 E287.22638 F2400
G0 X74.376 Y105.739 F5400
G1 X62.897 Y94.261 E287.76632 F2400
G0 X62.331 Y94.261 F5400
G1 X73.810 Y105.739 E288.30628 F2400
G0 X73.244 Y105.739 F5400
G1 X61.765 Y94.261 E288.84622 F2400
G0 X61.200 Y94.261 F5400
G1 X72.679 Y105.739 E289.38616 F2400
G0 X72.113 Y105.739 F5400
G1 X60.634 Y94.261 E289.92612 F2400
G0 X60.068 Y94.261 F5400
G1 X71.547 Y105.739 E290.46606 F2400
G0 X70.982 Y105.739 F5400
G1 X59.503 Y94.261 E291.00602 F2400
G0 X58.937 Y94.261 F5400
G1 X70.416 Y105.739 E291.54596 F2400
G0 X69.850 Y105.739 F5400
G1 X58.371 Y94.261 E292.08590 F2400
G0 X57.806 Y94.261 F5400
G1 X69.285 Y105.739 E292.62586 F2400
G0 X68.719 Y105.739 F5400
G1 X57.240 Y94.261 E293.16580 F2400
G0 X56.674 Y94.261 F5400
G1 X68.153 Y105.739 E293.70574 F2400
G0 X67.587 Y105.739 F5400
G1 X56.109 Y94.261 E294.24570 F2400
G0 X55.543 Y94.261 F5400
G1 X67.022 Y105.739 E294.78564 F2400
G0 X66.456 Y105.739 F5400
G1 X54.977 Y94.261 E295.32560 F2400
G0 X54.411 Y94.261 F5400
G1 X65.890 Y105.739 E295.86554 F2400
G0 X65.325 Y105.739 F5400
G1 X53.846 Y94.261 E296.40548 F2400
G0 X53.280 Y94.261 F5400
G1 X64.759 Y105.739 E296.94544 F2400
G0 X64.193 Y105.739 F5400
G1 X52.714 Y94.261 E297.48538 F2400
G0 X52.149 Y94.261 F5400
G1 X63.628 Y105.739 E298.02532 F2400
G0 X63.062 Y105.739 F5400
G1 X51.583 Y94.261 E298.56528 F2400
G0 X51.017 Y94.261 F5400
G1 X62.496 Y105.739 E299.10522 F2400
G0 X61.931 Y105.739 F5400
G1 X50.452 Y94.261 E299.64518 F2400
G0 X49.886 Y94.261 F5400
G1 X61.365 Y105.739 E300.18512 F2400
G0 X60.799 Y105.739 F5400
G1 X49.320 Y94.261 E300.72506 F2400
G0 X48.755 Y94.261 F5400
G1 X60.234 Y105.739 E301.26502 F2400
G0 X59.668 Y105.739 F5400
G1 X48.189 Y94.261 E301.80496 F2400
G0 X47.623 Y94.261 F5400
G1 X59.102 Y105.739 E302.34490 F2400
G0 X58.537 Y105.739 F5400
G1 X47.058 Y94.261 E302.88486 F2400
G0 X46.492 Y94.261 F5400
G1 X57.971 Y105.739 E303.42480 F2400
G0 X57.405 Y105.739 F5400
G1 X45.926 Y94.261 E303.96476 F2400
G0 X45.361 Y94.261 F5400
G1 X56.839 Y105.739 E304.50470 F2400
G0 X56.274 Y105.739 F5400
G1 X44.795 Y94.261 E305.04464 F2400
G0 X44.229 Y94.261 F5400
G1 X55.708 Y105.739 E305.58460 F2400
G0 X55.142 Y105.739 F5400
G1 X43.663 Y94.261 E306.12454 F2400
G0 X43.098 Y94.261 F5400
G1 X54.577 Y105.739 E306.66448 F2400
G0 X54.011 Y105.739 F5400
G1 X42.532 Y94.261 E307.20444 F2400
G0 X41.966 Y94.261 F5400
G1 X53.445 Y105.739 E307.74438 F2400
G0 X52.880 Y105.739 F5400
G1 X41.401 Y94.261 E308.28434 F2400
G0 X42.932 Y96.357 F5400
G1 X40.835 Y94.261 E308.38296 F2400
G0 X40.273 Y94.264 F5400
G1 X41.739 Y95.730 E308.45190 F2400
G0 X36.881 Y95.398 F5400
G1 X37.760 Y96.277 E308.49326 F2400
G0 X37.427 Y96.510 F5400
G1 X36.561 Y95.643 E308.53400 F2400
G0 X36.270 Y95.918 F5400
G1 X37.138 Y96.786 E308.57482 F2400
G0 X36.855 Y97.069 F5400
G1 X35.994 Y96.208 E308.61532 F2400
G0 X35.736 Y96.516 F5400
G1 X36.618 Y97.397 E308.65676 F2400
G0 X36.385 Y97.730 F5400
G1 X35.506 Y96.851 E308.69812 F2400
G0 X35.287 Y97.198 F5400
G1 X36.203 Y98.114 E308.74118 F2400
G0 X36.030 Y98.506 F5400
G1 X35.098 Y97.575 E308.78500 F2400
G0 X34.932 Y97.974 F5400
G1 X35.910 Y98.952 E308.83102 F2400
G0 X35.821 Y99.429 F5400
G1 X34.784 Y98.392 E308.87980 F2400
G0 X34.676 Y98.849 F5400
G1 X35.776 Y99.949 E308.93152 F2400
G0 X35.820 Y100.559 F5400
G1 X34.600 Y99.339 E308.98892 F2400
G0 X34.562 Y99.867 F5400
G1 X35.972 Y101.277 E309.05524 F2400
G0 X36.366 Y102.237 F5400
G1 X34.575 Y100.445 E309.13950 F2400
G0 X35.359 Y102.927 F5400
G1 X37.346 Y104.914 E309.23298 F2400
G0 X38.415 Y105.417 F5400
G1 X34.879 Y101.881 E309.39932 F2400
G0 X34.664 Y101.100 F5400
G1 X39.184 Y105.620 E309.61194 F2400
G0 X39.840 Y105.710 F5400
G1 X38.052 Y103.922 E309.69604 F2400
G0 X39.012 Y104.317 F5400
G1 X40.435 Y105.739 E309.76296 F2400
G0 X41.000 Y105.739 F5400
G1 X39.729 Y104.468 E309.82276 F2400
G0 X40.339 Y104.513 F5400
G1 X41.566 Y105.739 E309.88046 F2400
G0 X42.132 Y105.739 F5400
G1 X40.859 Y104.467 E309.94030 F2400
G0 X41.336 Y104.378 F5400
G1 X42.697 Y105.739 E310.00434 F2400
G0 X43.263 Y105.739 F5400
G1 X41.782 Y104.259 E310.07400 F2400
G0 X42.175 Y104.086 F5400
G1 X43.829 Y105.739 E310.15180 F2400
G0 X44.394 Y105.739 F5400
G1 X42.559 Y103.904 E310.23812 F2400
G0 X42.892 Y103.671 F5400
G1 X44.960 Y105.739 E310.33542 F2400
G0 X45.526 Y105.739 F5400
G1 X43.219 Y103.433 E310.44390 F2400
G0 X43.502 Y103.150 F5400
G1 X46.091 Y105.739 E310.56570 F2400
G0 X46.657 Y105.739 F5400
G1 X43.779 Y102.861 E310.70112 F2400
G0 X44.012 Y102.528 F5400
G1 X47.223 Y105.739 E310.85214 F2400
G0 X47.788 Y105.739 F5400
G1 X44.235 Y102.186 E311.01928 F2400
G0 X44.414 Y101.800 F5400
G1 X48.354 Y105.739 E311.20458 F2400
G0 X48.920 Y105.739 F5400
G1 X44.574 Y101.393 E311.40902 F2400
G0 X44.694 Y100.947 F5400
G1 X49.486 Y105.739 E311.63442 F2400
G0 X50.051 Y105.739 F5400
G1 X44.766 Y100.454 E311.88302 F2400
G0 X44.799 Y99.922 F5400
G1 X50.617 Y105.739 E312.15668 F2400
G0 X51.183 Y105.739 F5400
G1 X44.745 Y99.302 E312.45950 F2400
G0 X44.559 Y98.550 F5400
G1 X51.748 Y105.739 E312.79770 F2400
G0 X272.766 Y94.261 F5400
G1 X280.881 Y102.375 E313.17942 F2400
G0 X280.412 Y101.341 F5400
G1 X273.332 Y94.261 E313.51242 F2400
G0 X273.897 Y94.261 F5400
G1 X280.248 Y100.611 E313.81112 F2400
G0 X280.195 Y99.992 F5400
G1 X274.463 Y94.261 E314.08072 F2400
G0 X275.029 Y94.261 F5400
G1 X280.240 Y99.472 E314.32586 F2400
G0 X280.323 Y98.989 F5400
G1 X275.595 Y94.261 E314.54830 F2400
G0 X276.160 Y94.261 F5400
G1 X280.443 Y98.543 E314.74976 F2400
G0 X280.611 Y98.146 F5400
G1 X276.726 Y94.261 E314.93250 F2400
G0 X277.292 Y94.261 F5400
G1 X280.791 Y97.760 E315.09708 F2400
G0 X281.021 Y97.425 F5400
G1 X277.857 Y94.261 E315.24592 F2400
G0 X278.423 Y94.261 F5400
G1 X281.255 Y97.093 E315.37912 F2400
G0 X281.538 Y96.810 F5400
G1 X278.989 Y94.261 E315.49902 F2400
G0 X279.554 Y94.261 F5400
G1 X281.823 Y96.529 E315.60572 F2400
G0 X282.156 Y96.296 F5400
G1 X280.120 Y94.261 E315.70144 F2400
G0 X280.686 Y94.261 F5400
G1 X282.494 Y96.069 E315.78650 F2400
G0 X282.880 Y95.889 F5400
G1 X281.251 Y94.261 E315.86310 F2400
G0 X281.817 Y94.261 F5400
G1 X283.281 Y95.725 E315.93198 F2400
G0 X283.727 Y95.605 F5400
G1 X282.383 Y94.261 E315.99520 F2400
G0 X282.948 Y94.261 F5400
G1 X284.214 Y95.526 E316.05474 F2400
G0 X284.739 Y95.485 F5400
G1 X283.514 Y94.261 E316.11236 F2400
G0 X284.080 Y94.261 F5400
G1 X285.359 Y95.539 E316.17252 F2400
G0 X286.098 Y95.713 F5400
G1 X284.645 Y94.261 E316.24082 F2400
G0 X285.245 Y94.295 F5400
G1 X287.199 Y96.248 E316.33268 F2400
G0 X289.107 Y100.984 F5400
G1 X290.090 Y101.968 E316.37890 F2400
G0 X290.231 Y101.543 F5400
G1 X289.185 Y100.497 E316.42810 F2400
G0 X289.226 Y99.973 F5400
G1 X290.340 Y101.086 E316.48046 F2400
G0 X290.408 Y100.589 F5400
G1 X289.172 Y99.353 E316.53860 F2400
G0 X288.999 Y98.614 F5400
G1 X290.438 Y100.054 E316.60630 F2400
G0 X290.415 Y99.464 F5400
G1 X288.464 Y97.514 E316.69802 F2400
G0 X289.487 Y96.839 F5400
G1 X287.843 Y95.196 E316.77536 F2400
G0 X286.705 Y94.623 F5400
G1 X290.076 Y97.994 E316.93390 F2400
G0 X290.311 Y98.795 F5400
G1 X285.913 Y94.397 E317.14078 F2400
; ------------------------------------
; Layer #1
; ------------------------------------
G92 E0 ;reset extr
G0 F3000 E-1.00000
G0 F600 Z0.400
G0 X43.405 Y98.780 F7200
G0 X43.192 Y98.324
G0 X42.857 Y97.845
G0 X42.444 Y97.432
G0 X41.965 Y97.097
G0 X41.435 Y96.850
G0 X40.871 Y96.698
G0 X40.288 Y96.647
G0 X39.706 Y96.698
G0 X39.142 Y96.850
G0 X38.612 Y97.097
G0 X38.133 Y97.432
G0 X37.720 Y97.845
G0 X37.385 Y98.324
G0 X37.138 Y98.853
G0 X37.127 Y98.894
G0 X34.655 Y98.938
G0 F3000 E0.00000
;segType:HShell
G1 X39.220 Y94.373 E0.21473 F3600
G0 X38.457 Y94.570 F7200
G1 X34.862 Y98.166 E0.38384 F3600
G0 X35.311 Y97.151 F7200
G1 X37.416 Y95.046 E0.48285 F3600
G0 X36.502 Y94.019 F7200
;segType:Perimeter
G1 X37.068 Y93.453 E0.50946 F2159
G1 X37.792 Y93.141 E0.53570
G1 X38.605 Y92.897 E0.56393
G1 X39.441 Y92.750 E0.59216
G1 X40.294 Y92.700 E0.62058
G1 X284.706 Y92.700 E8.74975
G1 X285.559 Y92.750 E8.77817
G1 X286.395 Y92.897 E8.80640
G1 X287.208 Y93.141 E8.83463
G1 X287.988 Y93.477 E8.86288
G1 X288.722 Y93.902 E8.89109
G1 X289.404 Y94.409 E8.91934
G1 X290.021 Y94.991 E8.94755
G1 X290.566 Y95.641 E8.97578
G1 X291.033 Y96.351 E9.00404
G1 X291.414 Y97.109 E9.03226
G1 X291.704 Y97.907 E9.06050
G1 X291.900 Y98.733 E9.08873
G1 X291.999 Y99.576 E9.11695
G1 X291.999 Y100.424 E9.14518
G1 X291.900 Y101.267 E9.17341
G1 X291.704 Y102.093 E9.20164
G1 X291.414 Y102.891 E9.22989
G1 X291.033 Y103.649 E9.25809
G1 X290.566 Y104.359 E9.28635
G1 X290.021 Y105.009 E9.31459
G1 X289.403 Y105.591 E9.34281
G1 X288.722 Y106.098 E9.37104
G1 X287.988 Y106.523 E9.39926
G1 X287.208 Y106.859 E9.42751
G1 X286.395 Y107.103 E9.45574
G1 X285.559 Y107.250 E9.48397
G1 X284.706 Y107.300 E9.51240
G1 X40.294 Y107.300 E17.64155
G1 X39.441 Y107.250 E17.66998
G1 X38.605 Y107.103 E17.69820
G1 X37.792 Y106.859 E17.72644
G1 X37.013 Y106.523 E17.75467
G1 X36.278 Y106.098 E17.78290
G1 X35.597 Y105.592 E17.81113
G1 X34.979 Y105.009 E17.83937
G1 X34.434 Y104.359 E17.86760
G1 X33.967 Y103.650 E17.89584
G1 X33.586 Y102.891 E17.92406
G1 X33.296 Y102.093 E17.95230
G1 X33.100 Y101.268 E17.98053
G1 X33.002 Y100.424 E18.00876
G1 X33.002 Y99.576 E18.03699
G1 X33.100 Y98.732 E18.06523
G1 X33.296 Y97.907 E18.09345
G1 X33.586 Y97.109 E18.12169
G1 X33.967 Y96.350 E18.14992
G1 X34.434 Y95.641 E18.17816
G1 X34.979 Y94.991 E18.20639
G1 X35.597 Y94.408 E18.23462
G1 X36.278 Y93.902 E18.26285
G1 X36.961 Y93.507 E18.28909
G0 X37.068 Y93.453 F7200
G0 X37.792 Y93.141
G0 X38.569 Y92.908
G0 X38.698 Y93.287
G0 X38.147 Y93.452
;segType:Loop
G1 X38.698 Y93.287 E18.30819 F3600
G1 X39.488 Y93.148 E18.33487
G1 X40.306 Y93.100 E18.36213
G1 X284.694 Y93.100 E26.49053
G1 X285.512 Y93.148 E26.51778
G1 X286.302 Y93.287 E26.54446
G1 X287.071 Y93.517 E26.57113
G1 X287.808 Y93.835 E26.59783
G1 X288.502 Y94.236 E26.62451
G1 X289.146 Y94.716 E26.65120
G1 X289.729 Y95.266 E26.67787
G1 X290.245 Y95.880 E26.70453
G1 X290.686 Y96.551 E26.73126
G1 X291.046 Y97.268 E26.75792
G1 X291.320 Y98.022 E26.78462
G1 X291.505 Y98.802 E26.81129
G1 X291.599 Y99.599 E26.83797
G1 X291.599 Y100.401 E26.86465
G1 X291.505 Y101.198 E26.89132
G1 X291.320 Y101.978 E26.91800
G1 X291.046 Y102.733 E26.94471
G1 X290.686 Y103.448 E26.97135
G1 X290.245 Y104.120 E26.99808
G1 X289.729 Y104.734 E27.02476
G1 X289.146 Y105.285 E27.05143
G1 X288.502 Y105.763 E27.07810
G1 X287.808 Y106.165 E27.10479
G1 X287.071 Y106.483 E27.13148
G1 X286.302 Y106.713 E27.15816
G1 X285.512 Y106.852 E27.18484
G1 X284.694 Y106.900 E27.21211
G1 X40.306 Y106.900 E35.34049
G1 X39.488 Y106.852 E35.36775
G1 X38.698 Y106.713 E35.39443
G1 X37.929 Y106.482 E35.42111
G1 X37.192 Y106.165 E35.44780
G1 X36.498 Y105.764 E35.47448
G1 X35.854 Y105.285 E35.50116
G1 X35.271 Y104.734 E35.52784
G1 X34.755 Y104.120 E35.55452
G1 X34.314 Y103.449 E35.58121
G1 X33.954 Y102.732 E35.60789
G1 X33.680 Y101.978 E35.63457
G1 X33.495 Y101.198 E35.66125
G1 X33.402 Y100.401 E35.68794
G1 X33.402 Y99.599 E35.71462
G1 X33.495 Y98.802 E35.74130
G1 X33.680 Y98.022 E35.76798
G1 X33.954 Y97.268 E35.79466
G1 X34.314 Y96.551 E35.82134
G1 X34.755 Y95.880 E35.84804
G1 X35.271 Y95.266 E35.87471
G1 X35.854 Y94.715 E35.90140
G1 X36.498 Y94.236 E35.92808
G1 X37.192 Y93.835 E35.95476
G1 X37.929 Y93.518 E35.98145
G1 X37.956 Y93.510 E35.98237
G0 X39.285 Y93.590 F7200
G1 X39.534 Y93.546 E35.99080 F3600
G1 X40.318 Y93.500 E36.01690
G1 X284.683 Y93.500 E44.14452
G1 X285.466 Y93.546 E44.17062
G1 X286.210 Y93.677 E44.19575
G1 X286.934 Y93.894 E44.22087
G1 X287.628 Y94.193 E44.24602
G1 X288.282 Y94.571 E44.27115
G1 X288.889 Y95.023 E44.29630
G1 X289.438 Y95.541 E44.32139
G1 X289.923 Y96.119 E44.34651
G1 X290.339 Y96.752 E44.37170
G1 X290.678 Y97.427 E44.39682
G1 X290.937 Y98.137 E44.42195
G1 X291.111 Y98.872 E44.44709
G1 X291.199 Y99.622 E44.47221
G1 X291.199 Y100.378 E44.49734
G1 X291.111 Y101.128 E44.52246
G1 X290.937 Y101.863 E44.54759
G1 X290.678 Y102.574 E44.57276
G1 X290.339 Y103.248 E44.59784
G1 X289.924 Y103.880 E44.62302
G1 X289.438 Y104.459 E44.64815
G1 X288.888 Y104.978 E44.67328
G1 X288.282 Y105.429 E44.69840
G1 X287.628 Y105.807 E44.72354
G1 X286.934 Y106.106 E44.74868
G1 X286.210 Y106.323 E44.77380
G1 X285.466 Y106.454 E44.79893
G1 X284.682 Y106.500 E44.82504
G1 X40.318 Y106.500 E52.95264
G1 X39.534 Y106.454 E52.97874
G1 X38.790 Y106.323 E53.00387
G1 X38.066 Y106.106 E53.02901
G1 X37.372 Y105.807 E53.05414
G1 X36.718 Y105.429 E53.07926
G1 X36.112 Y104.978 E53.10440
G1 X35.562 Y104.459 E53.12953
G1 X35.076 Y103.880 E53.15466
G1 X34.661 Y103.249 E53.17980
G1 X34.322 Y102.574 E53.20493
G1 X34.064 Y101.864 E53.23006
G1 X33.889 Y101.128 E53.25519
G1 X33.802 Y100.378 E53.28033
G1 X33.802 Y99.622 E53.30546
G1 X33.889 Y98.872 E53.33060
G1 X34.064 Y98.136 E53.35572
G1 X34.322 Y97.426 E53.38086
G1 X34.661 Y96.751 E53.40599
G1 X35.076 Y96.120 E53.43113
G1 X35.562 Y95.541 E53.45626
G1 X36.112 Y95.022 E53.48139
G1 X36.718 Y94.571 E53.50653
G1 X37.372 Y94.193 E53.53165
G1 X38.066 Y93.894 E53.55678
G1 X38.790 Y93.677 E53.58192
G1 X39.088 Y93.625 E53.59197
G0 X40.429 Y93.900 F7200
G1 X284.671 Y93.900 E61.71549 F3600
G1 X285.419 Y93.944 E61.74042
G1 X286.118 Y94.067 E61.76400
G1 X286.796 Y94.270 E61.78757
G1 X287.448 Y94.551 E61.81117
G1 X288.062 Y94.906 E61.83475
G1 X288.631 Y95.330 E61.85836
G1 X289.146 Y95.816 E61.88190
G1 X289.602 Y96.358 E61.90547
G1 X289.992 Y96.952 E61.92910
G1 X290.310 Y97.585 E61.95267
G1 X290.553 Y98.251 E61.97625
G1 X290.716 Y98.942 E61.99985
G1 X290.799 Y99.645 E62.02341
G1 X290.799 Y100.354 E62.04699
G1 X290.716 Y101.058 E62.07056
G1 X290.553 Y101.748 E62.09414
G1 X290.310 Y102.415 E62.11775
G1 X289.992 Y103.048 E62.14130
G1 X289.602 Y103.641 E62.16492
G1 X289.146 Y104.185 E62.18851
G1 X288.631 Y104.671 E62.21208
G1 X288.062 Y105.094 E62.23566
G1 X287.448 Y105.449 E62.25923
G1 X286.796 Y105.730 E62.28284
G1 X286.118 Y105.933 E62.30641
G1 X285.419 Y106.056 E62.32999
G1 X284.671 Y106.100 E62.35494
G1 X40.329 Y106.100 E70.48176
G1 X39.581 Y106.056 E70.50670
G1 X38.882 Y105.933 E70.53028
G1 X38.203 Y105.729 E70.55387
G1 X37.552 Y105.449 E70.57745
G1 X36.938 Y105.094 E70.60102
G1 X36.369 Y104.671 E70.62461
G1 X35.854 Y104.184 E70.64820
G1 X35.398 Y103.641 E70.67178
G1 X35.008 Y103.048 E70.69537
G1 X34.690 Y102.415 E70.71894
G1 X34.447 Y101.749 E70.74253
G1 X34.284 Y101.059 E70.76611
G1 X34.202 Y100.354 E70.78970
G1 X34.202 Y99.646 E70.81327
G1 X34.284 Y98.941 E70.83686
G1 X34.447 Y98.251 E70.86045
G1 X34.690 Y97.585 E70.88403
G1 X35.008 Y96.952 E70.90760
G1 X35.398 Y96.359 E70.93119
G1 X35.854 Y95.816 E70.95477
G1 X36.369 Y95.329 E70.97835
G1 X36.938 Y94.906 E71.00194
G1 X37.552 Y94.551 E71.02552
G1 X38.203 Y94.271 E71.04910
G1 X38.882 Y94.067 E71.07268
G1 X39.581 Y93.944 E71.09626
G1 X40.229 Y93.906 E71.11788
G0 F3000 E70.11788
G0 X45.555 Y94.261 F7200
G0 F3000 E71.11788
;segType:HShell
G1 X43.234 Y96.582 E71.22705 F3600
G0 X43.517 Y96.864 F7200
G1 X46.121 Y94.261 E71.34954 F3600
G0 X46.687 Y94.261 F7200
G1 X43.791 Y97.156 E71.48574 F3600
G0 X42.664 Y98.015 F7200
;segType:Perimeter
G1 X42.870 Y98.579 E71.50570 F2159
G1 X43.062 Y98.991 E71.52082
G1 X43.195 Y99.487 E71.53792
G1 X43.240 Y100.000 E71.55503
G1 X43.195 Y100.513 E71.57215
G1 X43.062 Y101.009 E71.58926
G1 X42.844 Y101.476 E71.60636
G1 X42.549 Y101.897 E71.62347
G1 X42.186 Y102.261 E71.64058
G1 X41.764 Y102.556 E71.65769
G1 X41.298 Y102.773 E71.67481
G1 X40.801 Y102.906 E71.69192
G1 X40.288 Y102.951 E71.70903
G1 X39.776 Y102.906 E71.72615
G1 X39.279 Y102.773 E71.74325
G1 X38.813 Y102.556 E71.76036
G1 X38.392 Y102.261 E71.77748
G1 X38.028 Y101.897 E71.79459
G1 X37.733 Y101.476 E71.81169
G1 X37.515 Y101.009 E71.82881
G1 X37.382 Y100.512 E71.84592
G1 X37.337 Y100.000 E71.86303
G1 X37.382 Y99.488 E71.88014
G1 X37.515 Y98.991 E71.89726
G1 X37.733 Y98.524 E71.91437
G1 X38.028 Y98.103 E71.93148
G1 X38.392 Y97.739 E71.94859
G1 X38.813 Y97.444 E71.96570
G1 X39.279 Y97.227 E71.98281
G1 X39.776 Y97.094 E71.99991
G1 X40.288 Y97.049 E72.01702
G1 X40.801 Y97.094 E72.03414
G1 X41.298 Y97.227 E72.05125
G1 X41.764 Y97.444 E72.06836
G1 X42.186 Y97.739 E72.08547
G1 X42.549 Y98.103 E72.10259
G1 X42.810 Y98.475 E72.11770
G0 X42.870 Y98.579 F7200
G0 X43.062 Y98.991
G0 X43.195 Y99.487
G0 X43.240 Y100.000
G0 X43.230 Y100.116
G0 X43.641 Y100.000
G0 X43.599 Y99.517
;segType:Loop
G1 X43.641 Y100.000 E72.13381 F3600
G1 X43.590 Y100.582 E72.15325
G1 X43.439 Y101.147 E72.17269
G1 X43.192 Y101.676 E72.19212
G1 X42.857 Y102.155 E72.21156
G1 X42.444 Y102.568 E72.23100
G1 X41.965 Y102.904 E72.25044
G1 X41.435 Y103.151 E72.26988
G1 X40.871 Y103.302 E72.28932
G1 X40.288 Y103.353 E72.30876
G1 X39.706 Y103.302 E72.32820
G1 X39.142 Y103.150 E72.34763
G1 X38.612 Y102.904 E72.36707
G1 X38.133 Y102.568 E72.38651
G1 X37.720 Y102.155 E72.40595
G1 X37.385 Y101.677 E72.42538
G1 X37.138 Y101.147 E72.44483
G1 X36.987 Y100.582 E72.46427
G1 X36.936 Y100.000 E72.48371
G1 X36.987 Y99.418 E72.50315
G1 X37.138 Y98.853 E72.52259
G1 X37.385 Y98.324 E72.54203
G1 X37.720 Y97.845 E72.56146
G1 X38.133 Y97.432 E72.58090
G1 X38.612 Y97.097 E72.60034
G1 X39.142 Y96.850 E72.61978
G1 X39.706 Y96.698 E72.63921
G1 X40.288 Y96.647 E72.65865
G1 X40.871 Y96.698 E72.67809
G1 X41.435 Y96.850 E72.69753
G1 X41.965 Y97.097 E72.71697
G1 X42.444 Y97.432 E72.73641
G1 X42.857 Y97.845 E72.75585
G1 X43.192 Y98.324 E72.77529
G1 X43.439 Y98.853 E72.79472
G1 X43.564 Y99.321 E72.81082
G0 X43.986 Y100.648 F7200
G1 X43.986 Y100.652 E72.81096 F3600
G1 X43.816 Y101.284 E72.83272
G1 X43.540 Y101.877 E72.85448
G1 X43.164 Y102.413 E72.87625
G1 X42.702 Y102.876 E72.89801
G1 X42.166 Y103.251 E72.91978
G1 X41.572 Y103.528 E72.94155
G1 X40.940 Y103.697 E72.96331
G1 X40.288 Y103.754 E72.98507
G1 X39.637 Y103.697 E73.00684
G1 X39.005 Y103.528 E73.02860
G1 X38.412 Y103.251 E73.05036
G1 X37.875 Y102.876 E73.07213
G1 X37.413 Y102.413 E73.09390
G1 X37.037 Y101.877 E73.11566
G1 X36.761 Y101.284 E73.13743
G1 X36.591 Y100.652 E73.15920
G1 X36.534 Y100.000 E73.18096
G1 X36.591 Y99.348 E73.20272
G1 X36.761 Y98.716 E73.22449
G1 X37.037 Y98.123 E73.24626
G1 X37.413 Y97.587 E73.26802
G1 X37.875 Y97.124 E73.28979
G1 X38.412 Y96.749 E73.31156
G1 X39.005 Y96.472 E73.33332
G1 X39.637 Y96.303 E73.35508
G1 X40.288 Y96.246 E73.37685
G1 X40.940 Y96.303 E73.39862
G1 X41.572 Y96.472 E73.42038
G1 X42.166 Y96.749 E73.44215
G1 X42.702 Y97.124 E73.46392
G1 X43.164 Y97.587 E73.48568
G1 X43.540 Y98.123 E73.50745
G1 X43.816 Y98.716 E73.52922
G1 X43.986 Y99.348 E73.55097
G1 X44.043 Y100.000 E73.57275
G1 X44.004 Y100.449 E73.58773
G0 X43.992 Y101.853 F7200
G1 X43.888 Y102.078 E73.59597 F3600
G1 X43.472 Y102.671 E73.62007
G1 X42.960 Y103.183 E73.64417
G1 X42.366 Y103.599 E73.66826
G1 X41.710 Y103.905 E73.69235
G1 X41.010 Y104.093 E73.71645
G1 X40.288 Y104.156 E73.74053
G1 X39.567 Y104.093 E73.76463
G1 X38.867 Y103.905 E73.78871
G1 X38.211 Y103.599 E73.81281
G1 X37.617 Y103.183 E73.83690
G1 X37.105 Y102.671 E73.86099
G1 X36.690 Y102.078 E73.88508
G1 X36.383 Y101.421 E73.90919
G1 X36.196 Y100.722 E73.93328
G1 X36.133 Y100.000 E73.95737
G1 X36.196 Y99.278 E73.98146
G1 X36.383 Y98.579 E74.00555
G1 X36.690 Y97.922 E74.02965
G1 X37.105 Y97.329 E74.05374
G1 X37.617 Y96.817 E74.07783
G1 X38.211 Y96.401 E74.10192
G1 X38.867 Y96.095 E74.12602
G1 X39.567 Y95.907 E74.15010
G1 X40.288 Y95.844 E74.17420
G1 X41.010 Y95.907 E74.19829
G1 X41.710 Y96.095 E74.22238
G1 X42.366 Y96.401 E74.24649
G1 X42.960 Y96.817 E74.27058
G1 X43.472 Y97.329 E74.29467
G1 X43.888 Y97.922 E74.31877
G1 X44.194 Y98.579 E74.34287
G1 X44.381 Y99.278 E74.36695
G1 X44.444 Y100.000 E74.39105
G1 X44.381 Y100.722 E74.41515
G1 X44.193 Y101.421 E74.43923
G1 X44.077 Y101.672 E74.44843
G0 F3000 E73.44843
G0 X285.277 Y105.704 F7200
G0 F3000 E74.44843
;segType:HShell
G1 X287.297 Y103.683 E74.54344 F3600
G0 X287.945 Y104.732 F7200
G1 X289.431 Y103.247 E74.61332 F3600
G0 X288.395 Y102.585 F7200
G1 X290.411 Y100.569 E74.70813 F3600
G0 X290.438 Y99.976 F7200
G1 X288.988 Y101.426 E74.77634 F3600
G0 X287.619 Y101.065 F7200
;segType:Perimeter
G1 X287.233 Y101.525 E74.79630 F2159
G1 X286.972 Y101.897 E74.81141
G1 X286.608 Y102.261 E74.82853
G1 X286.187 Y102.556 E74.84564
G1 X285.721 Y102.773 E74.86276
G1 X285.224 Y102.906 E74.87986
G1 X284.712 Y102.951 E74.89696
G1 X284.199 Y102.906 E74.91406
G1 X283.702 Y102.773 E74.93118
G1 X283.236 Y102.556 E74.94828
G1 X282.815 Y102.261 E74.96540
G1 X282.451 Y101.897 E74.98252
G1 X282.156 Y101.476 E74.99962
G1 X281.938 Y101.010 E75.01673
G1 X281.805 Y100.512 E75.03384
G1 X281.760 Y100.000 E75.05095
G1 X281.805 Y99.488 E75.06806
G1 X281.938 Y98.991 E75.08517
G1 X282.156 Y98.524 E75.10227
G1 X282.451 Y98.103 E75.11938
G1 X282.815 Y97.739 E75.13650
G1 X283.236 Y97.444 E75.15361
G1 X283.702 Y97.227 E75.17072
G1 X284.199 Y97.094 E75.18782
G1 X284.712 Y97.049 E75.20494
G1 X285.224 Y97.094 E75.22203
G1 X285.721 Y97.227 E75.23914
G1 X286.187 Y97.444 E75.25625
G1 X286.608 Y97.739 E75.27336
G1 X286.972 Y98.103 E75.29048
G1 X287.267 Y98.524 E75.30758
G1 X287.485 Y98.991 E75.32470
G1 X287.618 Y99.488 E75.34181
G1 X287.663 Y100.000 E75.35891
G1 X287.618 Y100.512 E75.37602
G1 X287.485 Y101.009 E75.39313
G1 X287.293 Y101.421 E75.40825
G0 X287.233 Y101.525 F7200
G0 X286.972 Y101.897
G0 X286.608 Y102.261
G0 X286.187 Y102.556
G0 X286.081 Y102.605
G0 X286.388 Y102.903
G0 X286.784 Y102.626
;segType:Loop
G1 X286.388 Y102.903 E75.42435 F3600
G1 X285.858 Y103.151 E75.44380
G1 X285.294 Y103.302 E75.46323
G1 X284.712 Y103.353 E75.48266
G1 X284.130 Y103.302 E75.50210
G1 X283.565 Y103.150 E75.52154
G1 X283.035 Y102.904 E75.54097
G1 X282.557 Y102.568 E75.56041
G1 X282.143 Y102.155 E75.57986
G1 X281.808 Y101.676 E75.59929
G1 X281.561 Y101.147 E75.61872
G1 X281.410 Y100.582 E75.63817
G1 X281.359 Y100.000 E75.65762
G1 X281.410 Y99.418 E75.67703
G1 X281.561 Y98.853 E75.69648
G1 X281.808 Y98.324 E75.71592
G1 X282.143 Y97.845 E75.73535
G1 X282.557 Y97.432 E75.75480
G1 X283.035 Y97.097 E75.77423
G1 X283.565 Y96.850 E75.79367
G1 X284.130 Y96.698 E75.81311
G1 X284.712 Y96.647 E75.83255
G1 X285.294 Y96.698 E75.85198
G1 X285.858 Y96.849 E75.87141
G1 X286.388 Y97.097 E75.89086
G1 X286.866 Y97.432 E75.91028
G1 X287.280 Y97.845 E75.92974
G1 X287.615 Y98.323 E75.94916
G1 X287.862 Y98.854 E75.96862
G1 X288.013 Y99.418 E75.98805
G1 X288.064 Y100.000 E76.00747
G1 X288.013 Y100.582 E76.02692
G1 X287.862 Y101.147 E76.04636
G1 X287.615 Y101.676 E76.06580
G1 X287.280 Y102.155 E76.08523
G1 X286.937 Y102.498 E76.10135
G0 X285.999 Y103.526 F7200
G1 X285.995 Y103.528 E76.10148 F3600
G1 X285.363 Y103.697 E76.12323
G1 X284.712 Y103.754 E76.14498
G1 X284.060 Y103.697 E76.16675
G1 X283.428 Y103.528 E76.18852
G1 X282.835 Y103.251 E76.21028
G1 X282.298 Y102.876 E76.23204
G1 X281.836 Y102.413 E76.25382
G1 X281.460 Y101.877 E76.27558
G1 X281.184 Y101.284 E76.29735
G1 X281.014 Y100.652 E76.31912
G1 X280.957 Y100.000 E76.34089
G1 X281.014 Y99.348 E76.36264
G1 X281.184 Y98.716 E76.38441
G1 X281.460 Y98.123 E76.40618
G1 X281.836 Y97.587 E76.42794
G1 X282.299 Y97.124 E76.44972
G1 X282.834 Y96.749 E76.47146
G1 X283.427 Y96.472 E76.49323
G1 X284.060 Y96.303 E76.51500
G1 X284.712 Y96.246 E76.53677
G1 X285.363 Y96.303 E76.55852
G1 X285.995 Y96.472 E76.58028
G1 X286.589 Y96.749 E76.60205
G1 X287.124 Y97.124 E76.62380
G1 X287.588 Y97.587 E76.64559
G1 X287.963 Y98.123 E76.66734
G1 X288.240 Y98.717 E76.68914
G1 X288.409 Y99.348 E76.71089
G1 X288.466 Y100.000 E76.73263
G1 X288.409 Y100.652 E76.75440
G1 X288.240 Y101.284 E76.77616
G1 X287.963 Y101.877 E76.79795
G1 X287.587 Y102.413 E76.81971
G1 X287.124 Y102.876 E76.84149
G1 X286.589 Y103.251 E76.86324
G1 X286.180 Y103.442 E76.87824
G0 X284.958 Y104.134 F7200
G1 X284.712 Y104.156 E76.88645 F3600
G1 X283.990 Y104.093 E76.91054
G1 X283.290 Y103.905 E76.93464
G1 X282.634 Y103.599 E76.95873
G1 X282.040 Y103.184 E76.98283
G1 X281.528 Y102.671 E77.00693
G1 X281.113 Y102.078 E77.03102
G1 X280.806 Y101.421 E77.05512
G1 X280.619 Y100.721 E77.07922
G1 X280.556 Y100.000 E77.10331
G1 X280.619 Y99.279 E77.12738
G1 X280.806 Y98.579 E77.15149
G1 X281.113 Y97.922 E77.17559
G1 X281.528 Y97.329 E77.19968
G1 X282.041 Y96.816 E77.22379
G1 X282.633 Y96.401 E77.24785
G1 X283.290 Y96.095 E77.27195
G1 X283.990 Y95.907 E77.29605
G1 X284.712 Y95.844 E77.32014
G1 X285.433 Y95.907 E77.34422
G1 X286.133 Y96.095 E77.36830
G1 X286.789 Y96.401 E77.39241
G1 X287.382 Y96.816 E77.41648
G1 X287.895 Y97.329 E77.44060
G1 X288.310 Y97.922 E77.46467
G1 X288.617 Y98.579 E77.48880
G1 X288.804 Y99.279 E77.51288
G1 X288.867 Y100.000 E77.53695
G1 X288.804 Y100.721 E77.56105
G1 X288.617 Y101.421 E77.58514
G1 X288.311 Y102.078 E77.60925
G1 X287.895 Y102.671 E77.63334
G1 X287.382 Y103.184 E77.65744
G1 X286.789 Y103.599 E77.68151
G1 X286.132 Y103.905 E77.70564
G1 X285.433 Y104.093 E77.72972
G1 X285.157 Y104.117 E77.73893
G0 X284.676 Y105.739 F7200
;segType:HShell
G1 X286.138 Y104.277 E77.80770 F3600
G0 X285.391 Y104.458 F7200
G1 X284.109 Y105.740 E77.86799 F3600
G0 X283.543 Y105.740 F7200
G1 X284.771 Y104.512 E77.92574 F3600
G0 X284.241 Y104.476 F7200
G1 X282.978 Y105.740 E77.98517 F3600
G0 X282.412 Y105.740 F7200
G1 X283.750 Y104.401 E78.04813 F3600
G0 X283.304 Y104.282 F7200
G1 X281.846 Y105.740 E78.11670 F3600
G0 X281.281 Y105.740 F7200
G1 X282.900 Y104.120 E78.19286 F3600
G0 X282.514 Y103.941 F7200
G1 X280.715 Y105.740 E78.27748 F3600
G0 X280.149 Y105.740 F7200
G1 X282.173 Y103.716 E78.37267 F3600
G0 X281.840 Y103.483 F7200
G1 X279.584 Y105.740 E78.47881 F3600
G0 X279.018 Y105.740 F7200
G1 X281.552 Y103.205 E78.59802 F3600
G0 X281.270 Y102.922 F7200
G1 X278.452 Y105.740 E78.73055 F3600
G0 X277.887 Y105.740 F7200
G1 X281.033 Y102.593 E78.87856 F3600
G0 X280.800 Y102.260 F7200
G1 X277.321 Y105.740 E79.04222 F3600
G0 X276.755 Y105.740 F7200
G1 X280.620 Y101.875 E79.22402 F3600
G0 X280.449 Y101.480 F7200
G1 X276.190 Y105.740 E79.42437 F3600
G0 X275.624 Y105.740 F7200
G1 X280.330 Y101.034 E79.64572 F3600
G0 X280.243 Y100.555 F7200
G1 X275.058 Y105.740 E79.88958 F3600
G0 X274.492 Y105.740 F7200
G1 X280.197 Y100.035 E80.15792 F3600
G0 X280.245 Y99.422 F7200
G1 X273.927 Y105.740 E80.45510 F3600
G0 X273.361 Y105.740 F7200
G1 X280.401 Y98.700 E80.78623 F3600
G0 X280.812 Y97.723 F7200
G1 X272.795 Y105.740 E81.16332 F3600
G0 X272.230 Y105.740 F7200
G1 X283.709 Y94.261 E81.70324 F3600
G0 X283.143 Y94.261 F7200
G1 X271.664 Y105.740 E82.24317 F3600
G0 X271.098 Y105.740 F7200
G1 X282.577 Y94.261 E82.78309 F3600
G0 X282.011 Y94.261 F7200
G1 X270.533 Y105.740 E83.32302 F3600
G0 X269.967 Y105.740 F7200
G1 X281.446 Y94.261 E83.86294 F3600
G0 X280.880 Y94.261 F7200
G1 X269.401 Y105.740 E84.40286 F3600
G0 X268.836 Y105.740 F7200
G1 X280.314 Y94.261 E84.94279 F3600
G0 X279.749 Y94.261 F7200
G1 X268.270 Y105.740 E85.48271 F3600
G0 X267.704 Y105.740 F7200
G1 X279.183 Y94.261 E86.02264 F3600
G0 X278.617 Y94.261 F7200
G1 X267.139 Y105.739 E86.56256 F3600
G0 X266.573 Y105.739 F7200
G1 X278.052 Y94.261 E87.10249 F3600
G0 X277.486 Y94.261 F7200
G1 X266.007 Y105.739 E87.64241 F3600
G0 X265.442 Y105.739 F7200
G1 X276.920 Y94.261 E88.18233 F3600
G0 X276.355 Y94.261 F7200
G1 X264.876 Y105.739 E88.72226 F3600
G0 X264.310 Y105.739 F7200
G1 X275.789 Y94.261 E89.26218 F3600
G0 X275.223 Y94.261 F7200
G1 X263.745 Y105.739 E89.80211 F3600
G0 X263.179 Y105.739 F7200
G1 X274.658 Y94.261 E90.34203 F3600
G0 X274.092 Y94.261 F7200
G1 X262.613 Y105.739 E90.88196 F3600
G0 X262.047 Y105.739 F7200
G1 X273.526 Y94.261 E91.42188 F3600
G0 X272.961 Y94.261 F7200
G1 X261.482 Y105.739 E91.96181 F3600
G0 X260.916 Y105.739 F7200
G1 X272.395 Y94.261 E92.50173 F3600
G0 X271.829 Y94.261 F7200
G1 X260.350 Y105.739 E93.04166 F3600
G0 X259.785 Y105.739 F7200
G1 X271.264 Y94.261 E93.58158 F3600
G0 X270.698 Y94.261 F7200
G1 X259.219 Y105.739 E94.12151 F3600
G0 X258.653 Y105.739 F7200
G1 X270.132 Y94.261 E94.66143 F3600
G0 X269.567 Y94.261 F7200
G1 X258.088 Y105.739 E95.20135 F3600
G0 X257.522 Y105.739 F7200
G1 X269.001 Y94.261 E95.74128 F3600
G0 X268.435 Y94.261 F7200
G1 X256.956 Y105.739 E96.28120 F3600
G0 X256.391 Y105.739 F7200
G1 X267.869 Y94.261 E96.82113 F3600
G0 X267.304 Y94.261 F7200
G1 X255.825 Y105.739 E97.36105 F3600
G0 X255.259 Y105.739 F7200
G1 X266.738 Y94.261 E97.90098 F3600
G0 X266.172 Y94.261 F7200
G1 X254.694 Y105.739 E98.44090 F3600
G0 X254.128 Y105.739 F7200
G1 X265.607 Y94.261 E98.98083 F3600
G0 X265.041 Y94.261 F7200
G1 X253.562 Y105.739 E99.52075 F3600
G0 X252.997 Y105.739 F7200
G1 X264.475 Y94.261 E100.06068 F3600
G0 X263.910 Y94.261 F7200
G1 X252.431 Y105.739 E100.60060 F3600
G0 X251.865 Y105.739 F7200
G1 X263.344 Y94.261 E101.14053 F3600
G0 X262.778 Y94.261 F7200
G1 X251.300 Y105.739 E101.68045 F3600
G0 X250.734 Y105.739 F7200
G1 X262.213 Y94.261 E102.22038 F3600
G0 X261.647 Y94.261 F7200
G1 X250.168 Y105.739 E102.76030 F3600
G0 X249.603 Y105.739 F7200
G1 X261.081 Y94.261 E103.30022 F3600
G0 X260.516 Y94.261 F7200
G1 X249.037 Y105.739 E103.84015 F3600
G0 X248.471 Y105.739 F7200
G1 X259.950 Y94.261 E104.38007 F3600
G0 X259.384 Y94.261 F7200
G1 X247.905 Y105.739 E104.92000 F3600
G0 X247.340 Y105.739 F7200
G1 X258.819 Y94.261 E105.45992 F3600
G0 X258.253 Y94.261 F7200
G1 X246.774 Y105.739 E105.99985 F3600
G0 X246.208 Y105.739 F7200
G1 X257.687 Y94.261 E106.53977 F3600
G0 X257.122 Y94.261 F7200
G1 X245.643 Y105.739 E107.07970 F3600
G0 X245.077 Y105.739 F7200
G1 X256.556 Y94.261 E107.61962 F3600
G0 X255.990 Y94.261 F7200
G1 X244.511 Y105.739 E108.15955 F3600
G0 X243.946 Y105.739 F7200
G1 X255.424 Y94.261 E108.69947 F3600
G0 X254.859 Y94.261 F7200
G1 X243.380 Y105.739 E109.23940 F3600
G0 X242.814 Y105.739 F7200
G1 X254.293 Y94.261 E109.77932 F3600
G0 X253.727 Y94.261 F7200
G1 X242.249 Y105.739 E110.31924 F3600
G0 X241.683 Y105.739 F7200
G1 X253.162 Y94.261 E110.85917 F3600
G0 X252.596 Y94.261 F7200
G1 X241.117 Y105.739 E111.39909 F3600
G0 X240.552 Y105.739 F7200
G1 X252.030 Y94.261 E111.93902 F3600
G0 X251.465 Y94.261 F7200
G1 X239.986 Y105.739 E112.47894 F3600
G0 X239.420 Y105.739 F7200
G1 X250.899 Y94.261 E113.01887 F3600
G0 X250.333 Y94.261 F7200
G1 X238.855 Y105.739 E113.55879 F3600
G0 X238.289 Y105.739 F7200
G1 X249.768 Y94.260 E114.09872 F3600
G0 X249.202 Y94.260 F7200
G1 X237.723 Y105.739 E114.63864 F3600
G0 X237.158 Y105.739 F7200
G1 X248.636 Y94.260 E115.17857 F3600
G0 X248.071 Y94.260 F7200
G1 X236.592 Y105.739 E115.71849 F3600
G0 X236.026 Y105.739 F7200
G1 X247.505 Y94.260 E116.25842 F3600
G0 X246.939 Y94.260 F7200
G1 X235.460 Y105.739 E116.79834 F3600
G0 X234.895 Y105.739 F7200
G1 X246.374 Y94.260 E117.33826 F3600
G0 X245.808 Y94.260 F7200
G1 X234.329 Y105.739 E117.87819 F3600
G0 X233.763 Y105.739 F7200
G1 X245.242 Y94.260 E118.41811 F3600
G0 X244.677 Y94.260 F7200
G1 X233.198 Y105.739 E118.95804 F3600
G0 X232.632 Y105.739 F7200
G1 X244.111 Y94.260 E119.49796 F3600
G0 X243.545 Y94.260 F7200
G1 X232.066 Y105.739 E120.03789 F3600
G0 X231.501 Y105.739 F7200
G1 X242.980 Y94.260 E120.57781 F3600
G0 X242.414 Y94.260 F7200
G1 X230.935 Y105.739 E121.11774 F3600
G0 X230.369 Y105.739 F7200
G1 X241.848 Y94.260 E121.65766 F3600
G0 X241.282 Y94.260 F7200
G1 X229.804 Y105.739 E122.19759 F3600
G0 X229.238 Y105.739 F7200
G1 X240.717 Y94.260 E122.73751 F3600
G0 X240.151 Y94.260 F7200
G1 X228.672 Y105.739 E123.27744 F3600
G0 X228.107 Y105.739 F7200
G1 X239.585 Y94.260 E123.81736 F3600
G0 X239.020 Y94.260 F7200
G1 X227.541 Y105.739 E124.35728 F3600
G0 X226.975 Y105.739 F7200
G1 X238.454 Y94.260 E124.89721 F3600
G0 X237.888 Y94.260 F7200
G1 X226.410 Y105.739 E125.43713 F3600
G0 X225.844 Y105.739 F7200
G1 X237.323 Y94.260 E125.97706 F3600
G0 X236.757 Y94.260 F7200
G1 X225.278 Y105.739 E126.51698 F3600
G0 X224.713 Y105.739 F7200
G1 X236.191 Y94.260 E127.05691 F3600
G0 X235.626 Y94.260 F7200
G1 X224.147 Y105.739 E127.59683 F3600
G0 X223.581 Y105.739 F7200
G1 X235.060 Y94.260 E128.13676 F3600
G0 X234.494 Y94.260 F7200
G1 X223.015 Y105.739 E128.67670 F3600
G0 X222.450 Y105.739 F7200
G1 X233.929 Y94.260 E129.21663 F3600
G0 X233.363 Y94.260 F7200
G1 X221.884 Y105.739 E129.75656 F3600
G0 X221.318 Y105.739 F7200
G1 X232.797 Y94.260 E130.29649 F3600
G0 X232.232 Y94.260 F7200
G1 X220.753 Y105.739 E130.83643 F3600
G0 X220.187 Y105.739 F7200
G1 X231.666 Y94.260 E131.37636 F3600
G0 X231.100 Y94.260 F7200
G1 X219.621 Y105.739 E131.91629 F3600
G0 X219.056 Y105.739 F7200
G1 X230.535 Y94.260 E132.45622 F3600
G0 X229.969 Y94.260 F7200
G1 X218.490 Y105.739 E132.99615 F3600
G0 X217.924 Y105.739 F7200
G1 X229.403 Y94.260 E133.53609 F3600
G0 X228.837 Y94.260 F7200
G1 X217.359 Y105.739 E134.07602 F3600
G0 X216.793 Y105.739 F7200
G1 X228.272 Y94.260 E134.61595 F3600
G0 X227.706 Y94.260 F7200
G1 X216.227 Y105.739 E135.15588 F3600
G0 X215.662 Y105.739 F7200
G1 X227.140 Y94.260 E135.69582 F3600
G0 X226.575 Y94.260 F7200
G1 X215.096 Y105.739 E136.23575 F3600
G0 X214.530 Y105.739 F7200
G1 X226.009 Y94.260 E136.77568 F3600
G0 X225.443 Y94.260 F7200
G1 X213.965 Y105.739 E137.31561 F3600
G0 X213.399 Y105.739 F7200
G1 X224.878 Y94.260 E137.85555 F3600
G0 X224.312 Y94.260 F7200
G1 X212.833 Y105.739 E138.39548 F3600
G0 X212.267 Y105.739 F7200
G1 X223.746 Y94.260 E138.93541 F3600
G0 X223.181 Y94.260 F7200
G1 X211.702 Y105.739 E139.47534 F3600
G0 X211.136 Y105.739 F7200
G1 X222.615 Y94.260 E140.01527 F3600
G0 X222.049 Y94.260 F7200
G1 X210.570 Y105.739 E140.55521 F3600
G0 X210.005 Y105.739 F7200
G1 X221.484 Y94.260 E141.09514 F3600
G0 X220.918 Y94.260 F7200
G1 X209.439 Y105.739 E141.63507 F3600
G0 X208.873 Y105.739 F7200
G1 X220.352 Y94.260 E142.17500 F3600
G0 X219.787 Y94.260 F7200
G1 X208.308 Y105.739 E142.71494 F3600
G0 X207.742 Y105.739 F7200
G1 X219.221 Y94.260 E143.25487 F3600
G0 X218.655 Y94.260 F7200
G1 X207.176 Y105.739 E143.79480 F3600
G0 X206.611 Y105.739 F7200
G1 X218.090 Y94.260 E144.33473 F3600
G0 X217.524 Y94.260 F7200
G1 X206.045 Y105.739 E144.87466 F3600
G0 X205.479 Y105.739 F7200
G1 X216.958 Y94.260 E145.41460 F3600
G0 X216.392 Y94.260 F7200
G1 X204.914 Y105.739 E145.95453 F3600
G0 X204.348 Y105.739 F7200
G1 X215.827 Y94.260 E146.49446 F3600
G0 X215.261 Y94.260 F7200
G1 X203.782 Y105.739 E147.03439 F3600
G0 X203.216 Y105.739 F7200
G1 X214.695 Y94.260 E147.57433 F3600
G0 X214.130 Y94.260 F7200
G1 X202.651 Y105.739 E148.11426 F3600
G0 X202.085 Y105.739 F7200
G1 X213.564 Y94.260 E148.65419 F3600
G0 X212.998 Y94.260 F7200
G1 X201.519 Y105.739 E149.19412 F3600
G0 X200.954 Y105.739 F7200
G1 X212.433 Y94.260 E149.73405 F3600
G0 X211.867 Y94.260 F7200
G1 X200.388 Y105.739 E150.27399 F3600
G0 X199.822 Y105.739 F7200
G1 X211.301 Y94.260 E150.81392 F3600
G0 X210.736 Y94.260 F7200
G1 X199.257 Y105.739 E151.35385 F3600
G0 X198.691 Y105.739 F7200
G1 X210.170 Y94.260 E151.89378 F3600
G0 X209.604 Y94.260 F7200
G1 X198.125 Y105.739 E152.43372 F3600
G0 X197.560 Y105.739 F7200
G1 X209.039 Y94.260 E152.97365 F3600
G0 X208.473 Y94.260 F7200
G1 X196.994 Y105.739 E153.51358 F3600
G0 X196.428 Y105.739 F7200
G1 X207.907 Y94.260 E154.05351 F3600
G0 X207.342 Y94.260 F7200
G1 X195.863 Y105.739 E154.59344 F3600
G0 X195.297 Y105.739 F7200
G1 X206.776 Y94.260 E155.13338 F3600
G0 X206.210 Y94.260 F7200
G1 X194.731 Y105.739 E155.67331 F3600
G0 X194.165 Y105.739 F7200
G1 X205.645 Y94.260 E156.21324 F3600
G0 X205.079 Y94.260 F7200
G1 X193.600 Y105.739 E156.75317 F3600
G0 X193.034 Y105.739 F7200
G1 X204.513 Y94.260 E157.29311 F3600
G0 X203.947 Y94.260 F7200
G1 X192.468 Y105.739 E157.83304 F3600
G0 X191.903 Y105.739 F7200
G1 X203.382 Y94.260 E158.37297 F3600
G0 X202.816 Y94.260 F7200
G1 X191.337 Y105.739 E158.91290 F3600
G0 X190.771 Y105.739 F7200
G1 X202.250 Y94.260 E159.45284 F3600
G0 X201.685 Y94.260 F7200
G1 X190.206 Y105.739 E159.99277 F3600
G0 X189.640 Y105.739 F7200
G1 X201.119 Y94.260 E160.53270 F3600
G0 X200.553 Y94.260 F7200
G1 X189.074 Y105.739 E161.07263 F3600
G0 X188.509 Y105.739 F7200
G1 X199.988 Y94.260 E161.61256 F3600
G0 X199.422 Y94.260 F7200
G1 X187.943 Y105.739 E162.15250 F3600
G0 X187.377 Y105.739 F7200
G1 X198.856 Y94.260 E162.69243 F3600
G0 X198.291 Y94.260 F7200
G1 X186.812 Y105.739 E163.23236 F3600
G0 X186.246 Y105.739 F7200
G1 X197.725 Y94.260 E163.77229 F3600
G0 X197.159 Y94.260 F7200
G1 X185.680 Y105.739 E164.31223 F3600
G0 X185.114 Y105.739 F7200
G1 X196.594 Y94.260 E164.85216 F3600
G0 X196.028 Y94.260 F7200
G1 X184.549 Y105.739 E165.39209 F3600
G0 X183.983 Y105.739 F7200
G1 X195.462 Y94.260 E165.93202 F3600
G0 X194.896 Y94.260 F7200
G1 X183.417 Y105.739 E166.47195 F3600
G0 X182.852 Y105.739 F7200
G1 X194.331 Y94.260 E167.01189 F3600
G0 X193.765 Y94.260 F7200
G1 X182.286 Y105.739 E167.55182 F3600
G0 X181.720 Y105.739 F7200
G1 X193.199 Y94.260 E168.09176 F3600
G0 X192.634 Y94.260 F7200
G1 X181.155 Y105.739 E168.63168 F3600
G0 X180.589 Y105.739 F7200
G1 X192.068 Y94.260 E169.17162 F3600
G0 X191.502 Y94.260 F7200
G1 X180.023 Y105.739 E169.71154 F3600
G0 X179.458 Y105.739 F7200
G1 X190.937 Y94.260 E170.25148 F3600
G0 X190.371 Y94.260 F7200
G1 X178.892 Y105.739 E170.79142 F3600
G0 X178.326 Y105.739 F7200
G1 X189.805 Y94.260 E171.33134 F3600
G0 X189.240 Y94.260 F7200
G1 X177.761 Y105.739 E171.87128 F3600
G0 X177.195 Y105.739 F7200
G1 X188.674 Y94.260 E172.41120 F3600
G0 X188.108 Y94.260 F7200
G1 X176.629 Y105.739 E172.95114 F3600
G0 X176.064 Y105.739 F7200
G1 X187.543 Y94.260 E173.49108 F3600
G0 X186.977 Y94.260 F7200
G1 X175.498 Y105.739 E174.03100 F3600
G0 X174.932 Y105.739 F7200
G1 X186.411 Y94.260 E174.57094 F3600
G0 X185.845 Y94.260 F7200
G1 X174.366 Y105.739 E175.11088 F3600
G0 X173.801 Y105.739 F7200
G1 X185.280 Y94.260 E175.65080 F3600
G0 X184.714 Y94.260 F7200
G1 X173.235 Y105.739 E176.19074 F3600
G0 X172.669 Y105.739 F7200
G1 X184.148 Y94.260 E176.73066 F3600
G0 X183.583 Y94.260 F7200
G1 X172.104 Y105.739 E177.27060 F3600
G0 X171.538 Y105.739 F7200
G1 X183.017 Y94.260 E177.81054 F3600
G0 X182.451 Y94.260 F7200
G1 X170.972 Y105.739 E178.35046 F3600
G0 X170.407 Y105.739 F7200
G1 X181.886 Y94.260 E178.89040 F3600
G0 X181.320 Y94.260 F7200
G1 X169.841 Y105.739 E179.43032 F3600
G0 X169.275 Y105.739 F7200
G1 X180.754 Y94.260 E179.97026 F3600
G0 X180.189 Y94.260 F7200
G1 X168.710 Y105.739 E180.51020 F3600
G0 X168.144 Y105.739 F7200
G1 X179.623 Y94.260 E181.05012 F3600
G0 X179.057 Y94.260 F7200
G1 X167.578 Y105.739 E181.59006 F3600
G0 X167.013 Y105.739 F7200
G1 X178.492 Y94.260 E182.12998 F3600
G0 X177.926 Y94.260 F7200
G1 X166.447 Y105.739 E182.66992 F3600
G0 X165.881 Y105.739 F7200
G1 X177.360 Y94.260 E183.20986 F3600
G0 X176.794 Y94.260 F7200
G1 X165.315 Y105.739 E183.74978 F3600
G0 X164.750 Y105.739 F7200
G1 X176.229 Y94.260 E184.28972 F3600
G0 X175.663 Y94.260 F7200
G1 X164.184 Y105.739 E184.82966 F3600
G0 X163.618 Y105.739 F7200
G1 X175.097 Y94.260 E185.36958 F3600
G0 X174.532 Y94.260 F7200
G1 X163.053 Y105.739 E185.90952 F3600
G0 X162.487 Y105.739 F7200
G1 X173.966 Y94.260 E186.44944 F3600
G0 X173.400 Y94.260 F7200
G1 X161.921 Y105.739 E186.98938 F3600
G0 X161.356 Y105.739 F7200
G1 X172.835 Y94.260 E187.52932 F3600
G0 X172.269 Y94.260 F7200
G1 X160.790 Y105.739 E188.06924 F3600
G0 X160.224 Y105.739 F7200
G1 X171.703 Y94.260 E188.60918 F3600
G0 X171.138 Y94.260 F7200
G1 X159.659 Y105.739 E189.14910 F3600
G0 X159.093 Y105.739 F7200
G1 X170.572 Y94.260 E189.68904 F3600
G0 X170.006 Y94.260 F7200
G1 X158.527 Y105.739 E190.22898 F3600
G0 X157.962 Y105.739 F7200
G1 X169.441 Y94.260 E190.76890 F3600
G0 X168.875 Y94.260 F7200
G1 X157.396 Y105.739 E191.30884 F3600
G0 X156.830 Y105.739 F7200
G1 X168.309 Y94.260 E191.84878 F3600
G0 X167.744 Y94.260 F7200
G1 X156.264 Y105.739 E192.38870 F3600
G0 X155.699 Y105.739 F7200
G1 X167.178 Y94.260 E192.92864 F3600
G0 X166.612 Y94.260 F7200
G1 X155.133 Y105.739 E193.46856 F3600
G0 X154.567 Y105.739 F7200
G1 X166.046 Y94.260 E194.00850 F3600
G0 X165.481 Y94.260 F7200
G1 X154.002 Y105.739 E194.54844 F3600
G0 X153.436 Y105.739 F7200
G1 X164.915 Y94.260 E195.08836 F3600
G0 X164.349 Y94.260 F7200
G1 X152.870 Y105.739 E195.62830 F3600
G0 X152.305 Y105.739 F7200
G1 X163.784 Y94.260 E196.16822 F3600
G0 X163.218 Y94.260 F7200
G1 X151.739 Y105.739 E196.70816 F3600
G0 X151.173 Y105.739 F7200
G1 X162.652 Y94.260 E197.24810 F3600
G0 X162.087 Y94.260 F7200
G1 X150.608 Y105.739 E197.78802 F3600
G0 X150.042 Y105.739 F7200
G1 X161.521 Y94.260 E198.32796 F3600
G0 X160.955 Y94.260 F7200
G1 X149.476 Y105.739 E198.86788 F3600
G0 X148.911 Y105.739 F7200
G1 X160.390 Y94.260 E199.40782 F3600
G0 X159.824 Y94.260 F7200
G1 X148.345 Y105.739 E199.94776 F3600
G0 X147.779 Y105.739 F7200
G1 X159.258 Y94.260 E200.48768 F3600
G0 X158.693 Y94.260 F7200
G1 X147.213 Y105.739 E201.02762 F3600
G0 X146.648 Y105.739 F7200
G1 X158.127 Y94.260 E201.56756 F3600
G0 X157.561 Y94.260 F7200
G1 X146.082 Y105.739 E202.10748 F3600
G0 X145.516 Y105.739 F7200
G1 X156.995 Y94.260 E202.64742 F3600
G0 X156.430 Y94.260 F7200
G1 X144.951 Y105.739 E203.18734 F3600
G0 X144.385 Y105.739 F7200
G1 X155.864 Y94.260 E203.72728 F3600
G0 X155.298 Y94.260 F7200
G1 X143.819 Y105.739 E204.26722 F3600
G0 X143.254 Y105.739 F7200
G1 X154.733 Y94.260 E204.80714 F3600
G0 X154.167 Y94.260 F7200
G1 X142.688 Y105.739 E205.34708 F3600
G0 X142.122 Y105.739 F7200
G1 X153.601 Y94.260 E205.88700 F3600
G0 X153.036 Y94.260 F7200
G1 X141.557 Y105.739 E206.42694 F3600
G0 X140.991 Y105.739 F7200
G1 X152.470 Y94.260 E206.96688 F3600
G0 X151.904 Y94.260 F7200
G1 X140.425 Y105.739 E207.50680 F3600
G0 X139.860 Y105.739 F7200
G1 X151.339 Y94.260 E208.04674 F3600
G0 X150.773 Y94.260 F7200
G1 X139.294 Y105.739 E208.58666 F3600
G0 X138.728 Y105.739 F7200
G1 X150.207 Y94.260 E209.12660 F3600
G0 X149.642 Y94.260 F7200
G1 X138.162 Y105.739 E209.66654 F3600
G0 X137.597 Y105.739 F7200
G1 X149.076 Y94.260 E210.20646 F3600
G0 X148.510 Y94.260 F7200
G1 X137.031 Y105.739 E210.74640 F3600
G0 X136.465 Y105.739 F7200
G1 X147.944 Y94.260 E211.28634 F3600
G0 X147.379 Y94.260 F7200
G1 X135.900 Y105.739 E211.82626 F3600
G0 X135.334 Y105.739 F7200
G1 X146.813 Y94.260 E212.36620 F3600
G0 X146.247 Y94.260 F7200
G1 X134.768 Y105.739 E212.90612 F3600
G0 X134.203 Y105.739 F7200
G1 X145.682 Y94.260 E213.44606 F3600
G0 X145.116 Y94.260 F7200
G1 X133.637 Y105.739 E213.98600 F3600
G0 X133.071 Y105.739 F7200
G1 X144.550 Y94.260 E214.52592 F3600
G0 X143.985 Y94.260 F7200
G1 X132.506 Y105.739 E215.06586 F3600
G0 X131.940 Y105.739 F7200
G1 X143.419 Y94.260 E215.60578 F3600
G0 X142.853 Y94.260 F7200
G1 X131.374 Y105.739 E216.14572 F3600
G0 X130.809 Y105.739 F7200
G1 X142.288 Y94.260 E216.68566 F3600
G0 X141.722 Y94.260 F7200
G1 X130.243 Y105.739 E217.22558 F3600
G0 X129.677 Y105.739 F7200
G1 X141.156 Y94.260 E217.76552 F3600
G0 X140.591 Y94.260 F7200
G1 X129.112 Y105.739 E218.30546 F3600
G0 X128.546 Y105.739 F7200
G1 X140.025 Y94.260 E218.84538 F3600
G0 X139.459 Y94.260 F7200
G1 X127.980 Y105.739 E219.38532 F3600
G0 X127.414 Y105.739 F7200
G1 X138.893 Y94.260 E219.92524 F3600
G0 X138.328 Y94.260 F7200
G1 X126.849 Y105.739 E220.46518 F3600
G0 X126.283 Y105.739 F7200
G1 X137.762 Y94.260 E221.00512 F3600
G0 X137.196 Y94.260 F7200
G1 X125.717 Y105.739 E221.54504 F3600
G0 X125.152 Y105.739 F7200
G1 X136.631 Y94.260 E222.08498 F3600
G0 X136.065 Y94.260 F7200
G1 X124.586 Y105.739 E222.62490 F3600
G0 X124.020 Y105.739 F7200
G1 X135.499 Y94.260 E223.16484 F3600
G0 X134.934 Y94.260 F7200
G1 X123.455 Y105.739 E223.70478 F3600
G0 X122.889 Y105.739 F7200
G1 X134.368 Y94.260 E224.24470 F3600
G0 X133.802 Y94.260 F7200
G1 X122.323 Y105.739 E224.78464 F3600
G0 X121.758 Y105.739 F7200
G1 X133.237 Y94.260 E225.32456 F3600
G0 X132.671 Y94.260 F7200
G1 X121.192 Y105.739 E225.86450 F3600
G0 X120.626 Y105.739 F7200
G1 X132.105 Y94.260 E226.40444 F3600
G0 X131.540 Y94.260 F7200
G1 X120.061 Y105.739 E226.94436 F3600
G0 X119.495 Y105.739 F7200
G1 X130.974 Y94.260 E227.48430 F3600
G0 X130.408 Y94.260 F7200
G1 X118.929 Y105.739 E228.02424 F3600
G0 X118.363 Y105.739 F7200
G1 X129.842 Y94.260 E228.56416 F3600
G0 X129.277 Y94.260 F7200
G1 X117.798 Y105.739 E229.10410 F3600
G0 X117.232 Y105.739 F7200
G1 X128.711 Y94.260 E229.64402 F3600
G0 X128.145 Y94.260 F7200
G1 X116.666 Y105.739 E230.18396 F3600
G0 X116.101 Y105.739 F7200
G1 X127.580 Y94.260 E230.72390 F3600
G0 X127.014 Y94.260 F7200
G1 X115.535 Y105.739 E231.26382 F3600
G0 X114.969 Y105.739 F7200
G1 X126.448 Y94.260 E231.80376 F3600
G0 X125.883 Y94.260 F7200
G1 X114.404 Y105.739 E232.34368 F3600
G0 X113.838 Y105.739 F7200
G1 X125.317 Y94.260 E232.88362 F3600
G0 X124.751 Y94.260 F7200
G1 X113.272 Y105.739 E233.42356 F3600
G0 X112.707 Y105.739 F7200
G1 X124.186 Y94.260 E233.96348 F3600
G0 X123.620 Y94.260 F7200
G1 X112.141 Y105.739 E234.50342 F3600
G0 X111.575 Y105.739 F7200
G1 X123.054 Y94.260 E235.04336 F3600
G0 X122.489 Y94.260 F7200
G1 X111.010 Y105.739 E235.58328 F3600
G0 X110.444 Y105.739 F7200
G1 X121.923 Y94.260 E236.12322 F3600
G0 X121.357 Y94.260 F7200
G1 X109.878 Y105.739 E236.66314 F3600
G0 X109.312 Y105.739 F7200
G1 X120.791 Y94.260 E237.20308 F3600
G0 X120.226 Y94.260 F7200
G1 X108.747 Y105.739 E237.74302 F3600
G0 X108.181 Y105.739 F7200
G1 X119.660 Y94.260 E238.28294 F3600
G0 X119.094 Y94.260 F7200
G1 X107.615 Y105.739 E238.82288 F3600
G0 X107.050 Y105.739 F7200
G1 X118.529 Y94.260 E239.36280 F3600
G0 X117.963 Y94.260 F7200
G1 X106.484 Y105.739 E239.90274 F3600
G0 X105.918 Y105.739 F7200
G1 X117.397 Y94.260 E240.44268 F3600
G0 X116.832 Y94.260 F7200
G1 X105.353 Y105.739 E240.98260 F3600
G0 X104.787 Y105.739 F7200
G1 X116.266 Y94.260 E241.52254 F3600
G0 X115.700 Y94.260 F7200
G1 X104.221 Y105.739 E242.06246 F3600
G0 X103.656 Y105.739 F7200
G1 X115.135 Y94.260 E242.60240 F3600
G0 X114.569 Y94.260 F7200
G1 X103.090 Y105.739 E243.14234 F3600
G0 X102.524 Y105.739 F7200
G1 X114.003 Y94.260 E243.68226 F3600
G0 X113.438 Y94.260 F7200
G1 X101.959 Y105.739 E244.22220 F3600
G0 X101.393 Y105.739 F7200
G1 X112.872 Y94.260 E244.76214 F3600
G0 X112.306 Y94.260 F7200
G1 X100.827 Y105.739 E245.30206 F3600
G0 X100.261 Y105.739 F7200
G1 X111.741 Y94.260 E245.84200 F3600
G0 X111.175 Y94.260 F7200
G1 X99.696 Y105.739 E246.38192 F3600
G0 X99.130 Y105.739 F7200
G1 X110.609 Y94.260 E246.92186 F3600
G0 X110.043 Y94.260 F7200
G1 X98.564 Y105.739 E247.46180 F3600
G0 X97.999 Y105.739 F7200
G1 X109.478 Y94.260 E248.00172 F3600
G0 X108.912 Y94.260 F7200
G1 X97.433 Y105.739 E248.54166 F3600
G0 X96.867 Y105.739 F7200
G1 X108.346 Y94.260 E249.08158 F3600
G0 X107.781 Y94.260 F7200
G1 X96.302 Y105.739 E249.62152 F3600
G0 X95.736 Y105.739 F7200
G1 X107.215 Y94.260 E250.16146 F3600
G0 X106.649 Y94.260 F7200
G1 X95.170 Y105.739 E250.70138 F3600
G0 X94.605 Y105.739 F7200
G1 X106.084 Y94.260 E251.24132 F3600
G0 X105.518 Y94.260 F7200
G1 X94.039 Y105.739 E251.78124 F3600
G0 X93.473 Y105.739 F7200
G1 X104.952 Y94.260 E252.32118 F3600
G0 X104.387 Y94.260 F7200
G1 X92.908 Y105.739 E252.86112 F3600
G0 X92.342 Y105.739 F7200
G1 X103.821 Y94.260 E253.40104 F3600
G0 X103.255 Y94.260 F7200
G1 X91.776 Y105.739 E253.94098 F3600
G0 X91.210 Y105.739 F7200
G1 X102.690 Y94.260 E254.48092 F3600
G0 X102.124 Y94.260 F7200
G1 X90.645 Y105.739 E255.02084 F3600
G0 X90.079 Y105.739 F7200
G1 X101.558 Y94.260 E255.56078 F3600
G0 X100.992 Y94.260 F7200
G1 X89.513 Y105.739 E256.10070 F3600
G0 X88.948 Y105.739 F7200
G1 X100.427 Y94.260 E256.64066 F3600
G0 X99.861 Y94.260 F7200
G1 X88.382 Y105.739 E257.18060 F3600
G0 X87.816 Y105.739 F7200
G1 X99.295 Y94.260 E257.72056 F3600
G0 X98.730 Y94.260 F7200
G1 X87.251 Y105.739 E258.26050 F3600
G0 X86.685 Y105.739 F7200
G1 X98.164 Y94.260 E258.80044 F3600
G0 X97.598 Y94.260 F7200
G1 X86.119 Y105.739 E259.34040 F3600
G0 X85.554 Y105.739 F7200
G1 X97.033 Y94.260 E259.88034 F3600
G0 X96.467 Y94.260 F7200
G1 X84.988 Y105.739 E260.42028 F3600
G0 X84.422 Y105.739 F7200
G1 X95.901 Y94.260 E260.96024 F3600
G0 X95.336 Y94.260 F7200
G1 X83.857 Y105.739 E261.50018 F3600
G0 X83.291 Y105.739 F7200
G1 X94.770 Y94.260 E262.04014 F3600
G0 X94.204 Y94.260 F7200
G1 X82.725 Y105.739 E262.58008 F3600
G0 X82.160 Y105.739 F7200
G1 X93.639 Y94.260 E263.12002 F3600
G0 X93.073 Y94.260 F7200
G1 X81.594 Y105.739 E263.65998 F3600
G0 X81.028 Y105.739 F7200
G1 X92.507 Y94.260 E264.19992 F3600
G0 X91.941 Y94.260 F7200
G1 X80.462 Y105.739 E264.73986 F3600
G0 X79.897 Y105.739 F7200
G1 X91.376 Y94.260 E265.27982 F3600
G0 X90.810 Y94.260 F7200
G1 X79.331 Y105.739 E265.81976 F3600
G0 X78.765 Y105.739 F7200
G1 X90.244 Y94.260 E266.35972 F3600
G0 X89.679 Y94.260 F7200
G1 X78.200 Y105.739 E266.89966 F3600
G0 X77.634 Y105.739 F7200
G1 X89.113 Y94.260 E267.43960 F3600
G0 X88.547 Y94.260 F7200
G1 X77.068 Y105.739 E267.97956 F3600
G0 X76.503 Y105.739 F7200
G1 X87.982 Y94.260 E268.51950 F3600
G0 X87.416 Y94.260 F7200
G1 X75.937 Y105.739 E269.05944 F3600
G0 X75.371 Y105.739 F7200
G1 X86.850 Y94.260 E269.59940 F3600
G0 X86.285 Y94.260 F7200
G1 X74.806 Y105.739 E270.13934 F3600
G0 X74.240 Y105.739 F7200
G1 X85.719 Y94.260 E270.67930 F3600
G0 X85.153 Y94.260 F7200
G1 X73.674 Y105.739 E271.21924 F3600
G0 X73.109 Y105.739 F7200
G1 X84.588 Y94.260 E271.75918 F3600
G0 X84.022 Y94.260 F7200
G1 X72.543 Y105.739 E272.29914 F3600
G0 X71.977 Y105.739 F7200
G1 X83.456 Y94.260 E272.83908 F3600
G0 X82.890 Y94.260 F7200
G1 X71.411 Y105.739 E273.37902 F3600
G0 X70.846 Y105.739 F7200
G1 X82.325 Y94.260 E273.91898 F3600
G0 X81.759 Y94.260 F7200
G1 X70.280 Y105.739 E274.45892 F3600
G0 X69.714 Y105.739 F7200
G1 X81.193 Y94.260 E274.99888 F3600
G0 X80.628 Y94.260 F7200
G1 X69.149 Y105.739 E275.53882 F3600
G0 X68.583 Y105.739 F7200
G1 X80.062 Y94.260 E276.07876 F3600
G0 X79.496 Y94.260 F7200
G1 X68.017 Y105.739 E276.61872 F3600
G0 X67.452 Y105.739 F7200
G1 X78.931 Y94.260 E277.15866 F3600
G0 X78.365 Y94.261 F7200
G1 X66.886 Y105.739 E277.69860 F3600
G0 X66.320 Y105.739 F7200
G1 X77.799 Y94.261 E278.23856 F3600
G0 X77.234 Y94.261 F7200
G1 X65.755 Y105.739 E278.77850 F3600
G0 X65.189 Y105.739 F7200
G1 X76.668 Y94.261 E279.31846 F3600
G0 X76.102 Y94.261 F7200
G1 X64.623 Y105.739 E279.85840 F3600
G0 X64.058 Y105.739 F7200
G1 X75.537 Y94.261 E280.39834 F3600
G0 X74.971 Y94.261 F7200
G1 X63.492 Y105.739 E280.93830 F3600
G0 X62.926 Y105.739 F7200
G1 X74.405 Y94.261 E281.47824 F3600
G0 X73.839 Y94.261 F7200
G1 X62.361 Y105.739 E282.01818 F3600
G0 X61.795 Y105.739 F7200
G1 X73.274 Y94.261 E282.55814 F3600
G0 X72.708 Y94.261 F7200
G1 X61.229 Y105.739 E283.09808 F3600
G0 X60.663 Y105.739 F7200
G1 X72.142 Y94.261 E283.63804 F3600
G0 X71.577 Y94.261 F7200
G1 X60.098 Y105.739 E284.17798 F3600
G0 X59.532 Y105.739 F7200
G1 X71.011 Y94.261 E284.71792 F3600
G0 X70.445 Y94.261 F7200
G1 X58.966 Y105.739 E285.25788 F3600
G0 X58.401 Y105.739 F7200
G1 X69.880 Y94.261 E285.79782 F3600
G0 X69.314 Y94.261 F7200
G1 X57.835 Y105.739 E286.33776 F3600
G0 X57.269 Y105.739 F7200
G1 X68.748 Y94.261 E286.87772 F3600
G0 X68.183 Y94.261 F7200
G1 X56.704 Y105.739 E287.41766 F3600
G0 X56.138 Y105.739 F7200
G1 X67.617 Y94.261 E287.95762 F3600
G0 X67.051 Y94.261 F7200
G1 X55.572 Y105.739 E288.49756 F3600
G0 X55.007 Y105.739 F7200
G1 X66.486 Y94.261 E289.03750 F3600
G0 X65.920 Y94.261 F7200
G1 X54.441 Y105.739 E289.57746 F3600
G0 X53.875 Y105.739 F7200
G1 X65.354 Y94.261 E290.11740 F3600
G0 X64.788 Y94.261 F7200
G1 X53.310 Y105.739 E290.65734 F3600
G0 X52.744 Y105.739 F7200
G1 X64.223 Y94.261 E291.19730 F3600
G0 X63.657 Y94.261 F7200
G1 X52.178 Y105.739 E291.73724 F3600
G0 X51.612 Y105.739 F7200
G1 X63.091 Y94.261 E292.27720 F3600
G0 X62.526 Y94.261 F7200
G1 X51.047 Y105.739 E292.81714 F3600
G0 X50.481 Y105.739 F7200
G1 X61.960 Y94.261 E293.35708 F3600
G0 X61.394 Y94.261 F7200
G1 X49.915 Y105.739 E293.89704 F3600
G0 X49.350 Y105.739 F7200
G1 X60.829 Y94.261 E294.43698 F3600
G0 X60.263 Y94.261 F7200
G1 X48.784 Y105.739 E294.97692 F3600
G0 X48.218 Y105.739 F7200
G1 X59.697 Y94.261 E295.51688 F3600
G0 X59.132 Y94.261 F7200
G1 X47.653 Y105.739 E296.05682 F3600
G0 X47.087 Y105.739 F7200
G1 X58.566 Y94.261 E296.59678 F3600
G0 X58.000 Y94.261 F7200
G1 X46.521 Y105.739 E297.13672 F3600
G0 X45.956 Y105.739 F7200
G1 X57.435 Y94.261 E297.67666 F3600
G0 X56.869 Y94.261 F7200
G1 X45.390 Y105.739 E298.21662 F3600
G0 X44.824 Y105.739 F7200
G1 X56.303 Y94.261 E298.75656 F3600
G0 X55.738 Y94.261 F7200
G1 X44.259 Y105.739 E299.29650 F3600
G0 X43.693 Y105.739 F7200
G1 X55.172 Y94.261 E299.83646 F3600
G0 X54.606 Y94.261 F7200
G1 X43.127 Y105.739 E300.37640 F3600
G0 X42.562 Y105.739 F7200
G1 X54.040 Y94.261 E300.91636 F3600
G0 X53.475 Y94.261 F7200
G1 X41.996 Y105.739 E301.45630 F3600
G0 X41.430 Y105.739 F7200
G1 X52.909 Y94.261 E301.99624 F3600
G0 F3000 E300.99624
G0 X281.400 Y100.468 F7200
G0 X281.410 Y100.582
G0 X281.561 Y101.147
G0 X281.808 Y101.676
G0 X282.143 Y102.155
G0 X282.557 Y102.568
G0 X283.035 Y102.904
G0 X283.565 Y103.150
G0 X284.130 Y103.302
G0 X284.712 Y103.353
G0 X285.294 Y103.302
G0 X285.858 Y103.151
G0 X286.388 Y102.903
G0 X286.866 Y102.568
G0 X287.280 Y102.155
G0 X287.615 Y101.676
G0 X287.862 Y101.147
G0 X287.996 Y100.647
G0 X289.169 Y100.679
G0 F3000 E301.99624
G1 X290.412 Y99.437 E302.05468 F3600
G0 X290.345 Y98.938 F7200
G1 X289.223 Y100.060 E302.10746 F3600
G0 X289.188 Y99.530 F7200
G1 X290.237 Y98.481 E302.15680 F3600
G0 X290.098 Y98.054 F7200
G1 X289.113 Y99.039 E302.20312 F3600
G0 X288.993 Y98.593 F7200
G1 X289.938 Y97.647 E302.24758 F3600
G0 X289.749 Y97.271 F7200
G1 X288.832 Y98.188 E302.29074 F3600
G0 X288.652 Y97.802 F7200
G1 X289.538 Y96.917 E302.33240 F3600
G0 X289.313 Y96.575 F7200
G1 X288.428 Y97.461 E302.37406 F3600
G0 X288.195 Y97.129 F7200
G1 X289.055 Y96.268 E302.41456 F3600
G0 X288.786 Y95.971 F7200
G1 X287.916 Y96.841 E302.45548 F3600
G0 X287.634 Y96.558 F7200
G1 X288.495 Y95.697 E302.49600 F3600
G0 X288.182 Y95.444 F7200
G1 X287.304 Y96.322 E302.53730 F3600
G0 X286.971 Y96.089 F7200
G1 X287.857 Y95.204 E302.57894 F3600
G0 X287.498 Y94.996 F7200
G1 X286.586 Y95.909 E302.62188 F3600
G0 X286.191 Y95.738 F7200
G1 X287.125 Y94.804 E302.66580 F3600
G0 X286.730 Y94.634 F7200
G1 X285.745 Y95.618 E302.71210 F3600
